BIOROB-Lab-192/Bilateral-Teleoperation-TouchHaptic-FR3/Simulation/Bilateral Impedance Control/Data Collected/FR3_PnP_EMG_NoUser_HighStiff_Copy.csv
q1(deg),q2(deg),q3(deg),q4(deg),q5(deg),q6(deg),q7(deg),tau_1 (Nm),tau_2 (Nm),tau_3 (Nm),tau_4 (Nm),tau_5(Nm),tau_6(Nm),tau_7(Nm),Fx (N),Fy (N),Fz (N),tau_x (Nm),tau_y (Nm),tau_z (Nm)
-0.9231059990465472,38.0066295555911,0.030408958725887707,-94.81370750787012,-0.10857206131231455,133.3072492523156,44.25645548887787,-0.15139792705354793,3.9456498898194874,0.22165442249192915,-1.7021260460728338,0.1448142032553505,-0.006204974213899586,-0.20760050068429517,2.6029842564124137,0.5349111764325426,6.623940927417235,0.534904797818889,0.03462161711296986,-0.2310502173931257
-0.9230078786072288,38.00701639803234,0.03030681885646093,-94.81356594078183,-0.10869436984409436,133.30737316384315,44.25669595802081,-0.1791189789212243,4.028303107811331,0.20539268392981042,-1.7300806562733682,0.13946634846599304,-0.009653643310570163,-0.20726418094909682,2.702930174881268,0.5736713091215631,6.757800391035863,0.5396446895066956,0.021884468048495333,-0.23299508496264248
-0.9232280907493817,38.006757511442,0.030306800250808123,-94.81378409406496,-0.1087688827565052,133.3074863871774,44.25649290769905,-0.1581184595069302,4.0401437625943295,0.205935921944184,-1.7435761159433476,0.14193815501232016,-0.012006284377303892,-0.20378083374855682,2.6743228458903205,0.5409577316489779,6.773293286542417,0.5247609640578018,0.026804101852204387,-0.22620869318621853
-0.9229112656993961,38.00668269708865,0.0303068167890962,-94.81354037911724,-0.10857498228114429,133.30724923228865,44.25646759291712,-0.16672247721864128,3.953277546925321,0.20661731296688784,-1.6947185774097733,0.14304290268108436,-0.005278278985702688,-0.20930907407850127,2.6592167662201103,0.5607128270819094,6.639005569018961,0.5367092464720449,0.024995498579835473,-0.23254638510954656
-0.9234833907849985,38.00676363119659,0.030368268852189656,-94.81378865129479,-0.10879927301567048,133.30743614591012,44.25674021082219,-0.16395015929162454,3.977207790050059,0.2109322383013342,-1.7123334137342368,0.14252932988207284,-0.006682222567595001,-0.20330229660918764,2.6411289373135447,0.573188423302969,6.670171750707648,0.5421023555005458,0.028997443896644166,-0.23232883648577357
-0.9232282566129204,38.00670549868741,0.030408958716435213,-94.81343529792042,-0.10881282518936333,133.30722535209762,44.25629377558022,-0.22224207237972257,4.007285344129292,0.164420195662168,-1.7277349889773113,0.14268284714799892,-0.009868884757516436,-0.2055992553872309,2.699162680410364,0.5637579168273952,6.727997439167468,0.5317709251651178,0.02056864802133048,-0.2289758734522051
-0.9231054964026376,38.007021011974,0.030306632794576058,-94.81367026135011,-0.10879179186926999,133.30737922790945,44.256467130695675,-0.17662681882072595,3.9757699351132008,0.20024660819665555,-1.7121919482570602,0.14404810043495264,-0.00905662125729017,-0.20189986278612915,2.6190649730216737,0.5253711576555746,6.708981224532511,0.5330200277301992,0.034733632212096965,-0.23282246182729815
-0.9231604283517636,38.00675521940665,0.030407284219961698,-94.81370833724306,-0.10846375689419406,133.30709250612566,44.25633711112525,-0.145791042674275,4.001732228175091,0.21405885484113066,-1.717752912765078,0.1415046793017523,-0.008225349034143677,-0.20781045654917862,2.6333018968427537,0.5991251736775196,6.6801812333296215,0.5371999662616704,0.03038993017722203,-0.22871986853290371
-0.9231059802093718,38.00669078712845,0.030408958725887707,-94.81354985376716,-0.10870521090419107,133.3071585180765,44.256647186804315,-0.19467602733345651,3.930632934330332,0.19224367163551254,-1.68892139481527,0.14228952483696458,-0.003669172048119239,-0.19715385838231905,2.6331910091889204,0.5770265085711825,6.736374354675884,0.536508539519021,0.03318504440126956,-0.22986138589845595
-0.9232204940938046,38.006998551007925,0.030514558530580455,-94.81342669318462,-0.10879519998943998,133.30729379349157,44.25636321989642,-0.14848381051280843,4.035016233118644,0.21486118484553976,-1.7456178225807677,0.14219975352995404,-0.011769940822676522,-0.20680191999511566,2.620492704469317,0.5099192807209839,6.73221862491056,0.529126777947007,0.03693441839515993,-0.22975095684109284
-0.9232203049209727,38.00687642119414,0.030306650718389186,-94.81366802851466,-0.1088128051036596,133.307369699609,44.256740210826976,-0.1549497739772207,3.9769231962752385,0.2226333522674839,-1.712059013324751,0.14257524863067114,-0.007444826950377887,-0.20881422213102308,2.649538801597705,0.5403910150600872,6.7189872687350345,0.5289170346333335,0.02917394664992391,-0.22809358033188876
-0.923121071688339,38.00674856857984,0.030187655675463127,-94.81344755083072,-0.10866720090573581,133.3074437570061,44.256516872387095,-0.1716931298597578,3.9870133200755986,0.19807258038647738,-1.7161578338739374,0.13903780502479762,-0.008875643660900098,-0.2027402903966186,2.6404149691314327,0.5603633692345202,6.7425032447858175,0.5329740418683886,0.030199726357811107,-0.22878026052046996
-0.9229988411433825,38.00685109404346,0.030187655675463127,-94.81344749869942,-0.10850424204350118,133.30725199670567,44.25656033840778,-0.1603065643690115,3.983699186245605,0.20734897336027336,-1.7153175336892985,0.1426905429449106,-0.008759590237520475,-0.20629861642499686,2.6874456647212117,0.5852026381846803,6.7699829743703726,0.5352557852859303,0.02473184516378648,-0.2308704807604291
-0.9233838170532539,38.00686401493756,0.03030681882242639,-94.8137084254606,-0.10844473405928202,133.30734920460083,44.256334817292306,-0.17153486749463331,4.006812275589524,0.1942237754686204,-1.731857864783598,0.14257753886592106,-0.012550815666207641,-0.20472369442959282,2.640536407787456,0.5951465011143108,6.641777209495803,0.5481693900440056,0.02649477076461816,-0.23532514228844573
-0.9230078724075739,38.006758500751545,0.030187655445767604,-94.81368341780077,-0.10846336485320802,133.3073761775899,44.256555490697735,-0.18134124351142472,3.9951317530582124,0.1973982602917774,-1.720068341315988,0.14099235677689653,-0.009197990796035069,-0.20178039818766438,2.6539840417735854,0.5215603801039455,6.703045366005036,0.5263507831462138,0.02722802126681363,-0.23228010284085543
-0.9231242598601913,38.00679317900363,0.030523544993479607,-94.81354978044578,-0.10855117355297293,133.3074335320805,44.25660377710769,-0.17339439126293665,3.992760324443604,0.2150992341393127,-1.7236906688202032,0.14065315724476618,-0.009030022858649315,-0.20577004011115974,2.624966792764274,0.6422626097072699,6.674280341333257,0.5517843632919146,0.029834034517054152,-0.23226583061700512
-0.9230077104427401,38.006904869205634,0.030408902909874403,-94.81377093958893,-0.10868810298356549,133.30740032355632,44.256696541001645,-0.15361746315036526,3.986117900357556,0.21387578786396544,-1.718263928562985,0.14229013830449042,-0.009099066278052924,-0.20393479898301992,2.6425401173043683,0.5335745484347373,6.687347701134526,0.5266836033099633,0.028881166519377714,-0.227036830256246
-0.9229840955888232,38.00690491825431,0.03030682505835319,-94.81366819492757,-0.10851104267098002,133.30742130113862,44.256603527273505,-0.20197346138685718,4.006548222151519,0.1823950265496695,-1.7304201523843115,0.14049892049367274,-0.011408272455053945,-0.20594171629346342,2.6431940392363584,0.6048958405502103,6.717774260631695,0.5417063602672756,0.029115760992702553,-0.2310324187404012
-0.9231059988177713,38.00679170839261,0.030251821478018963,-94.81344815231122,-0.10873502581617149,133.30742276842716,44.25645621615892,-0.1814673729863232,4.005763064063444,0.18970559793815445,-1.719509986500652,0.14173480961103097,-0.010241215248937171,-0.20315093857788166,2.6936275770022817,0.5735440808776953,6.719015758037727,0.5307599491260242,0.01972317382010161,-0.22639118717904966
-0.9233485911340263,38.006918009089596,0.03040879126934055,-94.813771100007,-0.10846786406502922,133.30712121612999,44.25650795154872,-0.1642993593122631,3.998197231767765,0.2103194695006122,-1.7207844327268285,0.1423728513175259,-0.009271819391317986,-0.20461066714169887,2.664129301749714,0.5494146560469316,6.707552396310727,0.532627032514226,0.025980018172054378,-0.22868202912191685
-0.9230079470766351,38.006803859580636,0.03029323075715434,-94.81372141816693,-0.10852701790946126,133.30725190928737,44.25627389990189,-0.13181092652997017,4.000704022232859,0.23567908488606978,-1.7247745456295982,0.14104350064286128,-0.0111391753850095,-0.20090931214519717,2.656108792475468,0.4964275875361693,6.7084456564482595,0.520734519277063,0.025866987031063667,-0.22503060977479883
-0.9233775546344525,38.00687759669518,0.03036776627837438,-94.81388938376769,-0.10873773625860017,133.30741565395985,44.256783621551634,-0.18770417632558806,4.027765554184518,0.18974348374634242,-1.7272196948692373,0.14249007091920296,-0.01307545826943163,-0.20685484860489606,2.7230994109648083,0.5878981004307875,6.751441333357837,0.5389267201150176,0.01360526079437473,-0.2306378510893173
-0.9232204912345863,38.00701643300975,0.03040895252410802,-94.81366879981918,-0.10868753141113194,133.30714316479236,44.25645623979365,-0.19337840059122005,3.9820506326552927,0.18975179318875574,-1.7163745305123732,0.1426199310489041,-0.009039645447235513,-0.20744024342785763,2.6394898737487384,0.5950747060156694,6.680668981123727,0.5432151429798812,0.029044118708534038,-0.23204971447216058
-0.9231059995069942,38.00653138795966,0.03030676304044724,-94.8134476651755,-0.10856869846918808,133.30729383306343,44.25656036639559,-0.16690260752566397,4.00140742860901,0.19996956885502792,-1.72183541047142,0.14167841116652408,-0.009804708369928321,-0.20340954719061283,2.6920655134904274,0.5555489149727368,6.7647420532830935,0.5334343150665002,0.022068269268936656,-0.22708779369634313
-0.9230532644736452,38.00669028278492,0.030408958955551114,-94.81358909987912,-0.10851118180244891,133.30739454217755,44.25655743241179,-0.1522841884044759,4.020120504624381,0.22551932615476475,-1.7376974586983385,0.14156262787768978,-0.012170866636872616,-0.21021003060333618,2.6477258011241367,0.5393499193402771,6.73913058892663,0.5371291940275587,0.029397993892105744,-0.2347824187317511
-0.9231103593066893,38.00680369481385,0.0303952272889162,-94.81367367176036,-0.10877533888370938,133.3074226876591,44.25646731877621,-0.1501188703055321,3.9858600323553715,0.2193794610034732,-1.712797996528123,0.14208521774648578,-0.008649515500087685,-0.20530984379519532,2.668304093537407,0.5304849934354163,6.687974699908689,0.528512397043698,0.023998082739285713,-0.22877460980752468
-0.9232204786246433,38.00691632920814,0.030266128957239905,-94.81366880004195,-0.10870524826777457,133.3071674263133,44.25639988475396,-0.20326210062461791,3.9825501370331367,0.1730759524955333,-1.7126876039237087,0.1436349532512982,-0.008879866954403797,-0.20327098152146203,2.638487167050212,0.5992913983237625,6.738150273643059,0.5388709440335671,0.03268017674580228,-0.22821391575789093
-0.9233425620277719,38.006757298271985,0.03020121921373549,-94.81354964260352,-0.10861537621589226,133.30741552535727,44.256489971179235,-0.17483124989449003,3.9733803834243213,0.19989229722238738,-1.7051366995731785,0.14396258855071678,-0.007058132202971892,-0.20545072682350315,2.6622599343636715,0.5429215958258025,6.697787375339399,0.5297913169324383,0.026005041068357642,-0.22987290738466154
-0.9227693582875773,37.971123646572934,0.03004066063663767,-94.80106793688229,-0.11027492621670498,133.3071536948358,44.25774625058146,-0.1309999925713911,3.366227940612442,0.1933577928474402,-1.58593454972917,0.06339573698106149,-0.06443860944522341,-0.13215297440043786,1.593160356445053,0.256218394158832,5.393260494326566,0.24637038085613316,0.1066189681278681,-0.09199621796029092
-0.9224880413551199,37.83010977774773,0.029978805276803567,-94.73538744544503,-0.11039668302494501,133.30723069465907,44.25795382518875,-0.1392980481853398,3.097216748077208,0.13993238177720374,-1.53819159036543,0.021785793730509904,-0.09842620560420945,-0.048811347007978165,1.233617622228749,0.24741755305942248,5.031547894045101,0.23567890165762995,0.08728280693599516,-0.0889341544781615
-0.9220370538747432,37.675776342425415,0.029897840714682437,-94.72105766345055,-0.11092089583296107,133.28704179292512,44.258150384618666,-0.16821640472452232,3.096017657559117,0.11287532589376773,-1.6308550355256723,0.020930726379214205,-0.3536092432937981,-0.03765414640650147,1.2831460531385481,0.20026408832946635,4.4112773158754255,0.20080773408253536,-0.32529159333557717,-0.07068075144715005
-0.9057774496261054,37.48728912906095,0.02961259641362617,-94.71999215140394,-0.11090766434598252,133.1344623317035,44.25883736312532,-0.034690216779696706,2.940673638236992,0.16222180310219306,-1.6340187650636844,0.019440316864441306,-0.533459644084877,-0.0075574938007522945,1.24841288992472,-0.13869831610935865,4.027654865599948,0.0719851212421451,-0.5206425866625772,-0.0003645711515626905
-0.8427497377346308,37.17612928018328,0.02932389285788322,-94.72013733828466,-0.11119530421670928,132.84470347861577,44.26262887167682,0.11480940386432047,2.961506054195476,0.17793657737272597,-1.6922770517125993,0.020519079636422483,-0.6607379690348875,0.111870208841579,1.352342258256666,-0.3401111765187313,3.8542818746208707,-0.044399172257671635,-0.6057342744341758,0.0903858196448568
-0.7802366671842732,36.99482667337925,0.029208189620646956,-94.72016344679085,-0.1113031132545306,132.66663018932263,44.28871307165474,0.1935476304353872,2.7792468236002716,0.11968089397308045,-1.58931620244691,0.015777895076989408,-0.6930741558733644,0.13246181112346692,1.614180385621824,-0.5914090037901427,3.7812019378335835,-0.19243092436683842,-0.6943369426973125,0.1512999992188546
-0.5515836852373691,36.65126538273252,0.0290890250359412,-94.71806466543751,-0.11151998334805988,132.28197163557036,44.45146558423376,0.2993416285764363,3.0015198664206286,0.1582920455581879,-1.6630901148960224,0.0019373125743364376,-0.6711363489305029,0.17093544786069595,2.0121818529585447,-0.7104976329166797,3.828460300159877,-0.3005217771496585,-0.7350491839079247,0.2179837109875138
0.13072547838793108,35.89404488043728,0.02898740760601783,-94.66745137308416,-0.11396989755069852,131.5213661258776,44.97150304929618,0.221844068549049,3.0287362909179936,0.09911096551963706,-1.565501393275139,-0.009010564070623523,-0.6430086960433652,0.25597555539614025,2.4357215175105686,-0.8381256284990934,3.987749796474058,-0.349178284685336,-0.831196977374169,0.26556641496635347
0.4750088910945869,35.62793114949461,0.02894868723388605,-94.63751828230755,-0.11491535428684949,131.25320979834692,45.252501880278885,0.25822574316267116,3.053570062800674,0.1405422475104633,-1.549916974805479,-0.0206997083247935,-0.6724942325851135,0.27984560552781584,2.4698515881189906,-0.8326931726104285,3.9137707364883947,-0.35252411574799924,-0.8458435545865295,0.2686394712579202
1.4050071515738667,35.16475964312525,0.02856834784667513,-94.48705336750183,-0.1298604854231873,130.61944361596431,46.049003344155956,0.22630096120222262,3.115705841366641,0.18430290003453575,-1.6441370073334665,-0.07270426665648341,-0.6573153315136648,0.2412576709785795,2.1771104631252958,-0.7876747389327408,4.023745432496685,-0.3360889482016185,-0.7565496600948444,0.214061024017545
2.699186434398157,34.71570491197104,0.030034864535430247,-94.23159751020417,-0.13941582060129884,129.9400083429297,47.254620265099334,0.31333042801612315,3.051192621351697,0.22303493188664753,-1.5967631386772838,-0.09626597262911267,-0.6501275150886522,0.21475863248656543,2.2314502049910816,-0.9241039428600982,3.897236690153025,-0.3890037605023241,-0.7669320904470517,0.19341482502952353
4.33688427279104,34.46441749797809,0.03396564526637096,-93.77588970210435,-0.15264074217755072,129.21929422906797,48.75591040222418,-0.03866367015120136,3.0983054250767084,0.06429785257762405,-1.618640240647956,-0.12385327203378971,-0.6654301076851988,0.209883844859762,2.341299430512234,-0.5173720734187044,3.916348746704123,-0.29339356357752455,-0.7994012376991133,0.16130259652975537
6.1765961421380515,34.43329741803288,0.0382813949032846,-93.08066858901387,-0.17164971193051562,128.53360992687527,50.49942960943862,0.22136005497373717,3.1504032689094585,0.23097579756057773,-1.5585560526204956,-0.13724790091701855,-0.6542680036054872,0.23889315296001293,3.134346783609177,-1.431838895395563,4.095095708393893,-0.4869351590843039,-0.9268590089870895,0.18957948806457542
8.169875209860079,34.602843574189215,0.04178720865901522,-92.08684518520134,-0.18715602470290485,127.82999166791359,52.433023629758466,0.09501467909438238,3.637750495244084,0.12944005764143596,-1.6406756934980242,-0.15745244698240443,-0.6689417840976509,0.23387327088134435,4.579803159831834,-1.7459336737879858,4.702409934696505,-0.6287535469399167,-1.1760069601623095,0.20639346704134706
10.238773576961595,35.20445141111192,0.04633125566799509,-90.82224425824866,-0.19812343203410898,127.15991980573247,54.46952588995944,0.010565899947192493,3.784734541682414,0.031474705089454734,-1.4046063662542534,-0.17052156888592093,-0.6707202435104338,0.2458938039153927,5.593144897724464,-1.4805497110918917,4.7133550928872765,-0.5940038194412534,-1.3845721550859373,0.20219374444364632
12.304176191162757,36.08050960867871,0.04905661640395676,-89.26568457180878,-0.21733025013574814,126.53231416907717,56.54557510830953,0.6209812623448716,4.1462979042488675,0.4114845030975837,-1.6138052870774249,-0.19211295595288597,-0.7150620270991828,0.22600577236613703,5.842690027856846,-3.0451615307519653,5.20713677124772,-0.9265179125300405,-1.4359443139607104,0.20585103373085653
14.333045268404765,37.281778749505186,0.053002174037977114,-87.44602026789035,-0.2287023310224469,125.86239439544194,58.58875039285327,0.051462385083602284,4.339006664924565,0.03764406089735265,-1.6577615309927731,-0.19362679101236815,-0.7441794424495224,0.20492442106242265,6.646187754266012,-2.8917885714218903,5.384564005577877,-0.9243589799687447,-1.5763494146681292,0.1888367470144773
16.220122612288318,38.69945434850187,0.05194108788830232,-85.44293858614371,-0.24722408188310807,125.29682134500483,60.52741363256138,0.828678082995765,3.70105776422563,0.5464787871467965,-1.1841928449470978,-0.20481429880353705,-0.6719782404023869,0.22901602318073988,7.010256873745712,-2.9486323793292426,6.181388021910846,-0.9244730018851426,-1.5796849023626192,0.1857591675914235
17.929902344042162,40.28777945762563,0.051313526994535744,-83.34158816657708,-0.24952165322617004,124.75541696833547,62.30219854647282,0.8560457053448237,4.4465715009633815,0.5093628363104684,-1.5130737758254404,-0.20331727088095122,-0.6973798077906547,0.23347411538601875,7.859563529197894,-3.443919468393113,6.47646522382487,-1.036034151930571,-1.7135491029135066,0.20243692854451964
19.43497638956481,41.99287282067066,0.051389861979389745,-81.2166352427497,-0.25117882673742564,124.35791895516557,63.86935645596981,0.7478866880075917,3.8978918500766344,0.38376970806881083,-1.3166756607174195,-0.1963985011252509,-0.6852580540740756,0.25362398017029036,7.637769563468095,-3.7992693153998767,6.776603307949562,-1.1222719179755276,-1.6886338417865967,0.23424203282900286
20.10411798188419,42.83641701430424,0.051894681450709856,-80.18992648365466,-0.2520464821154549,124.20864238343101,64.59035135251027,0.8463946668404925,4.559987511383626,0.4551745539204218,-1.4952740990563071,-0.21320184164353306,-0.7293469998226689,0.2669898038342316,7.615743639658815,-4.18512276055824,5.286423592978327,-1.272243137528164,-1.721356737703881,0.2710938555482752
21.210251800259805,44.492054779162224,0.05146665371859111,-78.35626825816446,-0.2669498767294845,123.97577926362402,65.80063706391863,0.46369921136610115,4.632275339452699,0.20788658778549723,-1.5281253411646456,-0.2222433764078971,-0.731226178573704,0.3269777381787297,7.887475530099151,-4.602191680804512,5.52617787431344,-1.3065953268945274,-1.6827782955360773,0.29775748307055006
22.34370893051987,46.68655356168275,0.05055057154686945,-76.32180565239275,-0.2699021914621722,123.94691396454299,67.08997628610784,0.6087183171099633,4.49147537099596,0.22043430397170924,-1.377160026594831,-0.22575837329551057,-0.4317808034421245,0.33303028317233574,7.689566303758886,-4.520107950615498,6.125368732588453,-1.2366645275334853,-1.3860606305274294,0.3111080813727866
22.570711930177936,47.284243223329455,0.050383111843453766,-75.89361661855088,-0.27041572743862125,124.05304246507384,67.36503205981795,0.6166461963070244,4.751282270082477,0.22857401285673584,-1.4494986472984013,-0.2245935739326799,-0.14423849310788506,0.3949224732281085,7.302351722090918,-4.540442123446046,7.039231715710567,-1.1129369209276418,-0.9562126672472456,0.36636363687198326
22.779704019838107,48.24600514031572,0.050222552922382445,-75.47182869458392,-0.2715706634015799,124.56248006119341,67.67059029344314,0.3920014051922601,4.8741308559149354,0.1271541169692201,-1.6540042738550076,-0.2286912081269312,-0.13812444296332838,0.4369998454004235,3.81185984109397,-2.458697188706254,6.928821535502378,-0.5822672187538414,-0.2577120029106672,0.3076423542030557
22.744040188685975,48.922481991678104,0.044464203420855816,-75.58957087696757,-0.2719815062797573,125.38204478393368,67.71431016019532,0.04688260072469589,4.927582450983909,0.17687274159249383,-2.440541066665557,-0.21271499359313048,-0.15042948916859966,0.18155380557987152,1.9233332829893799,-1.2221293183935704,7.357272750943009,-0.1821551313855056,0.1031654852163022,0.10597428351682867
22.367198955019294,49.13117719437293,0.043707147031578214,-76.35269142952393,-0.2720995260037081,126.43118796338466,67.69334045416345,-0.1482642661938683,4.842729071561602,0.16789880713313607,-2.5276698741559396,-0.20328578338423786,-0.09882216492176313,-0.1312511566384902,1.120534987053344,-0.1332657746668012,7.321595341080792,0.2371982929641019,0.24515952124938303,-0.20412568883491689
21.649165741537008,49.16951635997574,0.03945752314002372,-77.672545582049,-0.27193558510004917,127.73455127392444,67.27101730760116,-0.3324608887279181,3.761190677424744,0.13844740568161168,-2.346738270056971,-0.17996481797107666,-0.08669227045273337,-0.23599699000502233,-1.2884199635397353,1.2711264066709,5.590936010410056,0.5791659021157737,0.5829631112314118,-0.3162707904153832
20.62524068887319,49.004957330819025,0.037920215166065675,-79.42519896096059,-0.27165070835368615,129.11787001939177,66.4892357927156,-0.3689939476201923,3.4580188110146715,0.005608248708627768,-2.4571490432615284,-0.1620580834867715,-0.09141997263154601,-0.2189169035255526,-2.8738639050147152,1.892180662694711,5.03664714054962,0.636515894053451,0.8904928803168876,-0.2799333128770625
19.33611546054325,48.58867301060954,0.03376769220500747,-81.4243062916362,-0.2718614100352795,130.5750422014137,65.29473408376558,-0.18623648828357828,3.21997351815183,0.10187141148107076,-2.5187105165284667,-0.12269659992191376,-0.06274620508871206,-0.188198555286473,-4.083812557215754,1.943680029148096,4.645167459528031,0.651261859943941,1.1404852810524846,-0.2377097443584711
17.786319534985488,47.89229385504245,0.02521818878188712,-83.52936953747827,-0.27129901824458397,132.04242367640236,63.87752037586098,-0.41396994540687126,2.8158048557720146,-0.07505318513321241,-2.1650740674046336,-0.08296750374317459,0.001741877952609438,-0.18326002693670249,-3.3386631501120947,1.9106896648954121,4.181039488235024,0.6541091074099561,1.00936603234188,-0.22761196241451837
16.036208644983265,47.1216239939436,0.018551604915575805,-85.61920385308822,-0.2702191918156598,133.37595886777964,62.19794942607486,-0.40062715694138906,3.4774600955123733,-0.010185922493884525,-2.733867018022761,-0.07714125282364225,-0.012522610035643431,-0.1970376803182492,-4.419220548812544,2.1051675509957724,5.151859294926477,0.7594904804732294,1.296833087396307,-0.2500760607824342
14.10096515994883,46.276129877574554,0.014871733006080206,-87.60531485572855,-0.26825882446679117,134.55510560752234,60.33541622808243,0.06648725233468915,2.9625221156861974,0.27920868444544394,-2.2963995122495913,-0.05588500691077802,0.019516506117186378,-0.17671853269538856,-4.066863571112385,1.7680721642484027,4.600750937490151,0.7103477828041853,1.2024035993600177,-0.24612063051057603
12.09015203272877,45.46452318230974,0.013494743298334388,-89.35977187274162,-0.2654652200969154,135.48361411585375,58.366829944528725,-0.45150250640794654,3.332280303120357,-0.03645685195669481,-2.614969658442578,-0.046871557245391576,0.022963680107901285,-0.20164040142332185,-3.785334992746613,1.323464231887221,5.385128392484864,0.6212804666801509,1.2479199414929416,-0.24099913710244303
10.043319418766512,44.589782854746424,0.008318634341798964,-90.84994066564103,-0.2620805848029736,136.17390778975624,56.33687666630868,-0.24945788680998587,3.5668271409896226,0.11382646951028881,-2.6649848676932115,-0.03561907536075925,0.04779650823468369,-0.20361010013352848,-4.1126658407775265,1.708433659908311,4.890990587242264,0.7154084947946759,1.2981124518878626,-0.24382942186396495
7.967272455504393,43.805640903945466,0.0036374269140179477,-92.07374417906206,-0.2598049600227492,136.63225879641953,54.25882227602996,-0.4573803587917887,3.4239705615212666,-0.05967906391341341,-2.674236740872181,-0.022080606455391026,0.042478888337958196,-0.20133063437777415,-4.296767726619894,1.0537140788481136,5.571189139475371,0.617927622514465,1.400246919803153,-0.20761107189355657
6.002041087837968,42.94172707255512,0.0015669179474436673,-93.00386375964844,-0.21514446564724887,136.77528266581015,52.24271690851184,-0.5641432875148135,3.3767978776872445,-0.09416403468805325,-2.631779052564577,0.08441334129592998,0.08215274273431293,-0.19120559617543073,-4.56109598603393,1.1681414705224726,4.957076667900273,0.6397190392834535,1.385387604822941,-0.1983375728495704
4.4008384357431645,42.31073149159882,0.0006345899469502572,-93.58983788777333,-0.19613469040659978,136.77640300952308,50.58061176693208,-0.5393031607032202,3.3507784266012117,-0.09745427013052997,-2.72177632775145,0.11126353403228208,-0.18377759185528614,-0.18476871863769018,-3.5993506570336558,1.5715722194055957,4.451290339479603,0.6890002999449365,0.6863628800691751,-0.2134538376559809
2.5747904885008723,41.37365202880457,-0.002510443909098978,-94.09908802911602,-0.1890996646681021,136.5636924707734,48.65055526712405,-0.4008265966130237,2.973015400678709,0.023401108975672432,-2.618425450549369,0.1210204830238216,-0.5508806706223899,-0.18378744037058295,-3.7557551155333195,1.0627447108508088,3.7628088006248284,0.603882889058699,0.5458701073216798,-0.21249873116863371
1.2329545195098892,40.63381564830829,-0.0022311053894150954,-94.35884802390987,-0.18604278192328175,136.06475387920617,47.17893415994768,-0.4574888520246052,3.175583074174729,-0.030845120080058207,-2.7811962645816584,0.11922953705637598,-0.6917013180489967,-0.18492447048197955,-3.665796357941859,1.0441816566927873,3.9175986155252454,0.5878093712118814,0.4101868312287689,-0.21373484362049605
0.20017000602620033,39.80490653116861,-0.0019630783844539813,-94.47436482325652,-0.16637326037358255,135.45689108501224,46.04000992187575,-0.509307640838208,2.8173294135272378,-0.03868439418763209,-2.6281945120797534,0.1476277730188637,-0.6924506409941301,-0.21465031761593278,-4.261205307900765,1.064157219332008,3.468220823427982,0.6465411098137108,0.5147823738055692,-0.2530922537354373
-0.2023210389977946,39.44223245831668,-0.0028095092131414537,-94.52302200387862,-0.1649938623981675,135.0583722849549,45.566188050513865,-0.3386048592405722,2.969642563180215,0.0620166511106214,-2.775453607413057,0.1300954211900919,-0.6681135920101935,-0.22396426114710094,-4.18508808177248,0.8069041259206821,3.688374143352111,0.5815612819012693,0.5357025378901771,-0.24694776398789717
-0.7096719585348601,38.580771393429025,-0.002339977601742507,-94.5692853049419,-0.16417294181165162,134.29251449958517,44.90274614821798,-0.48075501509110224,2.711488589640821,-0.0023562869435860855,-2.652745281027865,0.1288160569509778,-0.627959341090985,-0.2671559177592139,-4.3368190817419885,1.0338850728074074,3.3783157703008233,0.6681533388640533,0.5840643954811547,-0.2981033398916538
-0.8520528216069634,37.353122990504666,-0.0013971332484631735,-94.59873390906859,-0.16394340007430103,133.08952632074252,44.61134898973533,-0.15500491968967334,2.89815204562844,0.051052767027266396,-2.6789818621680013,0.11542651479542315,-0.6629037823951601,-0.2807442943276484,-3.8124439538408765,0.6134510504691848,3.696895500644779,0.4706360864834877,0.4668523952495007,-0.2719263529316209
-0.7435654108569375,36.922757624357516,-0.0017872900329788516,-94.60057069490858,-0.1640223549928588,132.63920490005282,44.612168615906555,0.15011585653902068,2.6563751113937917,0.010583881476556254,-2.525189313427747,0.09221269441573955,-0.6416717128647631,0.11383685081724065,-3.715350470057651,-0.3931164547381081,3.383749047671724,-0.11030283599344533,0.43755656069607124,0.13897491682104876
-0.18365350821128712,36.1895816166114,-0.001342661724788504,-94.60104208097539,-0.16405489675157495,131.84401614921558,44.823215101163925,0.31154861089635505,2.763686644973188,0.02492786467317338,-2.1800545758127234,0.059914070816251684,-0.6210365670154702,0.1744658319446842,-1.6711968249272453,-0.6732109676748581,3.6116097271863445,-0.2817922746762614,0.04855169266458697,0.21195932597405914
0.7400885836937597,35.47128753703436,0.00041732817099341253,-94.54541210437841,-0.16483274478615517,131.07894574711992,45.47278161916245,0.49388410917068665,2.7047762426079776,0.15956965796967607,-1.9969436114432646,0.032003510449144235,-0.664593766487437,0.26964414320117774,-0.8035185725617455,-1.0752035670638576,3.431479561186156,-0.43129552949477545,-0.1902625306755732,0.2992475893929226
1.9901545146886388,34.96797028116957,0.001976292318596425,-94.3614795369079,-0.1659794830220835,130.28844318661368,46.55305191546921,0.5483508130497288,2.732479640121826,0.3392702730835684,-1.7766658519962875,0.01871773888474209,-0.6719381997211574,0.20999886407393137,0.415215401817756,-1.1190563125274045,3.4184250176141733,-0.3468036784101113,-0.45442106577732844,0.21871735399469355
3.518597601886638,34.56787933651316,0.02542465165499822,-94.02500998299365,-0.16730397170352537,129.57130855548905,47.98140565265674,0.6475733019064446,2.7303489647859327,0.48543822695558364,-1.624517419633611,0.006864021231981135,-0.6837710088296178,0.2115465692255059,1.1943527491886723,-1.343628086242724,3.3410218569596233,-0.3694275469457684,-0.6361501857380669,0.20754591033449524
5.277211865780116,34.462361540933344,0.040945221407894486,-93.43197726491876,-0.16907497584904851,128.8820527754088,49.652300998646936,-0.06105690251029256,2.6685271811689177,0.0015050162376882045,-1.566150368257747,0.00153180967924531,-0.6954440186402139,0.20168006405476865,2.301419829456856,-0.8754741377080364,3.7253628025421452,-0.3088198625083456,-0.8571434650449199,0.21605796452590326
7.213778407599587,34.4813575043296,0.043482451999980784,-92.60466473215332,-0.1715468583897152,128.15514371519922,51.509182114648574,-0.10855575376810453,3.475851107246236,-0.052303366189800166,-1.6804709264555704,-0.05355524138276808,-0.7148778381413816,0.23175568491284324,3.3047224131619846,-0.6670248689700728,4.347783304410915,-0.32386939235751,-1.006233076857294,0.2012454595374882
9.232458026828262,34.86738982275624,0.049886653782009516,-91.46047385153814,-0.1993353101256236,127.50225506824307,53.49291858644367,0.41790094067719075,3.8228539150512946,0.30790733757837857,-1.6784578190469788,-0.08886951502840741,-0.7015870528239122,0.2298401271749841,4.4056648666838365,-2.1435966731514764,5.501111880082435,-0.6518651484902569,-1.1305959490443935,0.21134702509234468
11.318637176925286,35.62851980772989,0.05474876539864669,-90.04405787677707,-0.22114716608753174,126.8317701389033,55.544076452476936,-0.02500625520613884,3.7271222802902635,-0.01606394967857801,-1.5868762899855335,-0.13532303514447466,-0.6902422044626612,0.22828568781272449,3.997970505234282,-2.0884156006940793,5.122890909966754,-0.7169120500163886,-1.0659177020905362,0.20383303187873172
13.367813011465987,36.66666542686434,0.05432719829156819,-88.31975738819212,-0.227441191209172,126.18382731793477,57.616847947814406,0.9120090626385668,4.151933117870385,0.6071704164973897,-1.8165390464939581,-0.15448295996011369,-0.7193261177709596,0.2234622232972067,4.1963056142247686,-1.380183930180172,5.133428471535256,-0.5896254990057993,-1.1070882829237028,0.1676558575935347
15.316808392244635,37.99908478816788,0.0556393183904159,-86.41550887770435,-0.2454497077337883,125.5657116931674,59.595747099388106,0.5516344102794482,4.170522493782261,0.3155409216135746,-1.87745088205915,-0.18853671875107494,-0.7280328113563493,0.21613977379420554,3.9304581938470027,-2.724664642958273,4.219913580671688,-0.8774178810892601,-1.061516091917419,0.20477648906530804
17.13537773403543,39.529707932203294,0.05582242284722416,-84.32658242091377,-0.24758312653527997,125.0041874282052,61.46430027698395,0.24299598133988976,4.658256971166137,0.10674999434793461,-2.0909477555911997,-0.18796856885052898,-0.7375419399380708,0.20986033072797614,4.831446170250879,-3.0449477312389273,5.555735442107394,-0.95651359236348,-1.1701852535355346,0.21800464402617464
18.745846553374623,41.19083880025514,0.056405364667543964,-82.20592978538313,-0.24864117355231416,124.54180209524104,63.158533957755765,0.279947867373651,4.144784458927401,0.12433886804578857,-1.761584307605207,-0.17960110096776202,-0.7210944080220858,0.2297714010101452,5.155028121655179,-3.011016474803227,4.687606485987205,-0.9813916639292928,-1.2727246017979332,0.23609417227091345
20.12807676815367,42.894982309363776,0.05508949943269122,-80.15130375646147,-0.2493886235582299,124.20053018148153,64.61417183554008,0.3950397322153097,4.502514082016558,0.19527899192603573,-1.9025210804394872,-0.17951746428879134,-0.7635072558067099,0.26444205494575684,5.67215765684074,-3.7092257797708292,4.62338266353857,-1.1289951955039466,-1.4111331981207698,0.24574814983248527
21.228667676795343,44.53834480408305,0.05516489176104864,-78.33289775868121,-0.24997675268439645,123.9768608125193,65.821306205273,0.5427910857669478,4.167464117257877,0.2285341547496417,-1.5142570123269399,-0.16880974269901694,-0.748618796084777,0.28313641677739104,7.052616173847184,-3.835943417125327,5.5288690828207265,-1.1654258426414958,-1.6403480418807939,0.29083039769669633
21.68550791910245,45.32444469121523,0.05498485950751838,-77.5560058789245,-0.2503888254329148,123.94303734526142,66.30549157851628,0.6381769954411955,4.051910718473822,0.3094188306325605,-1.3687265800882669,-0.1691411850023225,-0.6640334977197788,0.3217836985045457,6.704078512631786,-4.088973048746921,5.959877340818276,-1.115909387898695,-1.2331552820369047,0.314097088127671
22.57865826921506,47.315086412427625,0.053620589003343495,-75.87535811921138,-0.2504166229262788,124.06405813572425,67.37645543629247,0.4998406255744001,4.8516262400118855,0.19594058984703194,-1.7120323944401847,-0.17729936991095485,-0.269777906817385,0.3565664048866263,6.453163706589189,-3.93845221886334,6.965215770380491,-0.9772098167465382,-0.925319884100341,0.3299751844006107
22.72124597994557,47.844518132504845,0.053417313016158166,-75.60362495726692,-0.25058558080522575,124.27263257327448,67.56265228495961,0.6086525003690718,4.754552728937665,0.21485586466301096,-1.5000476963218505,-0.1708889962762244,-0.08633146331337763,0.4220214655677279,6.79553906302976,-4.369618480538863,7.179225184634005,-1.0275185648367646,-0.7932845804343994,0.40054633287638086
22.785039537206732,48.64381788996471,0.04834028274588593,-75.45931218468809,-0.25054488860955837,124.93081896665547,67.71780731754203,0.1447331024616646,4.54985553805853,0.1657751824841813,-1.9735707990450515,-0.16847947498500954,-0.10638456776064582,0.36685527471457685,3.3265492018052,-2.211202506852199,6.8613764407098845,-0.4596735819494253,-0.16261320912533983,0.29855665510473506
22.599103421208596,49.072464701071574,0.04826983726155129,-75.89989871661454,-0.2505414172035256,125.8752870800844,67.71879170455442,-0.17429861783499048,4.779112986269584,0.1500813986445348,-2.5567959783883336,-0.15733747879949922,-0.10484170875141234,-0.13149955916999398,0.8053848726533941,0.04062429425359626,7.177659781428971,0.2935147362612936,0.2827140215279725,-0.19642238373153828
22.03799141454287,49.183438558516805,0.040967401871946765,-76.97687873553333,-0.25054413499210637,127.06709916209839,67.52954522064077,-0.21985574115314085,4.429700039597769,0.16265388083430427,-2.664244395950486,-0.14500273268125527,-0.15057470293553002,-0.17741019821149104,-0.9085484162872159,0.8815091785049545,6.531969373726789,0.479994348818074,0.5293450228063251,-0.2454765964310847
21.166241217683606,49.161395690203925,0.03890669658304954,-78.53197012703612,-0.2506974310937382,128.41450697291452,66.91259908626515,-0.2594233467554584,4.0917730897692675,0.12169169148358067,-2.5768938386995934,-0.13355965820708385,-0.11573628575498955,-0.23963190709131552,-1.5455108881528317,1.2755974077055712,6.059783371189481,0.5844656445082788,0.6498434146343496,-0.2991270275791167
19.985160978157378,48.80840409104497,0.0332319357793887,-80.41430666930944,-0.25038882991469524,129.89309936289973,65.90111853485982,-0.32413670848097476,3.678403432752508,0.04983109396225292,-2.54074774071119,-0.1252550048811964,-0.1450219534729388,-0.21182420127605292,-3.2013712466299307,1.995014983950117,4.3282957405113205,0.6879777493677313,0.8743542580049389,-0.2551930941934986
18.561045500780725,48.254179140829855,0.025221020123341837,-82.50177860047133,-0.25008165824282874,131.34068836188936,64.59720904083012,-0.506556122291502,3.429859695973183,-0.08838898985256008,-2.5739452100349403,-0.0886793383917329,-0.0918549250151622,-0.19177514895891445,-3.51343719368267,2.162687407643616,4.973856143386686,0.7266650826870805,1.012202366711607,-0.2468677728953171
16.902937616899305,47.47788139257779,0.019836429402951883,-84.6086915379944,-0.24978362352939537,132.7273921651564,63.02683848207525,-0.13833162086177694,3.0365702634027727,0.14623988802527513,-2.40328270315017,-0.07082644916830215,-0.010028921468413034,-0.18670709666208787,-4.051972294931826,1.679148399769428,4.47230164122324,0.6480712423535979,1.1630571779212187,-0.22863610911178478
15.070373354012276,46.70713195522725,0.01735352208592457,-86.6631044966339,-0.2484485969855796,134.0012019780671,61.276018247356745,-0.3636343702361074,3.6001986554614214,-0.0087490426177182,-2.7939910851193646,-0.07677433428639756,-0.06709345994999322,-0.1965803457614109,-3.6813461783329764,1.2030126229286546,4.444874953974476,0.5353391477151864,1.0686105547363964,-0.2122618878850791
13.094394107219912,45.821808393570656,0.01471540778377169,-88.51919029873298,-0.24733923906383276,135.05827600479242,59.360667285717305,-0.2887642650380345,3.041954238029665,0.05605050732084533,-2.458218406346113,-0.05626646766737123,-0.03927975081383854,-0.18998167066511323,-4.179716606633251,1.8705643865600896,5.141370423493102,0.7022481760544351,1.2334115450796634,-0.24874711732828073
11.0180442577807,45.00670163421109,0.008443133886975136,-90.17410249353252,-0.2458549556304373,135.8901218975156,57.32558735282449,-0.24083211748305958,3.3100803482603625,0.058373456815193805,-2.5877490006109296,-0.04721923771223362,-0.00459519314506748,-0.20223977819498212,-4.016986154329088,1.2216822552421767,5.5294872267425905,0.5961457227442977,1.2711658459794528,-0.24183697999297965
8.950393250787913,44.16929935691475,0.008738570336699029,-91.51685553262529,-0.24402133569487544,136.45735926983662,55.25747983073615,-0.511039764607218,3.046313424000486,-0.0796363815733349,-2.489338287300069,-0.031809657674408374,0.017004057726935043,-0.19475910320447457,-4.354813248350647,1.5647353809523685,5.1467720933512995,0.6491630320909099,1.3200913179719362,-0.2421540728821848
6.953052330580787,43.351324706544446,0.007408443766634565,-92.58604761977136,-0.21920255111127673,136.74722311730204,53.21571063044893,-0.02207497387469781,3.5005058419631174,0.2691765839894086,-2.7439294154065568,0.008496397408310846,0.015395455994434605,-0.1833383079957628,-4.191869329012022,1.6334431425119957,5.199825658045478,0.7420523812980807,1.3358321795239947,-0.2369595305642526
5.033735918359962,42.58351105017326,0.006108678497275777,-93.37424708320555,-0.2048559722164842,136.7865606987975,51.2521672121157,-0.3845023185462839,3.094258789672916,0.001323427924126353,-2.574138542092177,0.07792190085099665,-0.0010835498014158903,-0.17995192066659696,-4.118640713584042,1.2827778981285338,4.768021564464339,0.6455495730828511,0.962190621430816,-0.21861405252732394
3.322121405778978,41.76502391297247,0.007400524715347713,-93.89980795219022,-0.19204919175072235,136.70527987747118,49.4395219146272,-0.7480327070479598,3.102584315789456,-0.2562264074944426,-2.669724516602432,0.10935812017397771,-0.4501566968112717,-0.190331418298947,-3.784344682343814,1.0264976160943617,3.735515537724024,0.5805070291215843,0.5470208279550207,-0.21681689354874326
1.8461561325238298,41.034031375443085,0.007116364282265949,-94.25577144642638,-0.18871552682082537,136.33002642958908,47.86716432036453,-0.5583681956355203,2.8713825055961437,-0.11025053739372173,-2.647011259445458,0.11196475256938442,-0.6281602544487896,-0.19318553970558053,-3.7843084386753407,1.1300646691869727,3.9339285637775374,0.6043029807258626,0.4584461021509873,-0.22641229589411183
0.6550298446395832,40.199700311260685,0.006711957212604332,-94.43063285434171,-0.18689249860078552,135.77060203194313,46.572929675818564,-0.36836374806355665,2.933854853081036,0.021011222025835618,-2.669554094415492,0.11014461434432042,-0.6726519844260338,-0.2011408439610899,-4.013579132906317,0.9582915722489052,3.5830077048617714,0.601800598674125,0.47387185904323864,-0.2525158808839557
0.1845693410951824,39.792438336632515,0.007825950145035086,-94.47344286156866,-0.18622849726651214,135.44226097465392,46.02820587515131,-0.48583828817215413,2.872644629169624,-0.05473121632356851,-2.7758759815100764,0.10918881649130106,-0.6689091217660114,-0.22826666967611467,-4.474725486339028,1.0511597280674658,3.484027400607943,0.6059112216003224,0.5754978245870612,-0.2558616372748345
-0.5130736974671395,39.007933324722146,0.00698077230395642,-94.54752999368519,-0.18561023324650736,134.66608071537746,45.187844683158886,-0.4132308305131086,3.028424554325345,0.01661576422267457,-2.8402419175930107,0.1075100908355749,-0.6563248364576231,-0.23929350517293804,-4.351373790206254,0.9070471898569317,3.8296279287201864,0.5944469393838316,0.597038413384195,-0.26857371057884905
-0.8376203956347132,38.174829995967265,0.007588785101357227,-94.57471119985817,-0.18500602774317124,133.87456308797243,44.71992918688735,-0.3969126963686216,3.08459945495988,0.03483271321943853,-2.9367663514184357,0.09515777858814005,-0.6568068032923662,-0.28804768021659843,-4.625049421186586,0.9299277135552657,3.979346183293107,0.6149638486279108,0.6693378118531526,-0.3163817873400779
-0.8515046770036356,37.33756069509183,0.008223763571209441,-94.59576015722054,-0.18514898727931967,133.07292372683742,44.60624124329663,-0.0495146849330816,2.7589686310395534,0.008149854023913404,-2.560022552689438,0.08924103917655742,-0.6519890119227251,-0.11984856160339487,-3.602475095493471,0.22745484596472454,3.5131538667238744,0.2148393672722504,0.4162188478954615,-0.10542513213515922
-0.5020416111485884,36.563714715028034,0.008585272287761448,-94.59766286237708,-0.1850480042666981,132.24017960651852,44.64501408437359,0.33143718238121106,2.928121884530905,0.07671892261055266,-2.6085177708459346,0.056865155146473854,-0.6418632289899064,0.12388065719383962,-3.3301400270509918,-0.6490953044886234,3.859409771779431,-0.23144400993170505,0.3980306230644466,0.1590296547856211
0.2487059469212862,35.803967949302596,0.00976080765621226,-94.5907899741599,-0.18521031989290232,131.43940599054136,45.107185069012694,0.2595384000448685,2.8728990337396527,0.01356127685037961,-2.2322114553479615,0.04518925750574505,-0.631710494623529,0.18524840267978573,-0.9711140700088027,-0.5204223904646474,3.532262524509955,-0.30276605452723376,-0.1485715478754631,0.26324570269253944
1.3414139999758605,35.19382523108004,0.009940492909000873,-94.4532705186568,-0.18580856488616554,130.6782974262766,45.96686587750931,0.27214688102141255,2.880552639817759,0.08803687671916847,-1.9523666552868384,0.0011600203845910607,-0.6907973235599453,0.2537288130097968,0.006237245040050484,-0.7726419326633731,3.655734942811501,-0.3461149857196967,-0.36553161228080383,0.25944580592728406
2.7476806366871576,34.72563853272985,0.025973974257114587,-94.20892790820224,-0.18743635472123762,129.9313988821578,47.26324496138621,0.6454347960682264,2.8475822867341,0.3923115042592831,-1.8011694541711787,-0.0036639764406385506,-0.6890702635606492,0.22121644942449617,1.4122717471495136,-0.7987101015886746,3.4596460389965116,-0.31838880326111985,-0.6717570002127209,0.20942283991060281
4.397028835072793,34.485979649914576,0.035979787325435775,-93.75416235555268,-0.18896507429842105,129.2057224248454,48.81005446088857,0.01756049203335006,2.654592859721302,0.04172522693804243,-1.5452068494736504,-0.018547430938235274,-0.712856959351076,0.20680281952974436,1.4965362890729559,-0.4900666372598549,3.1448425147484746,-0.23472913921827868,-0.7415880922677976,0.18409233284942472
6.247453554521206,34.46138420581007,0.042763561689828984,-93.05044081516516,-0.1910481401199478,128.5169839616084,50.56390423517691,0.25123301271809834,3.010972316617595,0.20295147068656355,-1.600654550262187,-0.022146922594727426,-0.7234397778611688,0.23377872568072813,2.9916201262951656,-1.5913014148094065,4.129605110826695,-0.47218305510300784,-0.9748444382395185,0.21358339370839402
8.248624939504346,34.62242953723419,0.04673329291708609,-92.0381457627682,-0.19629616415662499,127.81876271034083,52.504251208702684,-0.05037806105534063,3.539941332226835,-0.0329752068951353,-1.7082734949352056,-0.04806019699097506,-0.728692868251595,0.2358701289178259,4.336795573658486,-1.705842854916527,4.84715549418084,-0.5306356068055463,-1.1779748679309208,0.21444394917053122
10.303420581935407,35.21884603165045,0.054186547637466914,-90.76529863098183,-0.2162699408575393,127.14877963355963,54.537732153212225,0.7390983157099899,4.214291240317433,0.5442203552892145,-1.893483670866457,-0.10338416295730928,-0.7248409418107941,0.23073227962499143,4.525036633238361,-1.228137029134833,4.5631584360177975,-0.5176043434457075,-1.1991271948619713,0.20630961343606527
12.370647314249322,36.11366886476971,0.05590674358976365,-89.19535531917523,-0.224791636041407,126.51669445949324,56.61391367034967,0.5815210416409408,4.099965468277919,0.36281894676306226,-1.877400124159558,-0.1301835144389494,-0.7378796673990153,0.22220581535012016,4.513966437804855,-2.564720988884665,5.330322691393187,-0.7955942117109591,-1.1653590352770493,0.21563123734115483
14.399510990784535,37.33664112146009,0.05860645408531312,-87.37202041813102,-0.228001544213141,125.8386528015194,58.658839678365574,0.050041745805848914,4.076565504072276,0.023226529849224856,-1.8636482963723915,-0.1380667244193459,-0.7387860952948252,0.21127411122728987,4.510881277356446,-2.30018287646874,5.5756983297909475,-0.7703017444502376,-1.1347850461358409,0.19784668477607026
16.276565046136817,38.774682688998446,0.05789969952175783,-85.36380927978173,-0.2481517580099056,125.27291847342035,60.59492450451596,0.8759225347050944,3.594437425745665,0.5535093771633847,-1.5485570010442886,-0.16042062638628204,-0.688717368789856,0.2214550091994616,5.029708188644432,-2.1303782413800145,5.850433089179786,-0.7556986453550972,-1.1998889470839922,0.18647504065760542
17.98873023345597,40.37934001700825,0.057915055650330845,-83.25457705578933,-0.24939938028492661,124.74190586415554,62.3711447201869,0.7180824574514652,4.420357950294372,0.3979077314703584,-1.9267740701389906,-0.17693431160405435,-0.7417809037857617,0.2322506828325955,4.796822075491993,-2.911596634699413,5.533493848395144,-0.9290773059406876,-1.177167592890102,0.21797076923087286
19.48827289786307,42.08077808165945,0.057690947407381094,-81.13898150716648,-0.2500181539662452,124.34828937296274,63.92921314935578,0.5206468806658023,4.107712267983874,0.23804015311734986,-1.6165769138280957,-0.1704207971226192,-0.7258681658322668,0.25158223349395464,5.626299630447591,-3.0799149857894235,5.030251442596045,-0.9909080884486485,-1.3654734177398329,0.23568826554331662
20.732351850943445,43.766477009286334,0.057508577756734784,-79.19149659404823,-0.25031970904014694,124.06520243370912,65.2807967660992,0.8302796123488906,3.8311507687592727,0.43564643785654594,-1.424207858399283,-0.16251644405556537,-0.75421939458334,0.25555186629620186,6.747609996512951,-3.7109233795030336,4.984855063668265,-1.1440792814385057,-1.637989164151995,0.2637242825352236
21.244964348395126,44.563940276566,0.05730237575904104,-78.3103181945076,-0.25057389458325846,123.98135391437329,65.83956488693705,0.3479281672735569,4.379907917558241,0.1384848091059785,-1.5791103059775786,-0.1660560353304418,-0.7864594469494185,0.3155607898893689,7.104573915096722,-3.774698983877032,5.373556775584143,-1.1582564900737875,-1.6891619300368177,0.28648417523783
22.07158392411133,46.06150850696706,0.05649093056801383,-76.8403253567993,-0.2506340671867682,123.94692567816546,66.75941777731359,0.4947052627168835,4.578192567189884,0.1784074631991473,-1.560662434853818,-0.1710908907433171,-0.45809811994869176,0.32187745837555354,6.987272604882982,-4.055492928662045,6.2286824838282255,-1.0925212269786715,-1.2755774411314604,0.30198966798685795
22.585327539760385,47.33307021002352,0.055189065540832395,-75.86589513555833,-0.25079846368820535,124.07050319196054,67.38933723771248,0.5862101038215055,4.5045812426431215,0.22546682016042519,-1.4713494568136556,-0.1697491723865295,-0.11025257379294615,0.38110707627025153,6.237088368478579,-4.03022152292929,6.715324422732088,-0.9553979333405782,-0.7469116441430581,0.35891172165392027
22.78411365704816,48.27944074021281,0.054514961371797094,-75.46589033967608,-0.25086252570685624,124.57653187400422,67.6855597460067,0.3313338569701227,4.656518141520563,0.13294218304259883,-1.685798444395874,-0.16875284991182413,-0.09411632994595961,0.4251054002070493,5.39917718174991,-3.4119483924994354,7.046929883135225,-0.793316642151435,-0.533877958227888,0.38231282618147994
22.73790422223392,48.9414400324094,0.04916212169165851,-75.6025083259308,-0.2508216501956331,125.40290121932426,67.72407572797206,0.038068182398514554,4.8105536275280345,0.21112740079525136,-2.497222257108475,-0.1603552777966325,-0.1267742607718986,0.15770629348897566,1.1224452166776837,-0.8343755997469702,7.190646592210858,-0.034312842576818284,0.253644032458633,0.08546148970663958
22.351494753780038,49.14354267979544,0.048744145838891216,-76.37887570260057,-0.25081616964121095,126.45942515938674,67.69431140474892,-0.1890048110322885,4.656932756335662,0.14940002877149985,-2.484754484018746,-0.14906470557751283,-0.09567093210848568,-0.12507436690911647,0.9112072406889338,-0.10674292362951049,7.032124458499821,0.2817644069575609,0.25159180450291135,-0.1948762544021614
21.626563507544436,49.178531492687355,0.03909129567105469,-77.71043718396768,-0.2507116328192101,127.76378294013526,67.2597806147044,-0.33999157768852134,3.7096017377584287,0.10703356161667771,-2.314410720768358,-0.13503088868570756,-0.09091697085742553,-0.2345878852238997,-1.244201462970727,1.2736036706082419,5.507606379017075,0.5887941961727254,0.5575294232980468,-0.3025922960741737
20.594048966552602,48.996760909283445,0.03664598315882552,-79.47426004354433,-0.2509461579914214,129.16582151010186,66.4534349258237,-0.22356908072644233,4.013165719352253,0.13757908671463065,-2.558606415726236,-0.13391854473039355,-0.09793643783194282,-0.24444748471062053,-2.6408505544686007,1.8159027080402708,5.296883296592253,0.6519795187142794,0.819068729436396,-0.27184424522212336
19.304870302544632,48.57443746540944,0.03410677473289663,-81.46930094993195,-0.25065402090904426,130.61091292952142,65.26278703994006,-0.24468155224221566,3.353236973255217,0.07165666992943297,-2.518132538377383,-0.10230689503636803,-0.10473548902872647,-0.1937763231623001,-3.5346428561536043,1.8443092150615037,4.82854791781027,0.641028006725318,0.9937599086849842,-0.24200852070035406
17.749734657069364,47.869385968480785,0.03139630987823048,-83.57484649051284,-0.25042956472560823,132.083719404087,63.83913785439072,-0.5006700194125292,3.5102801900812644,-0.07766298268010094,-2.615298661080324,-0.09158048072853671,-0.09860606264396472,-0.2032107242727339,-3.068801067043375,1.8109766463880224,4.278267311454276,0.6286976775721289,0.9223352777096087,-0.23090655313400393
15.991751475467137,47.10149517240992,0.02044489124272907,-85.6639355280774,-0.2496930356334809,133.41065152060133,62.16367439772732,-0.022761568565887645,3.0308169166972196,0.21407079778755375,-2.4046846538684408,-0.08061509928417478,-0.01803247730385395,-0.19195676539608958,-4.00117713288374,1.8623210789269686,5.515035712812749,0.6861678839230225,1.1800750766377,-0.24855941700047257
14.056028509715237,46.25515076136857,0.017515432413526964,-87.64135309951037,-0.24864470440074268,134.58382047143385,60.2996575473442,-0.06244309506553241,3.085735361919488,0.17689222008376598,-2.362145084206428,-0.06673402714474069,-0.02893197969439939,-0.18456269832176134,-4.278782029913769,1.6939600876362517,4.361554339112531,0.663102318950819,1.1963178544564912,-0.24170773497041262
12.044972249432998,45.44496613571155,0.018016482301754625,-89.39464761354022,-0.24727131413012443,135.51518538179266,58.32974112233893,-0.4419035454433519,3.516473380535216,-0.03849512154717434,-2.7425957979361404,-0.05936106881798897,-0.02927122198522073,-0.2082547727312197,-4.190821742263519,1.6480308153206238,4.99047482857199,0.6655305141704161,1.2680236432244862,-0.2533888693604315
9.975168641341764,44.56269655077692,0.016157299228443455,-90.89125968318957,-0.24617528560137858,136.20251607908222,56.26932922172702,-0.05495126345251676,3.6758432114514092,0.2350531838500178,-2.7810797862010803,-0.05156611870068203,-0.006859514486663722,-0.20670497151724473,-4.288557819282207,1.7963334537169882,4.699751007849692,0.7049313536009737,1.2748214183150208,-0.25122782678406247
7.9142959266200235,43.78600382047309,0.008682071910784689,-92.09769631654744,-0.2452011118882272,136.6485024513018,54.20713908564626,-0.4781195585341905,3.1714826244512095,-0.09147554267395211,-2.636394963259764,-0.04133949261442388,-0.0011387484032685715,-0.2006426715792669,-4.691813495841651,0.7261248008011414,5.260532883063543,0.4561794807572146,1.4236048533853694,-0.2159157606723026
5.950344719787162,42.92104149299311,0.007741993426146627,-93.02254446421611,-0.2440210846823842,136.7835907836257,52.18815258407553,-0.5394532523706991,3.3469118856426627,-0.09492473657886456,-2.6539019828346877,-0.029066511231173667,0.03503807597230745,-0.19114520165942614,-4.301284861553946,1.5501041998643346,5.236534759926807,0.6479503011342483,1.3644356706328946,-0.24569954629460067
4.148456777843729,42.18819457319828,0.007719240402409743,-93.66217604725523,-0.2051193687677661,136.77649513908244,50.315666994503744,-0.427574428153854,3.38658613001102,-0.02144107363918944,-2.8286557207070655,0.014357552156362646,-0.30534702969117994,-0.186505864653274,-4.036446269557916,1.547997265609909,4.197528077711107,0.6648014716250839,0.7299048632790299,-0.21841165919825084
3.304212022177439,41.75600730290708,0.006686185379426627,-93.90104445496382,-0.18932558485487871,136.70012962286577,49.41634709086671,-0.3109633778222484,2.9925349868646722,0.05730280370346148,-2.6646843394933564,0.1024221152929929,-0.5520609267935523,-0.18204150964284826,-3.940597579175776,0.9416175095055843,3.780816944363981,0.5450510947743641,0.5874791475148796,-0.20601583188743244
1.832739873004457,41.025582590865874,0.006458822608754959,-94.25752500506829,-0.18751270987595361,136.3191306202506,47.850289218227395,-0.4682915992678305,3.161340979594994,-0.05588307325700985,-2.827272726109383,0.10291236367681802,-0.6559076465813221,-0.19055148341980196,-4.017161608012823,1.079106453531991,3.9325920583285088,0.5746358994091373,0.5222029697744315,-0.21876478139061215
0.6448069611559761,40.189803950437856,0.0058909592124212675,-94.43020662618522,-0.18638347864963428,135.7589342245941,46.55254275590298,-0.40739025421425856,2.836460944052228,0.0027862626642691487,-2.7260834222163273,0.10614688207686333,-0.6635771597224711,-0.22252930879097735,-4.3571105552649625,0.9650152401121408,3.406429143430354,0.5846965908642513,0.5462198789027125,-0.2488328131306479
-0.22061244557772566,39.42519027048634,0.006751662062581802,-94.51981036648752,-0.18531906157949815,135.03796252183977,45.54852990737985,-0.2710114489818219,2.9519817275789664,0.08423129638132494,-2.8713252561296576,0.09753339139550402,-0.6620318215229786,-0.2244937718349762,-4.730003879793034,0.7070542728545722,3.6492827917929644,0.5192346157007306,0.6532560209678316,-0.24608626142807308
-0.7204996827039271,38.55800287212854,0.007295755046548857,-94.56550276268625,-0.18512906357391776,134.27335075213347,44.88841196569888,-0.47051889589572954,2.7770244310771113,-0.03174930567566606,-2.7461999347203236,0.10129899424210692,-0.6123926570530681,-0.26086164456849725,-4.657104212130733,1.0056579957014484,3.507516488715716,0.6129920207393134,0.6782259442970572,-0.2897319047250292
-0.8710414040284781,37.77185029272134,0.007886480028195903,-94.59023969674568,-0.18511387472618454,133.46926916183938,44.620745642339635,-0.18198895084276284,2.8271204004111192,0.027189734207339628,-2.712612633627383,0.09001116776993502,-0.6449025517537826,-0.27826558142825175,-4.222005209036659,0.6386994452898526,3.605425358029345,0.44938536322796174,0.5628271594541259,-0.27347257679414466
-0.734432572449427,36.905938532895654,0.007772392687647076,-94.59491174851006,-0.18526796438513776,132.62364529726952,44.608090801209535,0.1836749495444588,2.7700134755953796,0.060198167171050795,-2.666744290258482,0.07133662570260203,-0.648918792326756,0.10538044200128542,-4.08592775056067,-0.44139495472245016,3.5639737570744447,-0.11769514972852772,0.52416884562392,0.12438515503436459
-0.1686874812087653,36.173031624096105,0.008036463374551465,-94.59504080365885,-0.18531375943801356,131.8325383915185,44.82855742580389,0.22193770197349577,2.7911290523958026,-0.016783342370332455,-2.215158974244592,0.04029278926820995,-0.637570912003381,0.18583930557582867,-1.7329647927683816,-0.5730818421169139,3.6315430095090866,-0.2731051742744361,0.04683446269628971,0.21328723020034934
0.7665792668676741,35.45338958222921,0.009740414262992346,-94.5443985763468,-0.18546446641047676,131.06571069542835,45.49433346624777,0.10686287375493927,2.738711232758892,-0.08919565214332054,-2.0109667858589058,0.02915356236018731,-0.6659857085084316,0.23703084507417033,-0.49970357911295676,-1.0563106004375062,3.496662908216738,-0.42479901325632474,-0.26955232762554254,0.2806732891219573
2.0075792963014845,34.96051536427871,0.01090945212658097,-94.35824607716502,-0.18665057950450456,130.2815066653794,46.57336907515813,0.29412121006863634,2.813141471774118,0.06274681970338365,-1.912612378071187,0.00889000745029962,-0.6944499501193809,0.2331403781349491,0.7208028799117804,-1.1250608814573653,3.4225497886744067,-0.37894028535469654,-0.5397506890471226,0.22037410794995624
3.540111086910651,34.564810939015025,0.026486856974978427,-94.02079127391715,-0.1877540673657752,129.56682613741833,47.99962829846812,0.23320285428486076,2.779221126260875,0.09694927441503152,-1.6206663721777272,-0.003409744697536643,-0.6944367568466712,0.2046427973903641,1.3450118611579664,-1.2148043157822626,3.1932927872692507,-0.37322110147976795,-0.6945992939251008,0.20851869801571138
5.302015262977533,34.46427849041865,0.04314393517187483,-93.42576151956008,-0.1888964893744113,128.87674216244847,49.6754472931072,-0.05933207946009259,2.6283727668436394,-0.02783868781933183,-1.5400493490056266,-0.010595775499928003,-0.7164681046874161,0.20418830724476503,2.3063957503285253,-0.9071637693751242,3.5756120404856624,-0.32816837235895974,-0.8844089059185216,0.21177907154164666
7.234687540984262,34.48376520101654,0.043035858262016745,-92.59570207652808,-0.19024421968822147,128.15065381862172,51.539374129224186,0.5476956067525711,3.235455172779993,0.41161388858245057,-1.5938150223719207,-0.015560667483970987,-0.7294104780991064,0.21896122795261858,3.461544374275421,-0.7184913577584819,4.392874348785525,-0.32546966133285654,-1.0671619649374477,0.20794663025985524
9.267393499875064,34.878927465471556,0.05076328627835201,-91.4389332641158,-0.19210242747723927,127.497597809642,53.533953903584006,0.4560406205921445,3.9213468467403336,0.32181516487356177,-1.7092779046578348,-0.022238515705479748,-0.7372809394833386,0.22018419518425086,4.41721744493413,-2.1560430624517966,5.433559741692124,-0.5886164735096955,-1.1740047756611565,0.21260129319344326
11.344885735492536,35.636819364521926,0.05879112698741549,-90.02652206085705,-0.22083488477663374,126.82531567635951,55.57501869505293,-0.022173766926642892,3.6720187672519202,-0.025365651504818926,-1.5466809268164743,-0.05928180143181023,-0.7045967968421589,0.2274280174198422,4.255800223054917,-2.0073456924230464,5.332530279758527,-0.6778578214098971,-1.1326990883850032,0.20367487958008645
12.372340659358427,36.1142756213736,0.05729183640482935,-89.1945592451327,-0.22379039244364884,126.51588005112205,56.61930199063651,0.8204524386358563,4.126805078835307,0.530717970700657,-1.8015851042648525,-0.1250580821258771,-0.7444478423955254,0.2179341987589522,4.303589632155933,-1.4306155714883293,4.995938801886592,-0.572493843626012,-1.163231580178644,0.17358956793168073
15.348547040683984,38.02154646180666,0.05928035421861909,-86.38434373509742,-0.2310739340254507,125.55943904244572,59.627449492862795,0.4918071073965534,4.426694851526147,0.2684871445947701,-1.9630789798582573,-0.15010599015240522,-0.7649530198898872,0.21229401464623363,4.741618631219573,-2.291711981898125,5.561445313763143,-0.7745098993125559,-1.2060321750702612,0.19804996718720033
16.27770373548849,38.77706225343429,0.05902298313262212,-85.36269060281016,-0.23681521567950614,125.27817028987974,60.60009848570871,0.19913499230882095,4.723101096609593,0.06814961057793262,-2.0542659518723,-0.17103852235779984,-0.7621037423186232,0.21190514233535318,5.301824101762559,-2.2113408479120027,5.979914619784469,-0.7699858349828184,-1.2711134967283193,0.1877677679129573
18.779887701252758,41.22848786467269,0.06008524773976808,-82.16411453940532,-0.2520845991616615,124.53754171863815,63.19426859966091,0.1973084955011487,3.881989040269973,0.07875087041616027,-1.6112962696394426,-0.16250911317632039,-0.7396636681076522,0.23036537835299833,5.189524281687491,-3.371210099463908,5.126572662999092,-1.0401520774210904,-1.3041221128108602,0.2324245212871028
20.147919434922258,42.924734469470316,0.058848438530075375,-80.12005949003674,-0.25244615263706865,124.1989247087697,64.6365921856734,0.41711076904051564,4.234546475206359,0.18839334133651922,-1.7805492243604686,-0.16807780967658484,-0.788720642993138,0.26307634158035326,5.311910356260579,-2.9202181647068493,5.150239151931268,-0.9687150291391661,-1.3472909198259995,0.24053332105355701
20.738063130766115,43.77427904509107,0.058543263365603726,-79.1814624086995,-0.25245394605984733,124.06381095717907,65.28742766347938,0.4827663368622753,4.124040300082285,0.19680840831826996,-1.4434880395054057,-0.1559180426075277,-0.7836378538237168,0.28043195753773575,6.968081283385037,-3.7864540195401353,4.960953141526255,-1.1660568526003026,-1.6967296070713547,0.2636285334951822
21.70076928447509,45.34956671834996,0.05819822647446838,-77.53465675953181,-0.2529381324183255,123.94930582233674,66.3229943071746,0.6411151523813091,4.057161895382317,0.30498914853725523,-1.3410955678311813,-0.15694279891694504,-0.6836911138620569,0.3142175149086452,7.072581176948749,-4.238043266076475,5.060549062326879,-1.2230595245044116,-1.612315481885704,0.2943029321407822
22.363691375332685,46.737355976810875,0.05681434584638796,-76.28336218330257,-0.2528922977160509,123.95924962518154,67.12254410307285,0.48943320597276424,4.808582437456435,0.1994781739532403,-1.6442924953322098,-0.16830080252397386,-0.25260569947811384,0.34503941427213913,6.689361689693609,-4.004069457401577,6.926565917999457,-0.9710620469515916,-0.9682667123875326,0.3187510928409009
22.726711242460016,47.863243684325546,0.05604372589800337,-75.59698867517956,-0.2526874604336095,124.28565190561204,67.57573028945559,0.5763185577420362,4.641734183920868,0.21440274256167985,-1.4494107472947033,-0.1646277016022195,-0.07147461995918945,0.4105113728564098,6.7001828158626475,-4.26799207734277,7.0306675458775,-0.9881115759874419,-0.778766322051254,0.38687848554724985
22.78605454956019,48.660219328070625,0.049240055116477735,-75.46123797152012,-0.25280273828391064,124.95044421273768,67.72536912133523,0.18331816542466656,4.668945957556737,0.18271230776259562,-2.0438109874909687,-0.1661795639140049,-0.10756882595946989,0.34960372862545186,3.2887491933114466,-2.224431828897955,7.0413801761042825,-0.45223462767351613,-0.14304033324271548,0.2849871718589629
22.59161597209279,49.07704871085597,0.04885984709992518,-75.91485109570777,-0.2527667937612015,125.89870651153703,67.72546599914767,-0.260606576397098,4.74283337577898,0.09637625671453304,-2.568223755929407,-0.1540351990904504,-0.10288606239290198,-0.12708883001284388,0.6466974032026797,0.22505706993576544,7.118756956965771,0.3298110769626036,0.31366756505587634,-0.1935096241050237
22.02283090086116,49.18123582457877,0.042397762779527726,-77.00258109865956,-0.25298857615471115,127.099387702567,67.51779114549531,-0.23408361060066107,4.389654530675296,0.13919059961018743,-2.6570782228706102,-0.14153317726922043,-0.14477064096933892,-0.1887868068824262,-0.9996158292682741,0.9587854308653124,6.4746597358356155,0.4946803630717227,0.5499852393749434,-0.25297138550937803
21.14437365595517,49.15450423622683,0.03880277741153208,-78.56770251398274,-0.2528079033492917,128.4402916055043,66.89741950649668,-0.30243843213718324,3.788427826756682,0.12706333984783186,-2.3616309774490465,-0.13509635439723566,-0.10086612101915242,-0.23186399764111715,-1.903102954071058,1.2716295446989583,5.784511161378315,0.5671108536027795,0.7198000891949021,-0.2921346208829588
19.958500669241747,48.797508809286356,0.03451116334452703,-80.45998426482362,-0.25265317718011593,129.92662295545884,65.87980567286661,-0.3477414940398774,3.7290474452035824,0.03843025461471969,-2.5696689607648064,-0.1271761194770941,-0.13408000960814787,-0.216291493268344,-3.1031944301336427,1.9629208215941456,4.388059946130525,0.6759772427104617,0.8626423360866154,-0.2561617609567107
18.526188806481542,48.23618203638579,0.03162670888671479,-82.54523687236858,-0.25238474936210176,131.37690129656696,64.56964038601845,-0.36327923544799917,3.315649608505454,-0.00200915377429526,-2.5013146432349784,-0.1063607272406617,-0.11844604420741972,-0.201175331424983,-3.5932355296024814,2.076606822818114,4.958663847286991,0.7066355110306238,1.0079136796842192,-0.2545370422300761
16.867259022256775,47.460456716612434,0.02235794015424887,-84.65051426311062,-0.2523019907329347,132.76155292365604,62.99284465755355,-0.43006368934569367,2.983004113480345,-0.09298592993051079,-2.2188302274197422,-0.07926714791301755,-0.05598948744341318,-0.18372355258786408,-3.999743929850728,1.4452161868234974,4.543440653313538,0.5789306270546074,1.141977851829367,-0.22108131293624697
15.029440396203258,46.685114901280194,0.019661558602937154,-86.70470041151033,-0.2515665267189011,134.0335322375542,61.232705447198704,-0.3374016692557867,3.72409160817597,0.0011822980128996703,-2.819064485779688,-0.08290964360746293,-0.08157000463298653,-0.19907487184884906,-3.6125581584402706,1.4169198350607124,4.529305758049973,0.5642897206039685,1.0654104938154239,-0.21629271170936465
13.050167448788038,45.80413742356931,0.018150198375217787,-88.55347388718153,-0.2499310845102809,135.0784258215519,59.31296875900105,-0.18191878200576667,3.0642439913681807,0.12036994733659989,-2.476045398703666,-0.06087345362673021,-0.03692141612773284,-0.19616800787294217,-4.306903304504111,1.9138391604475973,5.218740922019785,0.7132028581601744,1.2625694152805629,-0.25416135002986057
10.98313626020005,44.99345293278706,0.01753981477382048,-90.19792490580731,-0.24901553477357763,135.90666208186755,57.296067016254575,-0.32638382405687044,3.2469347924244936,0.0048744483716668735,-2.5826215550016562,-0.053993777671060526,-0.0015534157653982381,-0.20785115497409248,-4.1955049414012775,1.1137252177563854,5.572526850683459,0.5685962730891279,1.3036115246615798,-0.24502803114232466
8.91611146914726,44.15665960218084,0.01791035342398863,-91.53454483665243,-0.24783836180778368,136.4695970138088,55.22278752920211,-0.5101381367561428,3.1115222931969284,-0.0805627343347847,-2.5485650647547726,-0.04683504363909484,0.006429213046998481,-0.1939097345580882,-4.639443125124493,1.6806132496690704,4.888640394211464,0.6544813005436261,1.3579436011676518,-0.24865615089912707
6.897537211653387,43.329318058163516,0.01621107098800545,-92.60991681382147,-0.24686634876498986,136.7517675066971,53.1611624031761,0.08561477133127049,3.3875982829920828,0.33911207260511483,-2.7359051488471047,-0.04935312920539793,0.014256888859286504,-0.179600724445111,-4.422098673990235,1.5481652614132926,5.248690975962549,0.6509084701509321,1.3909783260524986,-0.25818048545917394
4.993878865998003,42.566137752779206,0.013879793838011786,-93.38562729101069,-0.2458972778820642,136.7879597632649,51.21115668552796,-0.4013880885439332,3.1987153781924835,-0.025984052793886523,-2.6416098993825554,-0.03518174475680857,-0.02546912686953803,-0.1794550739367656,-4.373493288257324,1.2068442601666471,4.762149412035013,0.5181175512929068,1.0073933310404661,-0.23829527184666005
3.2890448644440307,41.74735850180875,0.007742019037045024,-93.90578715506565,-0.19906702844021165,136.69790025157562,49.40150326399387,-0.7007428109576289,3.0949042657812424,-0.24658611350432025,-2.726973421633287,0.04162443988457641,-0.46528326246484386,-0.1924969965971956,-4.148975455287214,1.5794965186742838,4.058094593323319,0.6130161650102677,0.7430027006565666,-0.2326446063206689
2.5223055847368725,41.34888399456141,0.005624725866809005,-94.10683175072577,-0.19737393046950583,136.55260667847168,48.60357084822574,-0.5200807797114778,2.892072063846975,-0.10432827420902885,-2.7153771311217048,0.08627434982124906,-0.6172633705706126,-0.1934034714011225,-4.290183753440732,1.2187643510851376,3.5037102938736098,0.5801660610803527,0.5774122041101554,-0.22324601797874485
1.194076652425552,40.60557414609049,0.006907515572387602,-94.3593397020887,-0.1849112206736514,136.03618527308834,47.13957507233101,-0.43485899035687375,3.1518398589759347,-0.043998936431890553,-2.845710349537938,0.09718167150258836,-0.6504890051529271,-0.1949021952838477,-4.095998027628286,1.019690529310959,3.6394110752145656,0.5752501966191939,0.5150070433444865,-0.22710180054826565
0.16475739206067957,39.77746004614715,0.0068895795093413155,-94.47207302477987,-0.1783811644500108,135.42144617466164,46.00813839636449,-0.461063253079997,3.028512852749209,-0.06436805876958182,-2.9140120963618266,0.10528032035944675,-0.6704830844181975,-0.23623871189191947,-4.732672571390023,1.0327337295616452,3.7321069775829216,0.5861640955449399,0.6502593147716242,-0.25791541514987204
-0.5250440838152743,38.98817526709026,0.006124437038298298,-94.5453202374976,-0.17796583489664652,134.6476617642004,45.17369494949964,-0.3724314644418995,3.0432163642309393,0.005620737083584785,-2.88845329289303,0.10333214752168463,-0.648771179226224,-0.2445886914850636,-4.568021947322851,0.8618633953228233,3.8619366830550206,0.5597994676260297,0.6530199123206861,-0.26549149904376923
-0.8417607506040796,38.159308840421254,0.006895069539182376,-94.56961211574314,-0.17801997104909306,133.85361778050918,44.71413652799781,-0.39544781434192156,2.928710086189373,-0.0024511987865210283,-2.9466832921384105,0.09280057968917124,-0.6475848543866068,-0.3000952578300848,-5.134396093990024,0.9500761456328772,3.727183067074647,0.5996072399462635,0.7633736423026634,-0.3206176083064339
-0.8498283632445994,37.32284238954429,0.007525353632539631,-94.59280909808109,-0.17803728879627903,133.0556646215566,44.6119838712043,-0.05743569146241791,2.754314244693628,-0.027697574565556722,-2.6447974008200235,0.08790184406524507,-0.6542932857895807,-0.10610577374613878,-4.036387153353331,0.21998933601979054,3.5019103341797146,0.18657986588121372,0.5040131591482172,-0.08779786509582564
-0.49095116662077004,36.551395705921934,0.007648088092177732,-94.5950799441113,-0.17825548156602306,132.222837208099,44.65052235856326,0.14933368476202147,2.7368469405816,0.0017996200612376018,-2.668798866514012,0.0758918253729861,-0.645271334891732,0.11666805138265718,-3.4565029588444283,-0.6024822218303858,3.758470323288979,-0.2357914352554079,0.4173410051028743,0.17017537148116907
0.26581917775787234,35.79114783770941,0.008295964096093185,-94.58630350222714,-0.17829546012449687,131.4279251443572,45.119680213732956,0.2679065887481725,2.7368486557463916,0.00821964635934452,-2.1846442269906166,0.04955719566245144,-0.6299651241412236,0.1853921472795174,-0.6750065441080991,-0.43577186439235027,3.4599439228719966,-0.2854717642838032,-0.21530113234588585,0.256637537879731
1.3625855271402245,35.189888181196835,0.007634306326658925,-94.4525208678031,-0.17861589592441204,130.66257720980988,45.99136655175373,0.3694907211328425,2.760499887030901,0.06607213237381665,-1.9494110468209092,0.02909974296845228,-0.6821329343680752,0.25111515224625414,0.09547763584363718,-0.6723139058010897,3.553081832054937,-0.3338100481449,-0.39144496428642694,0.2504670006385906
2.762639358988706,34.72205629263999,0.00921132475574306,-94.20632393503855,-0.17980723738181653,129.919625154727,47.29116220299279,0.6148864220281882,2.837995821967813,0.27102632320230385,-1.7776707134853102,0.007759813380430192,-0.6921614965144509,0.20530873259940888,1.3642860914606474,-0.6777911478241616,3.3297720052075794,-0.34428760583127227,-0.6697247674492591,0.22815408973436674
4.419168854479836,34.48757606335093,0.009954298195666705,-93.74981435852706,-0.1814980244181239,129.19630254794163,48.836635181956304,0.5319327545513218,2.7289795067749187,0.23268516021964455,-1.5879503834111277,-0.0049742850408661015,-0.6938981051349852,0.21308776912859145,1.5066307081074066,-0.4618081935531156,3.1608661066856136,-0.29039580148687066,-0.7413966965416395,0.20945711637495867
6.281499645958415,34.46356054950141,0.04137169295810913,-93.03862870484932,-0.18355763093203,128.50212191222136,50.59750709396617,0.17563228079856685,2.9913709484354043,0.1518147163737043,-1.5903168619888584,-0.010636706046959392,-0.7220454342247584,0.22451160002039305,2.9700783827238846,-1.7395227668807536,4.021068593675813,-0.49958322388793275,-0.968168145531713,0.21968492521972444
8.28174017810129,34.628451973436455,0.04686716587018084,-92.01933398033842,-0.1857856213377865,127.80578924280029,52.53927308237237,-0.07380077705096301,3.626686750888177,-0.0771317922679331,-1.722037108301447,-0.02525678643503433,-0.7241216969869159,0.23070095994170803,4.396164890984661,-1.6620791849404615,4.934372840566318,-0.5036346883353156,-1.1920408472985689,0.2148438995419425
10.337791113751507,35.231349739882056,0.055423166011160624,-90.7425676419374,-0.21443210459526812,127.13875065982225,54.575937190549006,0.7703084893613976,4.187204717223356,0.5614424260035336,-1.871492665002102,-0.07454783765269114,-0.7362419850597354,0.22415682612684745,4.343081395772756,-2.206700347405867,5.353914673501969,-0.635393223271214,-1.1536993895552574,0.21138203492214347
11.389462897722497,35.65735627793396,0.05900473325541839,-89.99404557505812,-0.2204201175527863,126.81103790015993,55.61642860282995,0.5681085187173331,4.109368218072053,0.3312006114672591,-1.8592243102933257,-0.1305456319468267,-0.7466967675414566,0.21980876506690172,4.236492687503068,-2.0449027798505,5.174101410445144,-0.7058608596601359,-1.1319779628104605,0.20992758758459532
14.421022744611054,37.35178867462892,0.05992509392030735,-87.35033777434799,-0.2266046804428023,125.83583852208862,58.68745085803077,0.054944368081184865,3.956395127542159,-0.0014858710131732205,-1.803339325494898,-0.1399071729485963,-0.7552229002909426,0.1987826538614942,4.25196861850144,-1.4498873060013338,4.879990484540841,-0.5922915921541778,-1.1598366024115379,0.17351065223060985
15.376385659416231,38.0414384353155,0.059667639256470895,-86.35192557005006,-0.2352072776522518,125.5506931339929,59.656947482822,0.8903917468385555,3.835513391491688,0.5529153236229225,-1.6334675320183123,-0.1591545874923452,-0.7187411983275065,0.2121507907214639,4.4343360090446975,-2.866770736435481,4.682461561513699,-0.8929242342867576,-1.1703068599105286,0.20114357167885233
17.183802167153925,39.57161068731926,0.06021238522674764,-84.27277185340995,-0.23825134467859257,124.99405057957122,61.51759637040633,0.660108268847016,4.262253044687151,0.3493072701685375,-1.8689561730465303,-0.15318377505088826,-0.765929935678778,0.2250861681730293,4.699249216003594,-2.7818793379578164,5.252988976733574,-0.9022801441943274,-1.2075761877668272,0.21522997733090235
18.796392838212782,41.24480108805596,0.06029481048159284,-82.1421904574082,-0.23872995154444662,124.53596904951078,63.2144955347063,0.44633915766369125,4.196028364823421,0.18695080584889506,-1.6170510344809486,-0.15202209967188168,-0.7594950989916656,0.23863707736837564,6.038788266978448,-3.0932776006831415,5.100884341173972,-0.9876568438433179,-1.4832238267525726,0.2253383406788432
20.162241294282705,42.94070533904007,0.059194727096083546,-80.09926762920722,-0.23895090607413988,124.2015713648951,64.65738481545694,0.8666665097973605,3.8869106906608617,0.4563519692108977,-1.4315718227241219,-0.13400735112892073,-0.7848110334545397,0.2479965090009562,6.0418495256024825,-3.8679360388454063,4.593991672061635,-1.1540957778448904,-1.551003979807611,0.24257471246417653
21.261192972992784,44.58833539136255,0.05852919739716717,-78.28502869324369,-0.23933544527427592,123.980765026066,65.85778576586321,0.3788576953636788,4.530495921135807,0.15897193266646747,-1.640924196708772,-0.1350005657593324,-0.8263830823128406,0.3063962221365784,7.341548182602715,-3.894039648455819,5.539582006698612,-1.1670854468509917,-1.772525782290609,0.2830525461963004
22.081616407758094,46.083333958373196,0.05774116673915121,-76.8249295221718,-0.23929206245941417,123.95096954366294,66.77682214055088,0.4802643569863291,4.513566159559222,0.18730668207258055,-1.504768277489888,-0.14593753664998532,-0.45114434966937783,0.30603958820087207,7.10810103026648,-4.059419881585176,6.140527302542386,-1.0628193293337325,-1.3142179806098278,0.2878149649249195
22.5908615881616,47.34407687537102,0.05749182645585616,-75.85999190118935,-0.23908184967584448,124.07706455981211,67.40164241338023,0.5719124862304947,4.575948137661727,0.22579694253348143,-1.4971215019396997,-0.14644776882418245,-0.10922047131375419,0.3635277379972437,6.336916060427688,-4.023829830770625,6.827716042617188,-0.924295613773412,-0.7683860175982793,0.34446777851336136
22.784191846947806,48.292698359461234,0.05681434558125253,-75.46472952393988,-0.23911865224746687,124.58804601563347,67.6955078371518,0.3766911666047172,4.7747154541334345,0.1678021773854877,-1.7279766700124761,-0.14870385015506268,-0.09860078305451445,0.4023955457480031,5.544564558565259,-3.5018679133831796,7.224561852787574,-0.7828416853449256,-0.5646802749491847,0.36423152186189206
22.734389261437155,48.94620400613844,0.04938341986427767,-75.61148731712457,-0.23926854100554748,125.41923179223441,67.73276320582191,-0.021125151822188232,4.80700563630369,0.16123107536573036,-2.4637728430285395,-0.13747704714301023,-0.13804961220883555,0.12376754183700972,1.3994830413910784,-0.8062563087280445,7.175846039134861,-0.01532440781539074,0.1761957439503225,0.05928045838928199
22.339131966890164,49.14374255616623,0.04871800890617487,-76.4013549289308,-0.2391183916531565,126.48899291994046,67.69182333992168,-0.1609081095611504,4.876793158763815,0.16531889773890823,-2.572354685870096,-0.1328986371118839,-0.11683200792725164,-0.11959084613047358,1.0738346337981912,-0.17252220427989337,7.07777916049049,0.27637407747206055,0.20438574016415856,-0.1847815893220621
21.610091284577134,49.174548671473254,0.03935847118442923,-77.74321008579955,-0.23916188717304668,127.79746247194434,67.24508412902419,-0.24747153766651292,4.417132519503033,0.1219357375597814,-2.6594880283752405,-0.12312616396209003,-0.15414889823138797,-0.18811208498130694,-1.0794664493257575,1.1728733851527815,5.759115646062971,0.5686896951117268,0.5264573070877342,-0.29072665171966827
20.5686075898162,48.9918415851924,0.03615845715408703,-79.51438324844649,-0.23928527138791159,129.20017026629304,66.42932608872493,-0.1950229309721909,3.811948766142113,0.13762999108433713,-2.4886996762459797,-0.11599469619687545,-0.10496620395287325,-0.23332232107982187,-2.694467586546232,1.7875426611384626,5.327964506177983,0.6447502735597725,0.8141926430531435,-0.2681959922377758
19.275191127748712,48.56598606476739,0.034577058964024146,-81.5153335864729,-0.2392454842772111,130.64525332722584,65.2351094100174,-0.46178537791910523,2.948386144784185,-0.014609951229634011,-2.225321824580134,-0.0962154132954222,-0.10066920936617382,-0.19305981168537448,-3.44691871691223,1.95216565239738,4.559278840980821,0.6422524854865745,0.935797790909893,-0.2435894800388561
17.7143340831866,47.85256990794826,0.028584262403808004,-83.62404248454551,-0.23894989198656635,132.12163651459537,63.80265472016844,-0.4128433346549068,3.4542570659283394,-0.04778263510991616,-2.576268606281883,-0.08855424685449288,-0.12177144673353524,-0.20218192255384657,-2.9317590350644047,1.7933402956839306,4.403579239999104,0.6161693107632733,0.8755696270197005,-0.22815579612390827
15.962151386435947,47.08782408489262,0.020930251824895652,-85.69981114514503,-0.23852491742485696,133.43317322743903,62.134069618958804,0.08694362266742484,3.058985896744094,0.273589550541234,-2.392046718608388,-0.07756544638369979,-0.03681264487119376,-0.1909844087770723,-3.84193036436185,1.871624644468077,5.585746249469452,0.6836839995845684,1.144543494990492,-0.2476517180950597
14.032995044956301,46.244685769990944,0.018778593479911756,-87.66364097305501,-0.23788961924395383,134.59899217893692,60.27624836815971,-0.14723988361542942,3.1694440661985035,0.11099364967539331,-2.3835106081249484,-0.06304330275806054,-0.043364449425957456,-0.1795178562851249,-3.9474969419973127,1.4893460947386168,4.730310605538684,0.6156523561712124,1.1326948830794858,-0.23977087876953845
12.010515883101414,45.43052219625591,0.01917709185742245,-89.42214115622836,-0.2369422251304044,135.5325309964336,58.294616434022835,-0.44690156532442693,3.497713455460806,-0.04859709647699013,-2.74007232485006,-0.060380998307704846,-0.04561865560622555,-0.21036163294349533,-4.011972505388941,1.6674213450394781,4.884765958940423,0.6631066983271566,1.210045277174536,-0.24875448313664464
9.93923863350649,44.54267939389961,0.0178484694814701,-90.91555454429984,-0.2354373050125719,136.2167668008903,56.23424975359797,0.09243092764267544,3.6160815342649455,0.332981938556683,-2.748062307226087,-0.049064125313976775,-0.02211028399231661,-0.20302723812565335,-4.119985984561172,0.9367850476429471,5.514744786599747,0.53674739573966,1.2717879097223317,-0.23787865027165353
8.905093310858907,44.152065889316205,0.019090046889780127,-91.54354502854201,-0.23457326877806906,136.47443318317374,55.210616348993945,-0.4763722959807854,3.181823312296819,-0.07377123229293019,-2.606253769578005,-0.033495987846146935,-0.016684451474235945,-0.20282287334110835,-4.422620361593176,1.6553839685605078,4.814872126907176,0.6585101754065014,1.2929289480938035,-0.2501537151750669
6.886364783905679,43.32365337365745,0.017205483532268074,-92.61916561608926,-0.233538390562149,136.75670924168227,53.15467617579601,-0.5713322846174969,3.278532436266913,-0.11400728959341266,-2.5830343881649562,-0.021765901801944564,0.02270025878353853,-0.20159708966172918,-4.091303382158179,1.5866369127666209,5.120359153895599,0.6653930540846364,1.29641923913101,-0.25535066112196897
4.983697379042058,42.56315656364049,0.01613646974611251,-93.3946638600789,-0.20638840826822197,136.79259949964305,51.20319450809256,-0.39362770851754797,3.5192910286081465,0.01077972117425472,-2.8443075629063412,0.05857226163770566,-0.31899164348824216,-0.19000006806666347,-3.9676849209277565,1.179493113957527,5.006465029421166,0.5949054148823132,0.9250332729356266,-0.22521996456641305
3.2790643998494846,41.74345669845593,0.016634943898598455,-93.91332796822164,-0.19967589802923844,136.69806819759953,49.39241191963366,-0.25321833884238776,3.120920893941801,0.09699980085516349,-2.6462355660502874,0.06525179670666122,-0.5560588093354786,-0.1902422241128115,-3.491794946030627,0.8356260989389699,4.023268978564849,0.499411044972226,0.5120599737782331,-0.21813838709692573
1.8113194793086462,41.01496849138656,0.016253373297372538,-94.26429976412479,-0.1989331412318595,136.31266489309877,47.82588203210402,-0.4689596115178046,3.1317973677155204,-0.04066913566787169,-2.7623352520026447,0.06880732030299444,-0.657300846357435,-0.19575572913805311,-3.7679910519731683,1.069936548993113,3.897276990002274,0.5582761877027473,0.4659184011407688,-0.23245242718084907
0.6274537791368752,40.17480428441485,0.016190493421428635,-94.43356664956013,-0.19834905368205313,135.7496733545617,46.538513567875704,-0.4469404207809412,2.704559243236417,-0.005364164803563402,-2.5771746423630253,0.07357839175562783,-0.665960654346683,-0.2250307932539656,-3.9659672877823002,1.0097631095173332,3.2028715592187997,0.5803593162309993,0.4439422576739715,-0.2615719711573028
-0.2284939656731455,39.41545791135501,0.016640364625673396,-94.52243436057074,-0.1978582463113005,135.02984520139808,45.54224176287518,-0.3113981090683736,2.9126264431574205,0.058621739266202656,-2.7831300655297073,0.06969074347769269,-0.6679734606027479,-0.23508118911270018,-4.38220260340075,0.7744042236525008,3.587455244394307,0.5167056192511958,0.5687879734581264,-0.2620161657244282
-0.7249622877095365,38.54677327976729,0.017408452102208878,-94.57065850022688,-0.19788315203323012,134.26596211327555,44.89005169065652,-0.39780658554512005,2.711961777659366,0.032907086944878546,-2.649149599169859,0.06569612275464334,-0.6332701542809042,-0.27151945557868373,-4.304065858376341,0.9117273645577187,3.3725081899734604,0.5790222788689997,0.5711149392014081,-0.30543374228443254
-0.8709923655986755,37.758867789674916,0.01825829673646173,-94.59556367915692,-0.19768974558542649,133.458531752276,44.624675394546344,-0.15864347657496225,2.9269843048334563,0.04989075118257596,-2.7160689975619596,0.054134884235469645,-0.6624818703952157,-0.27801555277145473,-3.9161366258046773,0.5986345662305996,3.7471686476703243,0.41457014274527143,0.4931872476829661,-0.27923729390408814
-0.7314893097997228,36.89606104887337,0.018247603966459972,-94.59924496071527,-0.1977122675230575,132.61295706946368,44.611465898607285,-0.028992441696844572,2.8324560382989454,0.015969679640467308,-2.584341704504482,0.04722695464551154,-0.6619160941157319,-0.11664929708491976,-3.83014444722433,-0.32175479104682675,3.498172881927586,-0.13114753698297874,0.4511238227372395,0.1221936184162696
-0.15669510887644217,36.16194749748034,0.018288697080825256,-94.59965384875514,-0.197823340315464,131.81913793215097,44.83842287508704,0.268077593336483,2.797377055589574,0.03808439779175015,-2.165986764345917,0.009356027132726139,-0.6394389382120921,0.19549968955963296,-1.4623863032408968,-0.6650705203756843,3.6343305169749565,-0.3101348312870943,-0.01162351771333802,0.21501270028429043
0.7856221049790717,35.44443166789742,0.020450538726843367,-94.54093564619575,-0.19801458811993494,131.05289340338518,45.50876029291902,0.10454681552193973,2.790268255708862,-0.06629707629658313,-2.0732370247019416,-0.0018497410754218248,-0.6752621261287259,0.24018979207996502,-0.801338825975843,-1.0207216093805274,3.359163627839262,-0.423353499853111,-0.2167092121746944,0.2744175165600588
2.0450402011803277,34.94821144003377,0.023022856913268306,-94.35036494956191,-0.19858726983646172,130.2627059290621,46.607611157354036,0.18950936496607795,2.880669416122819,0.031623375950479045,-1.9786631106086647,-0.017774635179894544,-0.6941190075792286,0.2349687964872638,0.5737455316945091,-1.2329041935079603,3.548306180693559,-0.4070281516466846,-0.4927727878363951,0.21492523122481472
3.575949240839045,34.560724754363356,0.03742835526332007,-94.0085211204522,-0.19931989877380044,129.5501058398753,48.029544454363354,0.16439217806337605,2.690596868164867,0.07270237692870878,-1.642710289054192,-0.022214423764931338,-0.6847008265131483,0.2052299492230862,1.0392409501650601,-1.14909700532589,3.163372841904257,-0.38881638722455414,-0.6222289503484777,0.20590122384897752
5.352213483892849,34.46023593752239,0.04281104658450561,-93.4056579914084,-0.20018918812202713,128.8583715979952,49.72270273742597,-0.12921842584148374,2.597439542925471,-0.10688807630000977,-1.5675197309074829,-0.02742553921633819,-0.7044958817489175,0.20428630607459947,2.02274942482889,-0.8704427222249629,3.7245546530431226,-0.35430768185330375,-0.7994998627989304,0.216264406124633
6.288002574164316,34.46187287588003,0.042455722529457084,-93.02996559977446,-0.20078198272740763,128.49783532418817,50.60653857224153,0.7215085803489448,3.2678156914942136,0.5044265093908146,-1.6234686975930592,-0.03518707920249252,-0.708186344533109,0.21891037735640353,2.8218459237986693,-1.7079823649027313,4.051036205025784,-0.5119118475881442,-0.9301054092607416,0.21593506351740688
9.311303004400909,34.89051271151981,0.05002228875304459,-91.41068056333674,-0.20257376883854317,127.47534310947442,53.5758672312035,0.4443354520218205,3.94033340195069,0.30108751287503777,-1.720410703468097,-0.04303932863440489,-0.715914910478952,0.21750332214384605,4.349187243422533,-2.1475837188993587,5.419536977608549,-0.6033585733852478,-1.1412434924633093,0.2119081747339963
11.400996102834963,35.66174903176877,0.059338834459647244,-89.98428269909628,-0.20799668081486145,126.80495663478766,55.63162322727892,-0.056455223548396674,3.71773336377172,-0.027200040768254094,-1.5888823042651126,-0.056925307012694895,-0.6967219833562706,0.22876452295803493,4.506075891258191,-1.143351285150658,4.632698842270972,-0.43353529200802754,-1.2058250556373902,0.20125239931751757
13.443330153966564,36.71775551767267,0.05896101027270586,-88.25170534434484,-0.22348629065730014,126.15918754643064,57.69604305704518,0.7419348559447225,4.149762065629287,0.4724295253740366,-1.8318619369827789,-0.10469685051569758,-0.7317432432936061,0.2127956073746946,4.22312624601506,-1.5383905370874646,4.962297588264679,-0.5687601648851384,-1.137135819967379,0.1759295265320345
14.443254684329656,37.36535191409536,0.06047631678286512,-87.33145834951057,-0.22397221560503705,125.8280003170408,58.709176081441576,0.545530025382137,4.748882744705342,0.29419029965050364,-2.145386794488575,-0.11990988853950144,-0.77060255458681,0.20729604757360914,4.761110312218074,-2.361541811900231,6.065088374671645,-0.7573571346047667,-1.1783623509634107,0.20036271153439247
17.20249867683121,39.58905999931609,0.06120430726942032,-84.24814355290381,-0.22506947498740812,124.98584375524038,61.535241875352334,0.210159891891294,4.6098911420136375,0.0594736598514697,-2.0228474485383616,-0.11549003937251605,-0.7473340846937873,0.20713906132587065,5.082769072531077,-2.143188922297882,5.834935342190915,-0.7183952235777762,-1.2338786441490854,0.19397098018463474
18.0240422532107,40.42130114004345,0.059339619346328004,-83.20310577756686,-0.22528912679643365,124.73113961851544,62.41182768117144,0.1283240811778086,3.931231757986822,0.02366493144489796,-1.6274437986577917,-0.11062830703559687,-0.7302443741785135,0.22326190614875058,5.150264096208287,-2.2388433627730713,4.775859923759108,-0.7564730887664549,-1.3158472126476455,0.20368997035853148
19.51879553926954,42.11797404803873,0.059596452501717724,-81.09505939872285,-0.22564677439819406,124.33996045337302,63.97036754205279,0.4034795143055339,4.043518639164754,0.17508609291419672,-1.6839421177864087,-0.11861900125094225,-0.7705601514002512,0.2513849953945705,5.214408898150107,-2.840146909650351,4.885915223705301,-0.9167908422001658,-1.3446237093717315,0.23741670560696126
20.76196242087474,43.80762109182235,0.05916329968031955,-79.14545957956075,-0.22653536593218473,124.05562413218334,65.31763934052461,0.5184178057191593,3.8526167517723815,0.21605453493668464,-1.3493236992782451,-0.10450896544973486,-0.7688408088405793,0.2763074721222757,6.567379409231187,-3.672030821083753,4.576031332303108,-1.1127761511754126,-1.6438930273930732,0.26872667878871614
21.72116427581744,45.389772465591165,0.059518162453070074,-77.49203910728826,-0.22717938349468025,123.94890259426342,66.35069957380918,0.692770801289595,3.960692413890535,0.3196425544768152,-1.3164681796854847,-0.131391241779991,-0.6659960092105176,0.30469196786591585,6.827498309743062,-4.195670411583175,4.943939686141398,-1.1989622963033046,-1.5587512947390252,0.2934383500858022
22.374206005088666,46.762348989030286,0.058076432808624776,-76.26408282054344,-0.26980174476886876,123.96049697128578,67.14063093277855,0.5401842632294467,4.633265573434992,0.2260945086752883,-1.6027137500215778,-0.21466195158728,-0.2381922790342595,0.3387917929952136,6.27535197121829,-3.906045240089398,6.683135516362744,-0.9828842244002167,-0.875251117655993,0.3075058990317183
22.728613309186834,47.88222340754098,0.05767068743568561,-75.58687100583006,-0.2723322668776998,124.29927705751625,67.58771900373286,0.5393176485399221,4.630433664296974,0.20012368845084452,-1.4664395112779136,-0.2131923966212074,-0.07890082288003561,0.3996236808371687,6.593462863123737,-4.164213519017278,7.003783599225171,-0.9942225568956722,-0.7551207602838432,0.3668713964396908
22.78253076981077,48.67576631154392,0.05418202180880847,-75.46125838246515,-0.2738584006753749,124.97241258732289,67.73089937018526,0.22636990641146376,4.7976402636657145,0.19272989821579994,-2.088191575707973,-0.2254567570119573,-0.1163779022885045,0.3501636190539565,3.4500244152888717,-2.3635810542942615,7.23039747718335,-0.5244782607271559,-0.15040230412781444,0.2795046124071821
22.57899888064873,49.0789920591127,0.04949012829212834,-75.9397560353257,-0.27646955455447564,125.92516134878522,67.73085242048522,0.0321937963567672,4.8669603496027944,0.1776696034576338,-2.5177735664582093,-0.22662708873193782,-0.13574624439909758,0.1276543025886426,0.917468267195569,0.02244382925649485,7.171828043845329,0.24714582644792848,0.270943441280383,-0.20496765745681764
22.004850466317603,49.183337778566646,0.04837339791956454,-77.03125464739557,-0.27679692199249084,127.12843999018622,67.50828820819696,-0.08484122566118214,4.634959166580286,0.2520442891883541,-2.433883380203638,-0.20914474919762077,-0.10625204944144355,-0.12046097736196609,-0.8968764189677441,0.9929074460175891,6.395826315624536,0.4832200860939163,0.5173954220239748,-0.27270600237399545
21.115892330021712,49.15337653017587,0.04826676242496393,-78.61327651775207,-0.276584893442027,128.47873518892555,66.87282517987511,-0.32302976559094515,4.082174634246748,0.1450228628696792,-2.4827815628720034,-0.19070110905684942,-0.12380884282352501,-0.2263935091663342,-2.1668138894955846,1.3067184721893168,5.496806336439734,0.5419848495842415,0.7581380675663094,-0.29256449426720854
19.93079875084248,48.79028094701158,0.03456992101190822,-80.50286519780155,-0.27667418568237684,129.96345541522336,65.84860897836637,-0.41202960350143175,3.5683002320944786,-0.00031329185447018796,-2.5352643258440697,-0.1663149402444474,-0.14137566162348075,-0.20306634150151376,-3.15248928085519,2.0047436192893593,4.120556700911103,0.6468648606937974,0.858159465499552,-0.2608106547124891
18.493010371335636,48.223026623861195,0.03087134300556382,-82.59120554504965,-0.2770238802954756,131.41952716710253,64.53660382722346,-0.33627606079924655,3.205195308920066,0.0007645509242740371,-2.459570530633413,-0.1349505647053313,-0.13083623127915447,-0.19414364561138014,-3.410226446351805,2.0732692715347216,5.0093355442572625,0.6864231591963923,0.9601406304619656,-0.2578327490927378
16.823711424737787,47.44203989906506,0.02397305513118634,-84.70586217743558,-0.27598011015449897,132.80031927511624,62.94601424300381,-0.5466684342705543,3.1326750333824953,-0.15987384877064675,-2.2739732621123374,-0.09322200525687836,-0.0746872664721582,-0.1837726536631436,-3.78109240221542,1.1447056585018704,4.633775108961854,0.5104390547824861,1.0999093409149354,-0.21724953519423107
15.931450196608033,47.076043199383435,0.022492589665912614,-85.73605983522872,-0.2750562446490682,133.45827198567602,62.103356055524515,-0.31815540940267134,3.716468094585539,-0.005575153166720729,-2.7691936719867924,-0.07212945372970837,-0.09722467168512909,-0.19707533718830209,-3.364036465189303,1.4796816686807162,4.6819384455625865,0.5818056036734884,1.003178112138902,-0.21477785064061086
13.00541662668409,45.78925109985911,0.017198522068638516,-88.59452118610842,-0.2690431733578668,135.10314862083197,59.26249039730372,-0.07279033842546653,3.070181871601991,0.1904392941824018,-2.4168656748608566,-0.04453951233703778,-0.05263271976681206,-0.193847220869774,-4.191710629193541,1.9305967471059666,5.197215665071612,0.7129607601161354,1.219040434578916,-0.24743488079665463
11.970228683849312,45.41554689893794,0.018353172431711903,-89.45741124724775,-0.26781308996919007,135.55070659553067,58.252179653416455,-0.36350642721506254,3.1605826096538836,-0.026526962104642653,-2.506554402807647,-0.03047050235449996,-0.02083624177278844,-0.20163671557040388,-4.024537667115696,1.6537901834267559,4.745230453356036,0.6520658684039058,1.1869560042296199,-0.238261022494585
9.895595962205551,44.526010176912024,0.01684385040849148,-90.94631147707099,-0.25015699534874875,136.23283411044494,56.18261497262523,-0.6030250107663617,3.1156135857899296,-0.1497173801450565,-2.4673094192538807,0.015348738196436161,-0.0123250973773404,-0.1880935138746915,-3.8854860613033155,1.8036017724407705,4.738080127122807,0.7280264801543056,1.1663476969640914,-0.23356760475339522
7.840097880042185,43.755287656661004,0.016892760560461503,-92.13945928537393,-0.24857498636773656,136.66298804415268,54.127749862492685,0.1493483672932871,3.480864098742619,0.3715263643488333,-2.707972031788472,0.010539928081804305,-0.0034960029436026537,-0.18193087439151698,-4.266149378254468,0.6194830353881351,5.382630739922589,0.48594624096831374,1.3219795443724802,-0.20558171845540507
5.882681118528136,42.89484024671307,0.016908642922112676,-93.05321054761069,-0.21853055545371142,136.7890856740743,52.112404684585776,-0.44425017913220366,3.1454395234697916,-0.06704656379473369,-2.5559741074035776,0.08279341464538383,-0.05309761627507114,-0.17206444185859018,-4.151112527861971,1.3150244480968076,4.79282514935437,0.6299148632300615,1.2061870004306607,-0.19795338648135347
4.0860932769600975,42.15653941478552,0.014038952437561635,-93.68172277280094,-0.21279673006459024,136.77685787470793,50.23751324535119,-0.6679608523758411,3.105654459045737,-0.20677607027322498,-2.6463746176244123,0.0970666108171931,-0.4673231098361772,-0.18187070882148612,-3.7119071490106395,1.486770420264471,4.108045530401305,0.6444344676586566,0.6497005431180778,-0.21524584064902147
2.4829634845480473,41.327769784554754,0.012889933982274412,-94.12392776321767,-0.19669895005054452,136.5364441480226,48.55936744000187,-0.4290530224430961,2.9448078465207006,-0.07194487163390992,-2.642133249725954,0.10378574626010353,-0.6269197775638525,-0.19212528792895503,-3.7596191701525945,1.065556723184256,3.6139932557511747,0.5423107816100727,0.46631539531530536,-0.2102162933103091
1.1615751671988976,40.58152505186927,0.006214569580694365,-94.36963439071619,-0.1957135941189098,136.02261114757854,47.10579956074446,-0.40183812138928465,3.1678040232350537,-0.04742782523333846,-2.7338897246767386,0.09726348011506641,-0.6737707600315075,-0.20200408576938178,-3.4742493662801897,0.9470590479226962,3.9700717617336196,0.5264340383474198,0.3978736681936436,-0.2212226750133492
