BIOROB-Lab-192/Bilateral-Teleoperation-TouchHaptic-FR3/Simulation/Bilateral Impedance Control/Data Collected/PickAndPlace_EMG_HighStiff_UserResist.csv
q1(deg),q2(deg),q3(deg),q4(deg),q5(deg),q6(deg),q7(deg),tau_1 (Nm),tau_2 (Nm),tau_3 (Nm),tau_4 (Nm),tau_5(Nm),tau_6(Nm),tau_7(Nm),Fx (N),Fy (N),Fz (N),tau_x (Nm),tau_y (Nm),tau_z (Nm)
-0.9273930004906908,38.11015741605819,0.025371384466604155,-94.85801704588602,-0.11211639774270525,133.3085769158387,44.2359680305346,-0.10504125522904045,0.03817160623852213,0.4300964417850113,-0.05870204324075203,0.25077045459384895,0.1507170801442833,0.1916282230315328,-0.5043634092075744,-0.23357422056989613,0.409478281668839,0.35809147898279503,0.29427892159853497,0.1229323779752645
-0.9276560497569483,38.109970233379684,0.025473505704832054,-94.85803268879351,-0.11202925086426359,133.308518274937,44.235730072360475,-0.07709679758095517,0.096691262810583,0.4179986731129832,-0.09845929436154718,0.25088529952142047,0.1458676110004076,0.19790195645179287,-0.6190521719990143,-0.18995071216105214,0.3022407483717385,0.3635100948594743,0.30954453167703455,0.12582382192427694
-0.927423930289758,38.1103948767678,0.025592669115529612,-94.85777038581628,-0.11198616262199163,133.3087015257766,44.235802471683215,-0.0986711288819679,0.0687184948041669,0.4110776490051626,-0.10514320907175151,0.2518992284808099,0.14451917461070912,0.19361071415138048,-0.5884280780106685,-0.21495399849931845,0.3504747567297305,0.3568641133426096,0.30579169423375163,0.12622901577711154
-0.9276287733720802,38.11005913681082,0.02559719006526612,-94.85777089178093,-0.11192627111343756,133.30875112950298,44.23571824193657,-0.13557058391590615,0.09589213119576163,0.37598804138488706,-0.1126074653711164,0.25165674315602604,0.14167862037994516,0.19799493445071348,-0.6109357932460221,-0.1985511339256973,0.4089752747267437,0.3515940262804404,0.3145907400311262,0.12671696901231208
-0.9273451134818614,38.110582628613116,0.025818910919618288,-94.85777038653501,-0.11183741239598519,133.30868103905428,44.23575500193253,-0.09152509303640703,0.0861805567004376,0.4006808213957489,-0.11174557627780754,0.2505089875323903,0.14475565553323433,0.1955909739828487,-0.7425182519094207,-0.2226324910262631,0.3714629742325592,0.35983745896602437,0.33460981888182567,0.12425656202157799
-0.9274992187645541,38.11015743482245,0.025714815919610466,-94.85766191235405,-0.11184623127252717,133.30867018549813,44.23602269089074,-0.1217430061250038,0.06673314652294987,0.3915443947173885,-0.1512150228825289,0.2508434666706522,0.14128946831331785,0.19226136595285037,-0.8977097050435827,-0.21125413004347388,0.3437722093333034,0.35815056599332185,0.366404555878456,0.12219844146161239
-0.9273787794817508,38.110484493832615,0.02563336647767322,-94.85777036779648,-0.11182207389496979,133.3087488595178,44.23623297128481,-0.08443629362292782,0.08161578300563983,0.40918579061713,-0.1297776753539019,0.2512464579601688,0.1455744156396014,0.19104044729021635,-0.7365375969020694,-0.23379983652007158,0.37019684011167503,0.35193127489048465,0.3385996061348604,0.12386787778681979
-0.927492689329895,38.11058871239172,0.02592537976083679,-94.85776592885021,-0.11196550936832188,133.30851930514444,44.23584047371027,-0.11649002781118734,0.048158566627010194,0.3686867671001116,-0.12770415679526703,0.2510578460088193,0.14442638390098875,0.19573042779038322,-0.6697735009255215,-0.206466083402637,0.38365575497588156,0.3495174150846924,0.3257312472217389,0.12947496109608353
-0.9273922750953973,38.11036951408546,0.025919115180697495,-94.85761562792095,-0.11182885561283895,133.30868050253775,44.235756578031925,-0.10787514818710607,0.11123487802212927,0.3939238700813434,-0.14399080639370426,0.25167164527491864,0.14292728836194052,0.1907718669371887,-0.7189636475610849,-0.19988436946939392,0.4155994108812513,0.3598061401479915,0.336264093325952,0.1227694489042031
-0.9274932468602182,38.10960567335197,0.02565661347185337,-94.85775723140259,-0.1120295857629832,133.3085965703878,44.23548564475252,-0.09747256956418741,0.21007189497779477,0.39304317840210823,-0.13956965291849885,0.2513366425410165,0.14572207862131203,0.19323535096773756,-0.4238596839563332,-0.21298238993374605,0.5893072847613601,0.35042254787609567,0.29216599419152833,0.12676614449058132
-0.9272805965799936,38.1088427613335,0.026282324004017085,-94.85766369073852,-0.11200898036124081,133.3084969022397,44.235802168761765,-0.12679780804614324,0.2928263311804967,0.3364843273589705,-0.15291191656085587,0.2525913526279959,0.1465414221904887,0.1963090567091033,-0.259816506817221,-0.1666499175590965,0.7313264584670932,0.33664660176482064,0.2706477598966933,0.13549880013966387
-0.9271689053482929,38.10862068991868,0.02651869972364132,-94.85765460232678,-0.11196827188312211,133.30859446768102,44.235763659371756,-0.11650329853297131,0.34485034281546745,0.3305203672979579,-0.15119256704444717,0.25138452311297066,0.14636435882018956,0.1986401649109961,-0.10382465528818947,-0.18051498070885308,0.8200169857366062,0.3234707763395548,0.2453128126776436,0.140160770293221
-0.9267867488414103,38.10822507860739,0.026767699383350527,-94.85749721814827,-0.11201193306762945,133.30864006412816,44.235841030588226,-0.1355612466578986,0.23256844962510667,0.3163099070952679,-0.13674480721554302,0.25101654178593963,0.1452462849181562,0.20252171393764803,-0.3460295329124019,-0.16260543617249473,0.6273014212223668,0.3242599620519329,0.27815576949634163,0.14321705463924034
-0.9267912895373023,38.10855134493623,0.026527790995123198,-94.85754547113616,-0.1120458607674298,133.3086570889693,44.235560097008104,-0.18050621984177978,0.2467860178085904,0.300046720751635,-0.15884271600649036,0.2502233349738244,0.14435415896331896,0.1937646791314794,-0.35938821270418586,-0.10737717650806711,0.6433264283815375,0.3562949805527825,0.28383152731818206,0.1317116132059774
-0.9271955892702977,38.10843976143573,0.026465431770713192,-94.8575338164691,-0.11211378372279607,133.30873090148944,44.23600759094551,-0.15958267892578545,0.190515514668082,0.320139519674003,-0.12397930555211424,0.25205579490378244,0.1501400179574254,0.1993413049146999,-0.41192006958216115,-0.127983199651666,0.5643027101310238,0.34635337069176,0.2915736367934469,0.1359655018530193
-0.9268848690429485,38.108864948778745,0.026526460275991794,-94.85749597776126,-0.11206613117122001,133.30864056420148,44.23579756965936,-0.17440864849194673,0.20018478070997087,0.32512334060476294,-0.1332747384697262,0.25259307049061924,0.1486381761115271,0.1935584550818531,-0.42834192072000293,-0.10087708505782547,0.5777687156275662,0.3646899398009501,0.294886943626649,0.12752093174136192
-0.9273312447008669,38.10891155736844,0.026244128720290777,-94.85766823928469,-0.11202957646041811,133.30862888094816,44.23589600977124,-0.14042771080374863,0.18688395997222312,0.4019747344006958,-0.1350747979450783,0.2532283826086655,0.14516274109960328,0.1924815269006872,-0.4663594362456298,-0.15816267547442406,0.5490468990058448,0.38727980017711217,0.29735749490652874,0.11789564779672415
-0.9270452898234147,38.108169796557014,0.025839140907883463,-94.85765508551468,-0.1120285810424568,133.3087503617475,44.23589043634855,-0.16762597939974527,0.24112603088591386,0.36358474818521336,-0.16369800515662877,0.25315681831892634,0.14673130692978492,0.19551237323721551,-0.4609042972773563,-0.12044146349622764,0.6426309912182241,0.3809901887433018,0.30582235381394685,0.12337691517035733
-0.927054190154787,38.10863841608952,0.026180184134590213,-94.8573912047733,-0.11211565333894025,133.30858957478557,44.23574315528723,-0.12252202427663814,0.23667071205533843,0.3998288456157131,-0.14066534083998752,0.2528689354261984,0.15005632475584585,0.19339100042410154,-0.41636196409744497,-0.21054867815201916,0.6752666600321682,0.3637863326954206,0.2992863918328894,0.12434333897575504
-0.9272618372387994,38.10854649544259,0.026061020953592362,-94.85749507013074,-0.11211414563142685,133.30845783312478,44.235778869480825,-0.07338514134250504,0.21222748961838953,0.43423665171978726,-0.14228196901791595,0.25383649504521777,0.14752389906835806,0.1943183504756863,-0.5207641232622854,-0.22378772218385687,0.6255222040923816,0.3643754256896767,0.312918341521436,0.12497630723706822
-0.9275911258827226,38.10764354959849,0.0251501214474198,-94.85689108615865,-0.11200898036169593,133.30868127999173,44.23573689097171,-0.11392012342979789,0.31153535408240113,0.45066626426522854,-0.2421956363387463,0.2520456466355156,0.13457239554064507,0.19236257372074492,-0.8439877627630058,-0.25908652245017144,0.5756073928423169,0.39443665163918934,0.3694931490432811,0.11148185907256017
-0.9275390805064274,38.10811358791835,0.025331091146888883,-94.85674997269923,-0.11193598232901647,133.30870152581323,44.23555150367185,-0.041154662024787396,0.21550433178220302,0.5161380585818139,-0.1791184470897621,0.25190139034198394,0.14202349998398217,0.19305286966908589,-0.5665385359677275,-0.18668304959370666,0.6643834219943521,0.35172059549400614,0.32263007735859534,0.12819366093864376
-0.9272939874126599,38.10843304025547,0.02594106731341144,-94.85696571852482,-0.11193327559066442,133.3085943473806,44.23606660787535,-0.11312911437489599,0.29160372142633784,0.40830553949110143,-0.22662572838622552,0.2489358253350332,0.1424372425985359,0.19058139169852978,-0.269918954607002,-0.19395014390680962,0.8880368326183976,0.364813945441124,0.28689578987056313,0.1223914477935738
-0.9268050314968366,38.107347734995216,0.02668168567986521,-94.85696572141653,-0.11187921713396151,133.3086805105349,44.23575049791709,-0.1816934222837601,0.4069128497959783,0.29116599647942465,-0.2052221666886129,0.2508139006271977,0.149769184930021,0.1937635828102622,-0.30383922951613956,-0.1189115436515169,0.8959080357177391,0.3247866134416624,0.29086285742454265,0.14004671247854722
-0.9269502069777068,38.106042372005604,0.02685603377691871,-94.8565401805095,-0.11182153277663648,133.30869927810662,44.23564549791978,-0.13304147480153616,0.46031570052115833,0.3220903288565592,-0.26150417990560965,0.251527621632124,0.14139662872623254,0.19823880984813513,-0.22101428816750837,-0.13048927654474035,1.1482502580002218,0.3514115909790772,0.2890180880545311,0.13200131287892317
-0.9267293244769615,38.10438817019161,0.026989002437556104,-94.85602793482013,-0.11211632347618776,133.30870148979045,44.23584989384319,-0.18409646888944534,0.5310510254325509,0.2680345045388582,-0.2769665823847692,0.2513651058369258,0.1395757057698891,0.20143105144076798,-0.3210409528554466,-0.07641221626662087,1.2049383349242135,0.3605369845892678,0.31589930672855593,0.13202160905846955
-0.9268258634080985,38.10415343781279,0.027091141613169514,-94.85580253648722,-0.111825374772996,133.30867904047102,44.23597072795161,-0.15107900461411689,0.5991667162431127,0.3107954939578451,-0.3157586326941439,0.2519472550958812,0.14097754738983903,0.1976307251111123,-0.20048390168447658,-0.1321411595103386,1.2355529749742995,0.3363903157666762,0.2968727094170382,0.1374546115297932
-0.9270400370985957,38.10428796696755,0.02695007610258871,-94.85590321452865,-0.11207299337278095,133.3087508769148,44.23584767336314,-0.17384149188827372,0.5480867060845599,0.24612701318649685,-0.3007678581529432,0.25279117268372814,0.1444100766070245,0.19601513185590366,-0.2776337119982942,-0.08878467680204957,1.1549990985801764,0.31652048866953975,0.3090484735503984,0.14441063498789586
-0.9268848689662305,38.103756927765104,0.027172609209536052,-94.85578881666177,-0.11186950799926956,133.30869901590899,44.235670147654005,-0.17279466082058897,0.6324427294282882,0.2629780246955256,-0.31543759342316186,0.2504656797187222,0.14304814077466188,0.19918360892810497,-0.11010339119139173,-0.09640273116197312,1.2959314167355278,0.32117118424960867,0.28492958354619446,0.14398283723483585
-0.9266884590965663,38.103648656994665,0.027053613480370924,-94.85589303974535,-0.1120295843465717,133.30869926895417,44.23577961994487,-0.18768418437440218,0.5735794762276153,0.2442795572535581,-0.291461302306701,0.24885599680428835,0.145394316702598,0.1952540965940908,-0.161518656157816,-0.06837893729139671,1.200753025177461,0.32237379322307086,0.28965254731012025,0.1412408949509908
-0.9266646771203524,38.10430673897966,0.027176696067250632,-94.85602383954493,-0.11206621166318895,133.3086506206608,44.23573462736769,-0.18088551483793405,0.5543138770906829,0.2709996133037436,-0.28789332188072997,0.25133310762215966,0.14294971192582753,0.19543459449518552,-0.19239247308667098,-0.08251435834753415,1.163973169070223,0.33519581516097074,0.2906836167343565,0.13795234940157572
-0.926786564819133,38.10420846959512,0.027188576596745298,-94.85610971128533,-0.11211618394635217,133.30875113767652,44.23596998603387,-0.20156463656770932,0.5201611391059604,0.2613715548313401,-0.29598939753634596,0.25344748591597865,0.14287816557901545,0.1958836573880535,-0.32960996222014294,-0.05618746352569284,1.1050452475735053,0.34496457950112325,0.3143565172071822,0.13717435669543365
-0.9268848711160794,38.103511045480644,0.026827119533135317,-94.85568321090388,-0.11211639654412922,133.30874864063088,44.23580144060161,-0.16977154940788972,0.6547003289351497,0.33531136746457335,-0.49043668348499686,0.2540657866783505,0.11201836306565748,0.1958727092058225,-0.8564752179596904,-0.11905041599450955,1.2719745196093857,0.3651339459957049,0.40949783942141643,0.12869965507271483
-0.9269601450176854,38.103194941751,0.027053446028499302,-94.85454304457886,-0.11213414778855618,133.3087511329307,44.235621743816175,-0.1534106928390106,0.5164310684059499,0.3296813913418037,-0.30667424704249635,0.2517697171625512,0.12660443894018433,0.19429813282521138,-0.3568725114825333,-0.1296524947273599,1.0710571712882504,0.3514888533394126,0.30112808924659673,0.13055371114891443
-0.927981865647899,38.10301239530172,0.024659171828209186,-94.85476831743209,-0.1121575470658975,133.30883796054937,44.235640033093475,-0.048155643543069525,0.6350349696661683,0.5328134102339245,-0.35136577786015905,0.2507550387421446,0.11933222386425515,0.18767781807272732,-0.22776714345736884,-0.2925542137295572,1.2585086509166372,0.401724638049769,0.28435181129751924,0.10371752766782802
-0.9277745274217568,38.10308421606981,0.024903016410769946,-94.85478895255514,-0.11197939328003924,133.30896819272374,44.2357139709815,-0.003744853834545312,0.6131165068830382,0.5146255757990905,-0.3710891703207216,0.2513511899498456,0.11808381363382303,0.19536932908391383,-0.3847874255078853,-0.3606985796237875,1.217819739849778,0.3544260218775508,0.31210008864933014,0.1212140168446793
-0.9279131557573564,38.102434137820985,0.025188261403764112,-94.85490474031658,-0.11215978999980826,133.30892480975973,44.236296860866055,-0.0446381614768935,0.548108603258155,0.4455881300768873,-0.3283709820238444,0.2528836171930392,0.12446136191936902,0.1913616451799695,-0.36909383845487465,-0.28782864829701665,1.1200338839248534,0.3473410313384868,0.3062592286013978,0.12402431363739413
-0.9274055318006654,38.1028536063168,0.025821383173697057,-94.85512681021882,-0.11184911088014944,133.30865582217152,44.235988112149336,-0.06431663733032976,0.4888851428217905,0.42471796262182643,-0.32445634568169635,0.25389514517324496,0.12382597519563185,0.20047715885983092,-0.5154261868367153,-0.27449011379211774,1.0181213960508009,0.341692422204274,0.32733223743718,0.13317345280177656
-0.9275118468145945,38.10372988781667,0.02587791649642881,-94.855015032411,-0.11183941244489143,133.3088379606636,44.23577437483781,-0.09168444513395392,0.49019149597920325,0.37897751619872116,-0.32791739444495926,0.25268290041191566,0.12297974365543961,0.19575302498927635,-0.41449280616804507,-0.2329851283166633,1.0791641282312618,0.3444801585085478,0.3093105656529621,0.13095006118885827
-0.927513508882672,38.10357592803948,0.025882437619028708,-94.85507153035759,-0.11206998205858847,133.30888137127414,44.23565453445143,-0.06156691267704623,0.5485943665613537,0.3911015164324938,-0.33470288088911,0.2532644700410428,0.12210048551986445,0.19774036667547457,-0.39582525308749256,-0.22407595933408386,1.027643128629883,0.3387239799896943,0.3050460718185103,0.1330200077293996
-0.9273234656487024,38.10313841447882,0.026058094951144625,-94.8550665820774,-0.1120751733483544,133.30896819272374,44.235784054607485,-0.11688460216633108,0.5684109252532629,0.34141007703186876,-0.3290483896872302,0.2546450050117589,0.12354826403894067,0.20168208118374506,-0.28999543142151596,-0.18371947089339685,1.148311736750241,0.32567707558139136,0.2883633225382172,0.13777751636558724
-0.9271945274752648,38.102446929234446,0.026503627054440225,-94.85478690491775,-0.1120722326017018,133.30879454982457,44.235745187584264,-0.09655796529459147,0.6123350096925223,0.35802236398838,-0.32353566081561536,0.25255539454504283,0.12571499911770254,0.19636200145791566,-0.16298847241821968,-0.20828884988823976,1.2520841375165677,0.3251168819736064,0.27350339741060464,0.1373458742758628
-0.9271856149602918,38.10297131198625,0.026462709186145707,-94.8548568368814,-0.11203006008695465,133.30879454982457,44.23539862893918,-0.1506399138534793,0.6088002695361153,0.30238690172595306,-0.3548437660761066,0.2533901213760395,0.12115524820586722,0.1955855922363985,-0.25799514498657905,-0.11725679327655145,1.1806872981058645,0.34068411008523963,0.2894216589038196,0.1361082929968606
-0.9273666583764585,38.102857706890305,0.026342966220452083,-94.85482737988245,-0.11192477779589385,133.3087945498247,44.235731569527616,-0.09876232753544079,0.6147466801608968,0.36579868231073615,-0.33707269291828784,0.2527769928074278,0.12481885696724089,0.18931220925660405,-0.22348400667669838,-0.20399747458659478,1.2451257868353498,0.33452657634980154,0.28511103472740373,0.13412525579906806
-0.9271569941623056,38.102873118161135,0.02658459495170931,-94.85488737543191,-0.1119307921873139,133.30883796054985,44.23591221958749,-0.11457494266457072,0.6141769664400938,0.3423044406644532,-0.34002246791663904,0.25241566400535564,0.12260152706344228,0.198605564079632,-0.2588456358348205,-0.21446301553867342,1.217741223352622,0.316174836117633,0.28759877890340646,0.14387131564518346
-0.9272805972806301,38.10343593028402,0.026363291900969504,-94.85528823095541,-0.1120699453458103,133.30883796054937,44.2355111664951,-0.14857573258705398,0.5226738123201691,0.3168199999603248,-0.3025507226941259,0.251149416300013,0.1264034058561592,0.1914490652368523,-0.2220062508734769,-0.18110368573983043,1.1572842811384934,0.3215125906750005,0.28183606441635334,0.14041934218391264
-0.927182470175586,38.1028716202357,0.026584595053796213,-94.85504634924868,-0.11193243863464071,133.30875113909974,44.23564492255212,-0.1332169063420455,0.5630724286277381,0.3125528635736971,-0.29809727516012113,0.25328265264052313,0.13118269706465033,0.19819785499952106,-0.16528431686046519,-0.1441953265816283,1.282641192600751,0.32494703607191583,0.27689555603336646,0.1391121137428437
-0.9272801134494819,38.10231640218823,0.026583087892006158,-94.85493035327039,-0.11209334167991991,133.30875113894743,44.23562224144658,-0.13000071002782412,0.6579007458876239,0.32087832266312827,-0.33882068112498254,0.2510577443546506,0.12601938680859612,0.19577043971944527,-0.10286691105644469,-0.17940529302031952,1.2313819261202903,0.32198907622948914,0.26395212698339743,0.13888103429070803
-0.9272397249887492,38.102358035635106,0.026478995751042542,-94.85478837419944,-0.111933219101009,133.30883795952118,44.23568133602471,-0.12953699125461307,0.693759054553037,0.30720128883703157,-0.35686440422636,0.2515838936061173,0.12162608412441626,0.19725213308832415,-0.11270619282554405,-0.1677616021944439,1.3233337047504916,0.32113770421790067,0.27057580748236404,0.140847081334609
-0.9272805821891719,38.10194169544457,0.026720308728252144,-94.85515792878248,-0.1120714060654664,133.30883796054937,44.235735905978,-0.1329952793670779,0.6629030270250308,0.30703867281528446,-0.3427203959553378,0.2526527804149884,0.12385077356750653,0.19865871397256718,-0.11794970625307562,-0.15521030754227697,1.3145617331739872,0.32196531113257043,0.2691987173336793,0.1420631140884112
-0.9272626773041226,38.101941695363,0.026465431770676017,-94.85448769629004,-0.11202254353041777,133.30869923289583,44.23578314015409,-0.1384703498374544,0.6863748173125089,0.3248188929768725,-0.3560960425262801,0.25238079668336977,0.12435054287473422,0.19446641279303992,-0.12002747604953748,-0.14506832120444188,1.3546248158870595,0.3392213012566391,0.27386998518136735,0.1340677553760521
-0.9272800948532306,38.10277520737502,0.02636329189844894,-94.85466621298322,-0.11207977469649683,133.3089240324583,44.23598687848037,-0.135701591371656,0.6600041614786664,0.33550986496780355,-0.36740667096231966,0.2514829441435149,0.11869313203139802,0.19619639356342064,-0.23860027866309494,-0.1552061966006613,1.299549581859171,0.3410489187100586,0.2883687597614201,0.13397103606988348
-0.9274027824510556,38.10323201987939,0.025662861577875045,-94.85472575459286,-0.11450369393034886,133.30879454982318,44.235279307307835,-0.17427315656268202,0.6038594009406345,0.2311303956894104,-0.2926031844965394,0.10429655081314698,0.11219270869047507,0.09833818211494785,-0.010533666982356771,0.04503367957412702,1.1979381123122645,0.25983330733813514,0.22330907132759162,0.035247032938729786
-0.9261963174347824,38.101421671280576,0.026111671534844096,-94.85612431094219,-0.11472945663594168,133.30646335741838,44.23469655352829,-0.11471619935858608,0.5383882587458277,0.44001285846005217,-0.5272117616065555,0.10737440350463705,-0.1682719379292032,0.10082709130499029,-0.75448967309966,-0.08558402462344743,0.6094469152408887,0.3427071717092861,0.049081922344731924,0.008982982081795973
-0.927939789138224,37.93939746224159,0.009100108278913867,-94.85404940626293,-0.11506715526453652,133.2528367260855,44.23487632753284,-0.007347733210798473,0.4422847469993869,0.40631568476655205,-0.4679953226252526,0.10937940137018282,-0.1510281349058843,0.11013580257269825,-0.7628610976954314,-0.23301871813339103,0.47945772164155714,0.2424529883776606,0.055681570521486624,0.041127006573582946
-0.9166053263547858,37.71566663440937,0.009119477117572378,-94.85513117547846,-0.11542081593144993,133.0058735425544,44.234439316012335,0.011054558113204304,0.6657273499359014,0.06364515759404761,-0.46974602142366023,0.12588131451521625,-0.1299433117728262,0.18188429179954393,-0.18110025539189836,-0.2927259206778313,0.8958329734598612,-0.011188496922634933,-0.012325782933614369,0.17477188467363547
-0.8313083553965736,37.38516211834229,0.00931203861272121,-94.85403896089774,-0.11551161331234602,132.68271748931733,44.23478618167871,0.24047393723498497,0.7172322255182001,0.20387640300217763,-0.5948623355314064,0.12580395723459428,-0.20056424890322194,0.23471285771476205,-0.5567831105869875,-0.8638174535423371,1.0968219053221313,-0.21075471106056834,-0.035131436796210905,0.27384479531314576
-0.6792840311764052,36.95015221565216,0.00109705957042226,-94.83232119346059,-0.11578386819943495,132.34270951270355,44.2998201104722,0.860802012989266,0.9123832092898707,0.6339894995247054,-0.8120080225544547,0.10711502642267323,-0.3755764268197245,0.28434309548778325,-1.3525721384424731,-1.9051141381187875,0.49456693088257114,-0.4543200881973642,-0.169045022773421,0.3628068854621443
-0.34160158548524316,36.57162406592712,-0.00532609381033173,-94.81033085575167,-0.11705319374283271,131.93073270483126,44.53196027671469,0.8683085117933242,0.7428048509351718,0.5521061900559908,-0.9219267697420284,0.13208611383494556,-0.4957140467145007,0.3861453277778495,-1.2017776706434826,-1.7063285863980937,0.214612029862373,-0.47550584163731996,-0.11144155341885593,0.3832513190757258
0.2211512993906812,36.07124332154974,-0.005019571746344001,-94.79357336189106,-0.11842886055116125,131.35119744060512,45.003129327951086,0.8406364394352515,0.29400970554233263,0.49016233054019515,-0.4113355836869576,0.09335625993449774,-0.2864311533333712,0.3069558207752753,-0.06612458685124872,-1.387697688240701,-0.006979305886072749,-0.4119508468977523,-0.18663851282480579,0.3058980774263758
1.066464940454199,35.561693309874755,-0.0042232139715437066,-94.72434308913638,-0.12105702714582632,130.73311201925333,45.73958663906052,0.7076992459248771,0.3200641314078374,0.40490749795300324,-0.1145493468233443,0.056388477588308686,-0.15620533795219319,0.2689867778887654,1.3874506399104878,-1.0919555220744352,0.034062381215546424,-0.3947577690839713,-0.35687319244782223,0.3019339158332298
2.258237004277913,35.14168140099003,0.00012779271209771087,-94.51887771700825,-0.14003291336397308,130.0337878298835,46.82680801592135,0.2255981778165859,0.16612110021347404,0.034798692410568335,0.2548914976377166,-0.018973066392250833,-0.06733200644514066,0.25946703430932305,2.2421212197010565,-1.126271599260816,-0.19641173057716324,-0.41458845309349585,-0.5126992246606167,0.22830577199049665
3.8214531265988763,34.83094942933983,0.021298164806994736,-94.15907864262556,-0.1438469138390671,129.31818957268678,48.252783447826424,-0.005764796494952359,-0.1727310226399352,-0.027025049992066168,0.5910480295431201,-0.07535071670810155,-0.0011415448626189446,0.22438655116490605,3.1924412975782466,-0.47233898301199656,-0.6948976406403542,-0.2986648136090469,-0.6173040464010685,0.189682817082954
5.641429082658573,34.755015586497684,0.05600957769456972,-93.55501092621948,-0.1496462875517514,128.62014123389594,49.94425248711974,0.026053448860506916,-0.4092754790076197,0.03517996440325254,0.8749176770782185,-0.12345220482717278,0.10341065920918453,0.2364244247394922,3.480181692664837,-0.8487800768064592,-0.49202861234352785,-0.4042454084974876,-0.6759483716297151,0.19089639506501774
6.584165787133832,34.76096243615121,0.057482080718714454,-93.1544741122898,-0.1551390860149351,128.2457158594869,50.860608257897304,0.2597040549501916,0.140276394892713,0.12921766672909188,0.8887120449486466,-0.1702207769620976,0.12543114444092018,0.19808805962767295,5.162681807092482,-1.4998291468966287,0.9624931438053265,-0.564225113784105,-0.8843588287310628,0.16949029631447313
8.586384094376523,35.00531216658857,0.05892574776895464,-92.10603111777824,-0.16419016956516685,127.58139933739695,52.837283044861884,0.42856052334515227,0.6848935994918729,0.22920258140838962,0.7853889238582263,-0.1832156573705827,0.072225298365818,0.13752550044092257,5.854056045046913,-1.7504862649256796,0.8326202439799031,-0.5897937943826222,-1.0497478954333328,0.1264621678212882
10.650359380974503,35.64282140534211,0.05800380127866887,-90.80106140544481,-0.1652764554725207,126.89016309308563,54.89864434450766,0.5581892068440422,0.4778412033597391,0.2844986884311619,0.9765747506295664,-0.20423530020056269,0.14312714528332562,0.1570095204841359,6.079760726699996,-2.2224523540403327,0.5760293452842007,-0.7084383748524572,-1.0350989608167016,0.14983984337302966
12.734068020203956,36.620550322950706,0.06366370429207825,-89.16456837618941,-0.16632400710361192,126.25184604478147,56.973707010945695,0.3633745149384623,0.4455830593884239,0.135240692806551,0.8903242851959621,-0.19126971742803173,0.07882050062996629,0.13746420968149808,5.7977971958893,-2.072093354103888,0.43941710808452333,-0.6716169916262287,-1.044785070769447,0.13019885629465683
14.728864817661265,37.875843761069355,0.06338422850773791,-87.3007601122004,-0.16700143239064302,125.60480683202002,59.00847461476189,0.4063488130090654,-0.16283201956085952,0.16602349311763667,1.0952979219090155,-0.20112573180741933,0.12293793053608702,0.10857158694604843,4.985535443191524,-2.0870981155299786,-0.39673849015831364,-0.6643179624781527,-0.8974790354913561,0.10124841705811113
16.567554263392477,39.39047408192631,0.05891793124220526,-85.28233967995634,-0.16764879443957809,125.02394176497232,60.94992084377031,0.765379728854017,-0.5189421879990522,0.4260631080010576,1.368731325304533,-0.19670382008890658,0.14639322898364251,0.07469873665903216,5.290897608293879,-2.81745114898064,-0.9205825937958976,-0.7781441700796442,-0.9887473011083047,0.07239613865969444
18.24747884152147,41.01453848141843,0.05653269163538874,-83.16406412346196,-0.16838610001258708,124.52345943246468,62.7121871360395,1.1774430592748193,-0.6842612324853742,0.659768815278361,1.6362176111453013,-0.2149034390071053,0.17690551286344364,0.05911935056687961,6.163424614350326,-3.841909618136281,-1.131977641259623,-0.9953973320035514,-1.1526456393791364,0.06714923785331547
19.694420712485908,42.727997090733254,0.04894921118212301,-81.0618923944496,-0.16856596852878328,124.15746529907796,64.23659703022211,0.5292738161173014,0.8549862718373106,0.15795183895758202,0.8980035783039172,-0.23645396712642222,0.017856011092589344,0.10423764174412553,7.7852885332891635,-3.736439595950392,1.0355215952058408,-1.034621795779536,-1.4319858197792505,0.10399429999912745
20.919780602882827,44.38349133172979,0.051522748964824075,-79.1470967563356,-0.16890842056696181,123.87210599652252,65.5253495144049,0.5861178992209876,0.21001202050777662,0.13457919177991082,1.3476687745320786,-0.22364077830338228,0.06026146446805109,0.19728225731130547,8.290640828879017,-4.313644866371883,0.16709663232337227,-1.2085474131141443,-1.5482633184565238,0.20118891955004758
21.824238004720403,45.97686435059011,0.04911360072993843,-77.57158425965062,-0.16958276060488237,123.79132300954397,66.51062661778293,1.193799627192898,-0.08557332195275631,0.5188359939004015,1.5984652206101964,-0.22517502759116867,0.2623297734259203,0.16084440987319476,8.137785808020844,-5.222105389781307,0.11283979388902447,-1.292526046627126,-1.340662263100552,0.1759032025537987
22.39493075456364,47.357348873391444,0.032947206133786544,-76.41128082292055,-0.1696655462235612,123.83325519086029,67.27225672639477,1.23058168792345,0.0046478586404598895,0.5255519118355959,1.5890445373163653,-0.20666679213508032,0.6253945279755824,0.17891198264431732,7.45449157925081,-5.1133315531094565,0.9028540199879388,-1.096831560822114,-0.7968053267129971,0.19693967639012142
22.72338520005554,48.38111864529622,0.03546664142691447,-75.81746400322777,-0.1699605292778099,124.2424090289333,67.66923574868393,0.6491050424103337,0.2879513178871167,0.12527257819322973,1.4738217758883838,-0.20142555295949566,0.6913703302499298,0.2768981400108432,7.796735533873174,-4.601289686074195,1.5530785606304187,-0.9988609786329015,-0.7296777235403427,0.2831047020727851
22.775281982827508,49.142099854845085,0.035045650076012506,-75.75194856152619,-0.1702076997022985,124.95082496805017,67.75731364152637,0.44811621560787546,0.2467248483464799,0.2039700215488913,1.0247151325488049,-0.20075908694548944,0.7015662338503964,0.2797692761736968,2.4718160656260255,-1.771411816158543,1.5092311067792283,-0.14611975473440164,0.2346739112259208,0.0953763262229504
22.520369768867376,49.519630994821384,0.036035901516271784,-76.32311609360843,-0.17010869341517942,125.94859163984333,67.74368054649788,0.005920839896905605,0.44494954458027663,0.279022517879387,0.18970692096813702,-0.17734113676552188,0.6323479776533801,-0.050306814562446456,0.7648933621179853,0.382132233970176,1.3927191874276768,0.486772148383985,0.5231622138053259,-0.15965080877283658
21.917976314467836,49.62522032166422,0.03550407101051813,-77.47985105269045,-0.1701751798804696,127.18722847112133,67.37328417358364,-0.3620656933638709,0.23930266092237895,0.21281614204850482,0.05115086502578749,-0.15140735376438688,0.6014285874199818,-0.08813822849268159,-1.1379965780917365,1.1336296397385657,0.48291147205490437,0.6968731204009929,0.6909525663665484,-0.24773119481293168
20.95998146160692,49.53805342058429,0.03398776118959215,-79.12113705803564,-0.17059331887937645,128.56887108747094,66.66563098545188,-0.25092086074276454,-0.04207016855725687,0.3171921949335333,-0.09058039904223032,-0.12081489756741275,0.5570532161106121,-0.15808669702926273,-2.5638321473492427,1.2484983688700075,-0.7707219773228631,0.7096636525680041,0.9330878836708125,-0.25099411515676534
19.746940338485757,49.094907514023426,0.03283080441391312,-81.03317584352311,-0.17068249769173596,130.05410558811064,65.57120096332635,-0.40072042818781445,-0.9025481405590914,0.21603923660773452,0.12418640089575238,-0.08885680659935304,0.5398886245219645,-0.13212862895886893,-4.127298422274218,1.925467908172094,-1.4112495713088804,0.8107339223239931,1.2084701599483445,-0.2000110430504086
18.264624526651733,48.561875147073664,0.024710570951040463,-83.13178393566223,-0.17066181737138825,131.48768577025334,64.21241158275268,-0.4000928754495708,-1.592634287164282,0.174893387432124,0.544560525151404,-0.062585205345636,0.6003314014857423,-0.12239652275305829,-3.5851056948873246,1.134209540645024,-1.311342441194477,0.6536030801237301,1.097327680727776,-0.17452277817787404
17.441766992603966,48.19050885387848,0.018667940306780147,-84.20389907759656,-0.17055581886921017,132.21314316074924,63.42159354565348,-0.20365136789677662,-0.5563380824427804,0.28502464107673453,-0.17304179759214097,-0.036925118879797346,0.514581842848397,-0.092439236202037,-3.769149157780675,1.567321169051859,-0.3842013279060607,0.7442317182956198,1.1663262364271805,-0.17303818401229937
14.680120722979705,46.95608631705017,0.0025600809356551824,-87.23413716775366,-0.17043939412493828,134.120187645966,60.794347788997094,-0.16184437299864438,-1.0747614407959896,0.4086490103921517,-0.03705105440051163,0.018791243663701395,0.4938844243324034,-0.11482158093493423,-4.412395356060056,1.5914048488461918,-1.3331005445055728,0.8274303745128572,1.1806726706418906,-0.20005190436776976
13.683372577177183,46.52792312812761,-0.01861012398606573,-88.18157388569152,-0.17063231257989728,134.66031285338337,59.85074285914396,0.5232974818727597,-1.306269954080324,0.7794277356302558,0.20885732393859413,0.07393943579660456,0.611011722390659,-0.07939406841226469,-4.221703987917391,0.3589981637933486,-1.5020886113876128,0.5650671781057097,1.2609303604915292,-0.1202339479606477
11.665758327866069,45.66918456754594,-0.018667209525765442,-89.88676557600742,-0.16997337625436074,135.5449402868223,57.828701652469604,-0.2668294509166836,-0.9007067310599125,0.22920663544969672,-0.0006662942555211178,0.10652591076787858,0.637157247390841,-0.0513550389305199,-3.9442833681284686,1.245671132973069,-0.8011845717621773,0.7493696195354469,1.3072017674821634,-0.11094826335384132
9.576422757840705,44.82908702869306,-0.02414655088932829,-91.33292201970396,-0.16916872045258285,136.1819426669912,55.745588389091516,-0.11524519191446726,-0.8175955176867834,0.3969055556719159,-0.12576366202939795,0.12393858373710064,0.569216076459152,-0.05661042777467632,-4.201693308892473,0.9235253905207848,-0.7927002606085152,0.718265131460435,1.3013244739385024,-0.12002998894267927
7.523775049760127,44.020581456740004,-0.03099486265919805,-92.46954061709948,-0.1682451217456047,136.59426776128362,53.68414116075423,0.12893658727906662,-0.5199325158982593,0.5395587661079869,-0.32428364859684194,0.126355717764498,0.5253763874436389,-0.05623809180516635,-4.314763811632479,0.43645296411080714,-0.3639124993376944,0.5905722575482115,1.3385266083131797,-0.10665681419666756
5.576418115941551,43.1738502882088,-0.03744455366024702,-93.34563688030465,-0.16819253455121497,136.69819055278293,51.692521754608904,-0.18399402571415296,-0.5332413916350907,0.2834916249672513,-0.3966288741709102,0.14289541277167886,0.39759015303152123,-0.0328108225349089,-4.352505487696619,0.7134626421133416,-0.5815465648731933,0.5897229182806862,1.2198283543944088,-0.08617809061167477
3.7987181265786,42.40346384600559,-0.04309297364730797,-93.93909286324926,-0.16735022180113027,136.6601342702149,49.8341174061585,-0.06725096981023834,-0.25588081673506785,0.3684893138712344,-0.6766703711625601,0.1419493157712386,0.0572208419874748,-0.01867115710012753,-4.2274566551802435,0.3764708058077885,-0.6470571959549374,0.4817997717735654,0.8619397002161999,-0.07115487743065858
2.227580614796353,41.59613950337664,-0.043417752105742884,-94.34084635380647,-0.16748718896541404,136.3489535226897,48.18237663129142,-0.07879030920076191,-0.8337793707330023,0.3861473943104598,-0.3294270887523467,0.15670152540609408,0.038135093993375904,-0.00853552184431011,-4.0216355776965305,0.2531595332423168,-1.5891715917121145,0.47357598352463126,0.7266284959057053,-0.06525043700508018
0.9589129950460005,40.85337497962123,-0.04303259601940757,-94.58178461070938,-0.16721465906274796,135.8209425094604,46.777967630135116,-0.17217479090240934,-0.6634966252262519,0.3137652511104559,-0.41187955657037684,0.16989681580834673,0.005049759607531524,-0.022415207869275963,-3.9008147666921684,0.3189707192344585,-1.3068327800964175,0.4984952812375267,0.7018062489492625,-0.07759781094595053
-0.0064901290512650095,40.00199561015586,-0.04114311532706942,-94.71016395140529,-0.16685318664417478,135.14331344805768,45.683619052357955,-0.06873605886607881,-0.5939778026548815,0.3929557394407408,-0.4869272172324469,0.16495130167105435,0.024167578763222525,-0.01741636468426533,-4.464103853253229,0.03908106104785125,-1.3890053084215115,0.435850231122034,0.9008491810912571,-0.06747978009347302
-0.629480264771313,39.22689476440345,-0.041129551040501484,-94.77527763719921,-0.16722780370350324,134.3763936117174,44.90542215757718,-0.1476145655054032,-0.6075626583146005,0.33818082444036635,-0.5276223863125249,0.1643934368949106,0.07987320650284016,-0.015481831652904813,-4.750018854408434,0.3204069768880518,-1.2891872158965525,0.5202943534835578,0.9494074816569925,-0.11052455223222415
-0.8870368583907022,38.355467734197376,-0.04055448844266585,-94.79323954572581,-0.16701125550869794,133.57557936048642,44.532233824922415,-0.10276392997925356,-1.0389496960879085,0.41896751951228567,-0.35393956757962836,0.15795357678197322,0.13374128446884734,-0.08023304592882122,-5.0470069430749405,-0.16210134836160178,-1.4230384793529327,0.3901910355180571,1.055806767851714,-0.1313370303952676
-0.8589228199112453,37.54328969655903,-0.0392068549481216,-94.81173793619652,-0.16699387806745408,132.7428938806984,44.48261852450751,0.42065356074466453,-0.6068396356609588,0.4343258127261739,-0.4884099805290892,0.1406204591483952,0.10084071331630931,-0.03174443666088332,-3.819358465125336,-1.0592524084798873,-0.9393306480591055,-0.1690837477192727,0.8097553100964152,0.18696404606937178
-0.4318812097944655,36.72259628097359,-0.03985569153758858,-94.81164953743163,-0.16698973552328486,131.9571025329933,44.605452600019575,0.9069211711439799,-0.94569336762403,0.5584108188446257,-0.13536365538210585,0.12797669400572256,0.11212891998136261,0.21032098404197572,-4.493449208843194,-1.9928343477861197,-1.9226181896648207,-0.46123033226770427,0.9777063227258707,0.24662778723804352
0.340717891835012,36.15121756717284,-0.053626568490731566,-94.82011431091169,-0.16753269973712556,131.10434963574957,45.20230247586215,2.2944966494199845,-3.161054239030009,1.7659596809252394,1.0917548632160383,0.16670488746276368,0.50188173633009,0.22692546753611476,-4.7224540070914465,-3.605223260973982,-4.339182260187587,-0.5854070744023661,1.1129007013153407,0.2681471709215157
1.2935404880761256,35.998421056238165,-0.20140019706296897,-94.85279013317326,-0.16963821815534846,130.23710092172263,46.17652802865824,4.74589499966728,-9.690060526459966,3.771845541810837,4.3257636378619795,0.29517771302612095,0.8655724162913707,0.261023659686726,-9.459840213028508,-8.41284899490158,-18.74533931641263,-1.0212038761298194,1.2874582124110043,0.3594242957751597
2.6238943745080414,36.01005325557187,-0.3073504046768098,-94.86090376813443,-0.17319671382361226,129.4369261844095,47.51609240206061,6.718024743861512,-15.173316594715526,5.633633819914599,7.791566232523408,0.552970250818143,1.220877792914519,0.29414669502629087,-8.177446588025076,-11.455260650636331,-27.451819856468198,-1.1792069679250547,0.6070477251049711,0.335848001470081
4.137602019327408,36.048699733987476,-0.4488194534028269,-94.6036380356217,-0.2142571902780688,128.68838301533978,49.11792717705275,9.159946470267737,-20.138694411332725,7.7865110984949935,11.07674211114832,0.6699393559350253,1.5103462287089213,0.24688113138278117,-7.118913440968873,-13.901836629169775,-32.43969344533364,-1.4507963800620296,0.130678259524198,0.2591210547771199
4.982786197369742,36.140507086863394,-0.5017683623013383,-94.34483528122449,-0.21566924964804812,128.2839126841248,50.00280477104253,10.561867427022326,-20.815825808952223,8.982529897467481,12.009028904344587,0.7373446850583738,1.612009019606713,0.14270680677590433,-6.423714439352548,-14.727178034386704,-31.820701767959637,-1.5608224044491084,-0.004138389177023425,0.21193032868344505
6.952234071985879,36.1916404673479,-0.525104442180361,-93.35710331187991,-0.21506782098251018,127.60714979768873,51.97270485862805,9.650698893529544,-17.858974678875217,8.314803137222674,10.7039377075864,0.6623766176184992,1.583840526790717,0.005090680944355519,-4.412407349061772,-13.281712360581936,-26.903509319308096,-1.2809616671415625,-0.07590232562542937,0.04365095853026163
8.9706314819471,36.65227521982333,-0.5334622061887585,-92.1945945000117,-0.21636754916122702,126.89238011687112,54.03058141895178,11.163484343224185,-21.85043167880373,9.400518361042279,13.245773229906458,0.8022195743428098,2.027623826553509,0.011359961631518008,-5.282451075245016,-15.100835500443052,-32.60560620906355,-1.5380517825938318,-0.03465957705908927,0.082483309343867
10.923160733812292,37.73878677902028,-0.6217940250993335,-90.88713690141978,-0.21807560409488538,126.16301509647172,56.14921983807066,13.84279793991326,-22.25938309143714,11.468230558360624,13.52398267383827,0.8939834378148221,2.105411829435006,-0.19313843615322368,-6.471115614306154,-18.190585448094215,-32.93223716981792,-1.8743559415930662,0.12756033605222342,-0.09299896111713243
12.821147540094255,38.855958377242615,-0.7308019340023556,-89.12130750544094,-0.2782262231549773,125.51107790660005,58.28550086500721,12.977637977708616,-17.82994091076265,10.721785854055748,11.005932173025922,0.8238801906605936,1.599481873062195,-0.26659474441087766,-4.92034540599414,-16.98407295066951,-26.42398551737452,-1.739686679453679,-0.18082597979880613,-0.18984955653579302
14.886865565516697,39.73636005138429,-0.6647717221524465,-86.84992175469824,-0.30222487511387736,125.04274526284557,60.27795425564207,12.50009457715885,-15.414278253506835,10.381157826708206,9.686348400120481,0.7628172433461672,1.382818975893009,-0.28243750657176386,-5.172311474513818,-16.78696917343718,-26.470767127554595,-1.5364824347887491,-0.13742352470139998,-0.32347596531663325
16.570575813851878,41.47592581182283,-0.6985355730152571,-84.87333643131646,-0.31495575968778217,124.4671279641555,62.15239172887224,14.465331842311361,-16.796861315058592,11.734206514326882,10.71175491585029,0.9305120249354113,1.5695496486003166,-0.440179336012775,-4.057954100261553,-18.841814932660142,-24.47599274951198,-1.8935283196331372,-0.4352288540383782,-0.3693639503763436
18.00864065929347,43.0872296894437,-0.7774565488685781,-82.72673861167748,-0.3317798528742811,124.04067478548366,63.831892505081825,16.61170821611065,-16.98656834307987,13.246784948025761,10.94799731851447,1.1108085984111704,1.5987788041127187,-0.5342135541498336,-4.488540462945457,-21.522771607271206,-24.6110324620299,-2.165678331133231,-0.5002781245744928,-0.4428742272955071
19.206889202722103,44.871310235002454,-0.890970029150641,-80.77331599785407,-0.35373038642337173,123.65500022649636,65.3275248578055,17.07404177160983,-15.07140416835677,13.496931504705358,10.125253933042863,1.1595506542299774,1.4275379472504077,-0.5775240093895939,-2.719330246339779,-22.737422683630555,-21.794579552881995,-2.3250730459976565,-0.8939943489458373,-0.4930357073484892
20.25546858463361,46.312389290182665,-0.8991155151378428,-78.92968043731953,-0.3624813066223644,123.51664200972459,66.47508067273722,17.247401614824557,-14.65035447842915,13.487503286492114,10.122364254821461,1.2135574559041813,1.5089678849317134,-0.5274702429911109,-1.527324654907198,-23.50223504982349,-20.862767836417085,-2.4150474825852606,-1.051864428088516,-0.4449706645250507
21.030316137333678,47.75315451875339,-0.8968199178699241,-77.52664216165438,-0.36510417035176235,123.51135084424403,67.36545446422721,16.791684649098634,-14.017763517671996,13.149796125747594,9.568226907089091,1.1823221048352746,1.5708437514723461,-0.5543050831184588,-1.3749479504986695,-21.394290506068216,-16.477074073479603,-1.9572512903198591,-0.5736892766787021,-0.453412163754683
21.628745008717967,48.73468396494277,-0.8020359744886447,-76.49079275592675,-0.36355974295860305,123.7845536682113,67.8894114709018,14.14153527767196,-10.92326691500777,11.120553735045702,7.973721836620472,1.0560699085455283,1.623069392030641,-0.42953888877412044,-0.23779337422021116,-18.58269730518891,-13.083469441407285,-1.5263672894707818,-0.6055675562901055,-0.3380435097205701
21.96667919454709,49.439165350502506,-0.669223395637681,-76.14681665449761,-0.36182472980195635,124.443875620216,68.04829253772878,11.772381517420776,-8.288778283736681,9.49783721437722,6.455993900207847,0.9141412086183871,1.4118975039733388,-0.22350180180602702,0.6943874677074038,-15.3265973435246,-8.40210395809218,-1.204143077544145,-0.5207725950480238,-0.20898042255769034
22.009532280764144,49.793346030743,-0.518046204930159,-76.23723414840202,-0.3558385088416573,125.39955312451238,68.04772021343133,8.623381269272233,-4.795919062770203,6.989628585764625,3.650776034934935,0.6293067307684455,0.9984789426466165,-0.32599388945165336,-2.6310355953096765,-9.353125746637444,-4.792979947153824,-0.08716384011895251,0.23469338695133019,-0.5507131358943209
21.761678292417265,49.868712678390956,-0.41000966705344327,-77.0098308442752,-0.34513194249397644,126.5533936440163,67.82700351875253,6.414772332272845,-3.5233918107422637,5.93135690853529,2.34462482646546,0.5581107739270409,0.8405238800424061,-0.36621044541008196,-3.7981619042545467,-5.349591602391693,-3.905277315501828,0.5431796320744086,0.5411573285467803,-0.4099770838563213
21.12741201402413,49.8631793474355,-0.29554113516104286,-78.42241034396092,-0.33265933257371166,127.90365038415888,67.16567890069105,3.9484465065893692,-3.1328900031090954,4.191768715402321,1.7178927777007909,0.441409292469192,0.6749536771411595,-0.2965543066647447,-4.278162627992275,-1.9079743755320389,-0.7492279458173912,0.9050290199446843,0.6712696213256087,-0.4125494539750221
20.68876075347617,49.65491151923957,-0.23993139180235515,-79.22740165962422,-0.31957604599165323,128.6283437775909,66.73833127542464,1.4003900981645403,1.3417353347383523,2.015492785673378,-1.2857079206553228,0.20666494948141867,0.047717199783692994,-0.32610225327680464,-3.9200172829598636,-0.14879554927757316,1.9363865026800144,0.9743253974649674,0.6688028536051109,-0.43025688918815475
19.046654458760422,48.22917804804507,0.0022171499619968896,-81.80891421341846,-0.2785308329315889,131.01070075526215,64.96043911926697,-1.3578822490957532,7.634283532836545,-0.36213262092017845,-4.677556600400614,-0.025780573598982424,-0.4854808454051415,-0.27446118616845866,1.0477009927593728,4.86017086321984,16.329835034005093,1.3195260089512955,0.35864386856075614,-0.43668364193199777
18.377206240907086,47.6224820632841,0.09961582124303762,-82.74716440423802,-0.2617548266718762,131.78904850065462,64.26596184200031,-4.984071822096,12.867376583000116,-3.537823800994989,-7.142135050635531,-0.28979103577806126,-0.7845783511309462,-0.28125956459306806,3.0658956378614826,7.433740397085309,20.814772402590414,1.38032204200601,0.46104870156396494,-0.3070397650666225
16.884851962089353,46.64090225990503,0.2830475065926037,-84.73708291819426,-0.24077675460073344,133.19217811728967,62.60659204651323,-6.062815656104871,16.116586543751378,-4.680131813434571,-9.053258761317018,-0.2948968126967227,-1.072044035342558,-0.11436820643839733,2.7398231220209004,8.127417893657478,24.11231573964179,1.349558016578375,0.6282319511804683,-0.2097349308013508
15.078108260670835,45.5775132902401,0.36006759334711386,-86.63902352236501,-0.23144170238405465,134.47352037409124,60.72678638085538,-4.438471830270648,12.530763219173272,-3.4692016471009524,-7.274295492536157,-0.1498034165263418,-0.7565593495675897,-0.020553348391536424,0.2859707451046665,6.378126160036773,18.910329162697398,1.0953793073990454,0.9434505353113513,-0.09023236530785284
12.847134000629458,45.29814010891663,0.22085075944401156,-88.72492422371478,-0.23325231471791993,135.36905814876468,58.72978395883755,-3.2434397217682296,7.425656893542539,-2.577803029936193,-4.68235965747918,0.010045149240012239,-0.28883428520877746,0.022075220400864463,-2.0570273892907314,5.127835616912252,11.372561640742427,0.9368084060252504,1.194746585794158,-0.009874298876378907
10.682555281541575,44.75794840039229,0.14547438389141257,-90.46945153744731,-0.23363937996557782,136.04116136028705,56.66728048820965,-1.8372853074254547,4.546533136925416,-1.4961504731432544,-2.9218483687589276,0.0923496270903648,0.19063199771244985,0.05128673519088592,-2.5189490066687563,3.0638712089779903,7.5253171239740215,0.6597423655567409,1.3949177109888156,0.04852774259784884
8.620260640940966,44.053887277117504,0.13825604588367907,-91.83659718081373,-0.2334929441149168,136.49037192626992,54.568966584500885,-2.5110703559240566,3.705556715630148,-1.947528295238181,-2.2561702860668804,0.14348974419986002,0.3732451050696668,0.06457171311190717,-1.9913416309623275,3.299327466352335,5.692871680563121,0.768501256232335,1.4503631439157563,0.08895472552365577
6.582413017614727,43.34634293330115,0.10888112573538022,-92.90593720103594,-0.23320660797429243,136.66452927759318,52.53793319920011,-1.4685482600396238,2.1700249346844798,-1.162018368757978,-1.2829626426816914,0.21618314561453825,0.6726561705062112,0.05229145058978375,-1.5365615808006334,2.5647340700818,3.765971059241514,0.7237954121506042,1.346057774446719,0.07574014624084063
4.692655805077859,42.651674617962236,0.08319529749094182,-93.65600722518602,-0.23258558695149886,136.66477617071425,50.61925201743968,-0.9172045189537924,0.8482481375800429,-0.6685127112539949,-0.6334672000475031,0.27883711118146576,0.4793349862145376,0.07592252235081925,-1.8946457593634782,1.3928814458323684,2.066050201903671,0.49158863049795687,1.045613376731046,0.09460630540742437
2.9922967912956713,41.90947862124097,0.05832847758198919,-94.19194976940072,-0.2315943628328433,136.4846153605426,48.87012616014919,-0.08666218374291045,0.33025525971058955,0.033310090528741315,-0.618795895331574,0.2981784706021394,0.2345726474553531,0.02786809480352522,-2.739451229341235,0.2531701339189036,0.756993901835937,0.3550678259107253,0.8616493385427094,0.05829594178190942
1.5278707695394975,41.14428739702824,0.013353854844427044,-94.4651242288792,-0.23112077976355208,136.02751334466282,47.35347221820451,-0.4274055099611459,-0.11169809056586569,-0.18112828873022224,-0.40314001257878995,0.31708098119322414,0.24174707986273622,0.04742596661415603,-2.6802520941873067,0.15854164715812705,0.35874897154463653,0.38889510106349773,0.7939283013835798,0.056412059832552416
0.4098448419543694,40.36428418480157,0.005016343904803589,-94.6649258939658,-0.23079075617451328,135.44634708262416,46.133772601918785,-0.3827808106763004,0.03381635881793322,-0.07357812532528331,-0.43465685903921497,0.33723540711829214,0.24913563400776212,0.028481036688923746,-2.8710134757566212,0.35857321950235055,0.09791901606762352,0.46697607372689054,0.9408155524419718,0.05939117068385723
-0.37064958498055106,39.56175631022981,0.005446495698544829,-94.75266407663285,-0.23087311872553765,134.6573454243553,45.18119022812562,-0.3735202145023053,-0.5003669051692187,-0.07495667528205517,-0.1406867745517875,0.365422270646325,0.45463874466300463,0.09037104989794513,-3.3362152251034134,0.5482052152139887,-0.11463941599739008,0.48108466352499235,1.174098953777887,0.10498524398407133
-0.7894346381304952,38.748840630422244,0.005979301615820496,-94.81482149119297,-0.23103494676550138,133.86138892871824,44.5922761664633,-0.3118055709521216,-0.6770001746518308,0.0514702527494596,-0.0405080146652434,0.3720899815458537,0.5379375594412548,0.08757211367764815,-3.2931571384071145,0.29449605848438887,-0.30634136316212335,0.48935590499899656,1.2069546454708509,0.07972030735467599
-0.9730499700417753,38.209513428162786,-0.08610350642034079,-94.93006753589131,-0.23206298027766475,133.0220134076716,44.427112858036416,2.097678870503854,-5.784518319591863,2.2098624299526923,2.302142283207179,0.47234085836627837,0.8688371035524327,-0.0017040599128658074,-8.501679445304353,-5.025688689089531,-12.818665674227288,0.06951787434448829,1.5663865081571315,0.06494102481228822
-0.9250541535700463,37.85865390722136,-0.23140189948974482,-95.1410383377393,-0.23361014853748305,132.1265387500804,44.43355236673204,3.7906877347123435,-10.152366580325111,3.485395965292347,4.554318722950805,0.5977982760256212,1.1159537747401447,0.308785781526079,-8.510161451908196,-6.009359779169044,-15.092092937668871,-0.3308727446768558,1.5874719659741243,0.3298463293981117
-0.6381199667799446,37.374441601614116,-0.2257007863644505,-95.13975757272581,-0.2332425282049545,131.73890516409529,44.55488582046358,3.635933249988566,-7.160154650907072,2.973022976448228,3.627195877856674,0.5032807301564652,0.7326626893682847,0.2971975549195455,-3.9705067144772235,-5.631854139840916,-10.71143704998986,-0.5719492566404927,0.62710349299466,0.37129177755655973
0.8135896237921476,35.96766036394954,-0.1665641901827887,-94.8895176235187,-0.23246468482720797,130.6850314064224,45.622566154656084,2.9132663456270818,-4.665494948177746,2.4156517765311647,2.369452156225535,0.40395763869537027,0.3578193031405166,0.30148549881004433,-1.422802885008118,-4.67905219184253,-5.964545958326937,-0.5522999299209662,0.07311342202867452,0.3435377551828302
1.4531592691591038,35.608856076942935,-0.1559917939552957,-94.7835426048122,-0.23235289813620585,130.290181097283,46.17347263837238,2.067336683057588,-3.1436453198600125,1.7315833653828703,1.8676514831767337,0.3245806333545927,0.2281411495632518,0.2694859489182203,-0.380917454737077,-3.340155836901957,-4.880580189100066,-0.35049895862843716,-0.13274863846729948,0.29760410966480233
2.976856807831575,35.14347675924199,-0.10497518461883276,-94.41625103048378,-0.2322650488256428,129.6155720062058,47.556304179418525,1.5896922961848052,-2.140130994615,1.4247109453863454,1.4367061292239272,0.2393709112489917,0.09229613490450367,0.23247541879114397,0.6015607628195083,-2.676719025512246,-3.4705780571641602,-0.2689844290458174,-0.3572109274351935,0.2330223819181797
4.696350213863036,34.891207293648215,-0.0824509464037251,-93.90909376697755,-0.23204951273218233,128.92180141071776,49.187386787835244,1.7706367919483323,-1.746813572564078,1.511105912015213,1.1795677798293984,0.1453844288474226,0.04592409527016627,0.21902578184592597,0.4530619841482766,-2.9275300213599134,-2.883836498046459,-0.4215184748636428,-0.32122569804247314,0.218880149095225
6.608121552988792,34.88138917226635,-0.058937869272223345,-93.12203463798039,-0.23213342093948877,128.1904022192185,51.0045332653695,1.4865750577454242,-1.0197481380854927,1.2560114883072022,1.3125679489385622,0.08493387063973183,0.13804393494604617,0.19101456836339806,3.0732539826994962,-2.813340633757985,-1.6944596835393897,-0.456082071429765,-0.6744169293521665,0.1863668198223732
8.644336620242711,35.12009233327436,-0.02845155488806917,-92.05003750977538,-0.23253417333052548,127.53669461150267,52.96354317903087,0.893501985727002,-0.5039308416618518,0.7695576958089373,1.2199117220619067,0.05510085117471952,0.08339890002833084,0.1936797695761827,4.363170655843865,-2.27614861122282,-1.0169354924163967,-0.419102438505195,-0.9335925572426029,0.18186543475149447
10.734455236031497,35.76379298020217,-0.007550702935870102,-90.73615649011414,-0.23289971317913702,126.83823676324391,55.0180859006706,1.5452261569688075,-0.31363712700994006,1.1721784867765273,1.2634463900769646,0.017147966549073468,0.15389161381002248,0.19420117338362688,4.866275095504858,-3.4612727848203186,-0.6423702477840931,-0.6869065942886451,-0.9327655115321645,0.19929760370418925
12.814269900151402,36.763152371050865,0.011206434637836257,-89.07421711661553,-0.2327127493838644,126.20266387847242,57.08206227271147,0.9133607132013155,-1.0611229105238413,0.6531105975292987,1.5841495024315324,-0.01282717403305655,0.19951619467883114,0.15432998379781876,4.3813927909736154,-2.555563920152989,-1.7238260866511,-0.5645342447590069,-0.8664932507368176,0.15650496949816892
14.805557632261491,38.01815007700864,0.021555734691288513,-87.21776597402128,-0.23294395906194193,125.56197774271907,59.11665408375327,0.7789557137973733,-0.2882550973389596,0.5223355271702159,1.1550418087824854,-0.04972084503454763,0.1460531799191178,0.12555500760386204,4.729607098662755,-2.5780829046305507,-0.5563412459635997,-0.589655933339017,-0.8817857652481979,0.12677644794433127
16.643709707379248,39.51213602649966,0.019792423839640513,-85.16918621471493,-0.23299687880360492,124.99189326420465,61.045653926337536,1.0899406516667736,0.08402769927180201,0.7035717218678648,1.052567414490004,-0.05261316265799486,0.1405479948310091,0.10962338170168964,5.074876229756966,-3.4597592317248456,-0.8458658193715843,-0.776816200901468,-1.0336932833154888,0.12250118259505688
18.309945606232116,41.13000764539394,0.01973526033862093,-83.01866189870081,-0.23330352408645177,124.50888263876588,62.8066215366093,1.4460808961463305,-0.6162462063003579,0.9221917684337726,1.3962928857446224,-0.045131897545635805,0.06988741211438294,0.09646133073595219,5.156966239024359,-3.939621575758557,-1.1477341366199405,-0.8880893696467465,-1.098026837111684,0.1156420118179607
19.73778987460371,42.81425713201619,0.01566347488850269,-80.94092505104629,-0.23340327044160766,124.15184855158058,64.30798856086138,1.4678050772457658,0.3120748931783595,0.9048021302614558,1.0708466687867622,-0.056068367890577474,0.033298295350376234,0.0939642504695304,6.39908604677589,-4.247284171895715,0.2805084972438694,-0.9341477257131837,-1.2935028225792309,0.10388374658391585
20.917920350875935,44.49800391098922,0.012995540023392942,-79.05543097609147,-0.2340284052599418,123.8715325693037,65.60041504062995,1.37413798671555,-0.2540242437245573,0.818908761532509,1.435983518464489,-0.03349442747956366,0.036948591359412246,0.13257819547944183,7.724834265523749,-5.236394578404315,-0.253499847917925,-1.1509840385480885,-1.5467800646539027,0.17163776057408323
21.819891473609534,46.07967617562103,0.010846113901186888,-77.50098657188497,-0.23439554241286215,123.79534796197473,66.5837916414318,1.442012781020822,-0.43344996606228264,0.8941502427451872,1.632597579848361,-0.014375849242589138,0.08203564617975385,0.16181592343140785,7.580903349028617,-5.899347553812648,0.6456147927213546,-1.1850143956448804,-1.3083472528570617,0.18659765569498868
22.385620065521305,47.39963553695938,-0.011638306420602065,-76.33082401147365,-0.23480809902479205,123.8642345380494,67.30579179520448,1.8624688316703648,0.04064564349459439,1.084782797350007,1.3343443149749457,0.02846030765538108,0.4285642924186379,0.17795924245095512,6.509116735137303,-5.761743613411093,1.769267844638295,-1.0166080687296286,-0.7716290220342673,0.25162317949642193
22.671338030897015,48.413399927134314,-0.014394757670370264,-75.7606869562039,-0.2350986449524149,124.31286002249027,67.67701866383867,1.881019255850992,0.8869081221701837,1.087541119832279,0.8895254529366993,0.04975919001187973,0.47946425296910505,0.25142167305560525,6.1092684852974255,-5.669002982177149,2.098075626181599,-0.9653319515116797,-0.6706482179965412,0.29935935015754067
22.682521937070394,49.13746463246092,-0.03134722143967541,-75.72552530439121,-0.2355659149985505,125.05100966842397,67.76063653395391,1.588261929417414,0.8446909606903228,1.1116686034764118,0.4174649918155322,0.07886444832379709,0.45551649813009926,0.25624035658157857,1.0314310258213246,-2.6995147205100904,2.2265500768255255,-0.1451215501524244,0.2774309498001644,0.11990814921432498
22.598480574953054,49.31469800578563,-0.030921704807987675,-75.94677640863617,-0.23550039942627607,125.54667919176404,67.76062831723175,1.1052895860580823,0.9414221674852415,1.0818422343200391,-0.3042811371206581,0.09280618321530723,0.43149881221427666,-0.10078532714680029,-0.41154939840465166,-1.3180495113005932,2.0961309731731044,0.28874315961926944,0.5173042582830167,-0.1254976832433473
22.132496666516612,49.57289608088828,-0.03181685591742342,-76.87766892299874,-0.23559009421567784,126.66343054491391,67.61446585440038,0.9413669075316987,1.1396672129108811,1.1320764609160987,-0.7271461307039132,0.10480547000280305,0.2901054998310933,-0.1477434576989538,-2.436353700612247,0.22701373500941396,0.9039701343014515,0.6751771048251006,0.6967349742222734,-0.23653109258148391
21.338707002549533,49.568251474292644,-0.03271483112061144,-78.3017300374901,-0.2355601895846936,128.0068725614308,67.04130505788795,0.624410103473501,0.3536491439336828,0.9363970920262945,-0.538336896619343,0.12232860682697337,0.3386565837209025,-0.19284378227478624,-3.640274546182843,0.14695511749285964,-0.2838245706642352,0.6382134961193489,0.9282842007372998,-0.20956752202834025
20.240120446579112,49.32068408845328,-0.03443716556752084,-80.12485126269354,-0.23535944638367784,129.41423193640924,66.1258269799772,0.4338362639992681,-0.7911882793602929,0.7792582859048606,-0.1959261442470591,0.15144554311996264,0.372740954204175,-0.14143844258687993,-4.713810780288952,1.2992406819533853,-0.9626549377487484,0.8274240949729227,1.092208280162387,-0.1815457239401413
18.905143676545542,48.757396475227026,-0.033549134556051026,-82.13511811704022,-0.235355833826073,130.8846650174374,64.84286989810577,0.5186428330393927,-1.1078914778591529,0.7957368151791032,-0.051595722030900765,0.16749331953053578,0.4298022533465714,-0.11156064015821614,-4.9260411259477745,1.0838722196970985,-1.4339523821918496,0.7685383187793683,1.1705295136032234,-0.14038416594789102
17.29377414543652,48.0957546556182,-0.03519081850300156,-84.27539987632201,-0.2353674470891739,132.32739439013972,63.33068389050223,0.361906311171465,-0.3807021879942624,0.6861305911838823,-0.5863320549835991,0.18763604720320418,0.34603797164066574,-0.06364804293601682,-5.318767992071847,1.20652824525421,-0.49018559653316196,0.7826610058515784,1.2701969083341074,-0.09469478628392577
15.503897836206917,47.250664003021676,-0.03315387388476983,-86.30622641933623,-0.23494158267450183,133.610937755945,61.602263750632545,0.15482558050618397,-0.32145511294014856,0.5316723917471378,-0.5363219045276125,0.2075430815698049,0.43327238447454947,-0.04694175940259289,-4.9021046174207585,1.1854692425958233,-0.25344589758534136,0.8009908362118279,1.3037674788899432,-0.07766966070573975
13.57242137934939,46.4305036689643,-0.03264566110254397,-88.23466498744023,-0.23498494270895334,134.73445948941477,59.71035665473357,0.4120530193300195,-0.28229318498772216,0.7114830508801915,-0.5277922698153249,0.22905516952631033,0.4555706080399768,-0.051842933329188504,-4.792216992481876,0.6195283159859172,-0.14844246616776074,0.7119227842490355,1.322041581195703,-0.0707023986414959
11.532307994503913,45.569703951802296,-0.03360838003677141,-89.91703796325481,-0.23424790433622614,135.6267820280175,57.69698479509599,-0.15334655146256576,0.06422654703552441,0.33999411878977787,-0.8341356394236102,0.25708332967679304,0.3947057804424212,-0.019382254775698243,-5.038106015600186,1.2562536253337602,0.2822801106874611,0.8398241042799088,1.369907982231953,-0.056215608899512784
9.439582611116654,44.70535528671515,-0.03346403563387849,-91.35171360647968,-0.23404430706919305,136.25822542360712,55.60920726613228,0.14054499363975204,-0.14615842197125692,0.5315523316295321,-0.9006386332656301,0.2812533870770391,0.3377062665069713,0.036451103125333915,-5.855000416451816,0.6974761804796777,-0.21641183465315736,0.6870951645432966,1.4642556112467588,0.008967157915635071
7.654863600702427,44.025511670502674,-0.03218977758844498,-92.34836812339168,-0.23402356316639047,136.62178525441007,53.76112566881526,-0.27272171536069895,0.011636354244029512,0.25139003336960003,-1.1105107759431603,0.3298100977010726,0.324850903199673,0.07147287722428593,-6.335105008341136,1.0889880063958088,0.0039468112295118684,0.7813088013644098,1.5884836151127442,0.034202537099706776
5.471151104655022,43.09530795925929,-0.035136028011203184,-93.33724554606344,-0.2334442948228821,136.73373191426614,51.51856629503753,0.22434435802989894,-0.14225586345600613,0.6391754432418894,-1.1479377298649787,0.33684317178233897,0.26909949103250386,0.06815063839513706,-6.8410792947932775,0.6242354857826341,-0.9410024820460355,0.6641504360187035,1.4391214369292074,0.05874642630708858
3.6978776394857302,42.34547926127083,-0.044076957119491396,-93.90709639373968,-0.2324768294128427,136.69524872696633,49.67472110526197,-0.08205914469247218,-0.03439125740378588,0.3790028777072633,-1.507095181273629,0.35498434515588023,-0.2728509125971409,0.07538143536569857,-7.050759694778032,0.4514813236108872,-1.044843204630258,0.6072451974667339,1.0836548216552657,0.04733428428426783
2.141665693765492,41.52180240933771,-0.04720379117099971,-94.2912580139485,-0.2313847599999258,136.40153493197465,48.04331259143314,0.3441516487719057,-0.005869431425925146,0.6872159312880313,-1.5714791295970794,0.3452920151367931,-0.3819393272484537,0.06357258875546147,-7.261763935397647,0.0044181986457347,-1.4394953745843895,0.5374665015697152,0.9205403063144572,0.013354198883717923
0.876686365153698,40.7568169086793,-0.0494284060997443,-94.50488908685006,-0.2306753197101072,135.86121258549232,46.690787022526585,0.4237955622699052,-0.010668229516128188,0.7743939531619306,-1.4720223171419609,0.3200941680065527,-0.4168902515147768,0.01855764465724591,-6.072684684178416,-0.0009881787292771865,-1.5335764743305673,0.5785723789916511,0.8096044479746408,-0.041071339871904713
-0.08647515943070813,39.966249829707934,-0.05079444172931595,-94.6786991443044,-0.2307248536219015,135.16034609033454,45.61881111087165,0.3837067223387049,-0.9268041301023682,0.8051162235069743,-0.8722074815681187,0.34021800171363537,-0.2450022148795184,-0.0002526269574280115,-6.34208440420076,-1.095666991232672,-2.883508468805222,0.4374292329400476,0.9916791765971595,-0.018024731833293787
-0.7420136687343718,39.31468634595652,-0.09846032581424866,-94.81098273763479,-0.23111968138340652,134.3496727208159,44.88056700142661,1.3573882445506926,-3.0609683967378407,1.6240947142217752,0.37951269985503044,0.3622289754996005,0.10554256099293438,-0.0711110897256127,-8.27624502359537,-2.500695899940815,-9.263360578480027,0.38803642411736383,1.2968268888039305,-0.1380399573568579
-0.9461293054675061,39.04193003557021,-0.13072945868436317,-94.89602257601912,-0.23096002149700154,133.90219171789303,44.671891016733724,2.903743225210678,-8.661050664427046,3.0348915658161304,3.406609699014248,0.43747844520990264,0.7021426391081985,-0.15024569097866924,-9.727408601457364,-5.662743447203288,-18.827986112363494,0.16272264019895677,1.5411235381446684,-0.12596856045256222
-1.1257597929051468,38.5176206534497,-0.2616731715868471,-95.31260872777634,-0.23312785978444808,132.4450133282126,44.49976497865112,4.129035015416751,-15.769134908151159,3.951734419580851,7.479175536797629,0.6045857343362204,1.5224495844009271,-0.026499886498172708,-10.663281661377082,-6.005077256183426,-23.87685273132994,-0.007351636401284608,1.675690667368729,-0.005085639743193045
-0.9721633440316042,38.32739740981493,-0.27200024037041104,-95.41815294146475,-0.23365502057759074,132.02675345403617,44.50811416747327,5.215478091188835,-18.436068697491933,4.543335013490528,8.804579184053852,0.6317357611423753,1.6758710726799073,0.24212438191676916,-12.396169572662082,-7.91600459504206,-27.925262413235753,-0.6094658645173976,1.8331741253982592,0.3028947674978408
-0.32737150177385815,37.70229815430538,-0.28143634610784973,-95.46766221122033,-0.2335190063230024,131.1839201823753,44.861051669403096,5.187976582395936,-21.800296290847857,4.349443287525257,10.571530780425368,0.6325378825450636,1.8794581792069622,0.3947088229384303,-14.194981708671035,-7.9270442945786845,-33.01383765161849,-0.7977484694654662,1.957661784630459,0.46822058433486974
0.6715879590787827,37.218020331567054,-0.28173018894180407,-95.475680093849,-0.23571339065886698,130.3593852726068,45.61273157824914,6.49420497795075,-24.236142431722882,5.389811716815857,12.195946639372163,0.7626725528477365,1.8766330728765401,0.5020923332468947,-14.887254358869962,-10.478268501451643,-39.60011521728342,-1.0261732067187448,1.3582925609881904,0.6906647242390884
1.8988012071441123,36.96883949480215,-0.33439583466626066,-95.41543869846855,-0.23948784895128916,129.65444640903146,46.73785667230922,7.800572288192585,-25.54850024607651,6.595566466038236,13.344166914568895,0.9540489694166003,1.926665255647967,0.4879240881596196,-12.798271812351569,-11.320049822805325,-39.02326170981693,-1.0595881793408004,1.1265037423395827,0.587394932985865
3.3980250535229515,36.77281541650218,-0.40926748105588384,-95.04529271905606,-0.23993061164118873,128.91273769656124,48.24603079598246,9.436890514228574,-27.9903100771135,8.009136617557957,14.974871844759281,1.0106574942478626,1.8386768816199284,0.39845456672614804,-12.494555309156683,-13.193297155389091,-43.161682385015446,-1.259421941451468,0.5546524308202634,0.499966995107521
5.094343224529888,36.793150714133795,-0.5047392163671902,-94.59327446975534,-0.242913409542783,128.18112223848595,50.035339307161024,10.985239192574808,-30.160578625631242,9.442247380229663,16.664569054938756,1.0652719093413607,1.9193801959427652,0.1385473081126288,-11.604791462618916,-14.698162429720943,-46.58855900245014,-1.2809264757779624,0.057598840988889,0.23171927348973653
6.963863568211725,36.9960317998063,-0.5870632357576767,-93.75371505568937,-0.2803002929338061,127.47661806370024,52.09481531418867,11.26218729996677,-28.751545847015763,9.661532844827557,16.229398138546113,0.8075879033298891,1.9745392139971354,-0.31759307363156125,-10.357322918980135,-14.167665579614765,-43.99737862688172,-1.2216925774930991,0.00831002576849954,-0.23615422095020205
8.974020058217237,37.355050868842454,-0.6122938266962002,-92.51755394432368,-0.28195711442302407,126.79634734422714,54.31625182998694,12.260228786792146,-29.195557220463137,10.37889827167455,16.746426173690654,0.7671357634634024,2.275662493931511,-0.5007994144748211,-10.429297675104742,-14.888459490019358,-43.9744107181451,-1.317005430250228,0.23973786703091066,-0.41063361646167906
10.951202155225907,38.319798275164246,-0.6803765001774771,-91.05326655699488,-0.28665903582441254,126.0984886078542,56.50669124940751,13.327985328178714,-27.887318048416038,11.039190523461945,16.154180028460626,0.6721302503784907,2.291589236159708,-0.7353913361479046,-10.266248248298053,-15.7003384288266,-41.53084726193473,-1.5042884704449104,0.36032032927916036,-0.6235236518553717
13.081392051077131,39.230804687475484,-0.6489407183386101,-89.1765668578121,-0.28655559253723534,125.4271566380059,58.66905977851297,12.786282969169054,-25.698302049231636,10.618809183321165,15.055928518144734,0.5786124033630946,2.2804134058917622,-0.7449878681112302,-9.281958490059456,-14.82614821181901,-37.685486155779486,-1.3795499799181838,0.4266302901741852,-0.6763236698679854
14.930326751760031,40.4850130508074,-0.6656978215392696,-87.15171946763638,-0.28875691963800304,124.84850514971544,60.6290624247379,13.208679846395224,-25.313666684877685,10.848414853776239,14.970065038110004,0.6183768315193973,2.3530958528393855,-0.7200069843453001,-5.238064358675445,-14.794626567379009,-27.39219036337843,-1.4688875440014537,0.1319700986973193,-0.48131352148586765
16.71689092099848,41.64861257314073,-0.6612302873896113,-84.8305029982151,-0.2991899309226289,124.38920931738186,62.389995265981845,13.17189752653764,-19.881883648135926,10.65407933498567,12.17585102657033,0.6198676340574766,2.033618186404715,-0.5782113103022355,-1.293698420198262,-13.96907182971705,-19.978822768681763,-1.5567529283510968,-0.3606243098144036,-0.2960876879672374
18.442796632789207,42.910728179290686,-0.5540618704362827,-82.44955371489691,-0.2996824614812843,124.0418991352502,63.90857175044796,11.350206126028452,-13.83894485806379,9.24717737097679,8.898811740034448,0.5731668630658466,1.4296808898074402,-0.3703345359689379,-2.4210694256544256,-15.157988378427289,-21.400649440292828,-1.587920976854607,-0.19808026510388077,-0.3446766831962368
19.63082355129614,44.900967071933266,-0.6102745411803586,-80.63603514018638,-0.31306242726787875,123.64302979649194,65.31961510099052,12.464822605894149,-17.64044757598109,9.965906475176459,11.11834339906065,0.7159423234451116,1.6502291408135994,-0.403833446201544,-3.4217458312631317,-16.966779645184662,-23.400250643889215,-1.910604305851135,-0.5345079125426959,-0.362166810793451
20.546861609852783,46.539121807414986,-0.6777984543550338,-78.88456308461245,-0.3193261122460305,123.50327312910169,66.48961139844147,14.24675608378751,-18.461410605658504,10.94670210442467,11.631910851940805,0.7450631547581217,1.6828384675944228,-0.5588548597429925,-2.6170684658696377,-17.94347089311272,-22.305912289949454,-2.096816672440048,-0.670028700511986,-0.46484681697976316
21.32370198230843,47.855931023621345,-0.6717298914376576,-77.43895238285027,-0.31981206086997993,123.52752899808442,67.37330154187578,12.90701941651326,-13.947722859489197,9.86644662285721,8.979960006411629,0.6924088958133763,1.4148710958331834,-0.4733479281751106,-3.7510170310724833,-17.256456516898147,-20.683905357405756,-1.775409141676204,-0.1253265668946384,-0.41025583948934646
21.73293258933237,49.05478257618448,-0.6731090649654567,-76.57602925390256,-0.3220955320879894,123.80345563531537,67.86956265974779,13.399877255476744,-15.180058747720544,10.278720788416129,9.633854345484044,0.8071836844346788,1.6737571444510004,-0.3363665165815501,-4.450663939390153,-16.99354963376357,-20.94848430595031,-1.7433201115498798,-0.020835150518754952,-0.2837489822665333
21.987637839817292,49.675914695263394,-0.6207280446233714,-76.19735890021454,-0.32194949191467626,124.50105564247649,68.00752007030131,11.33353258991254,-11.06824426848628,8.700133218163316,7.429300458757263,0.740032806852615,1.3132324580166843,-0.17041731096348106,-1.6582688365686513,-15.4402201688216,-15.09777358239598,-1.6214810441426044,-0.35898845406790536,-0.1255357827713882
21.959792581393483,50.18546970270513,-0.582934983831699,-76.4174367024811,-0.3214055841291061,125.4190394348946,68.01693650803126,10.166763032893126,-10.388809346793565,8.405421800792421,6.243572123916177,0.6789970210896353,1.2106631434908437,-0.36367343826185045,-6.677128131597045,-9.411589251884397,-12.346998418275529,-0.08720880023106337,0.5087570559382653,-0.6186278638858026
21.623484925902165,50.27061045468989,-0.4832938445597156,-77.18486663694954,-0.3191007550914449,126.60244180902042,67.8451303578492,7.417094095299148,-7.600752108390037,6.675668366434883,3.861068102758176,0.5361290101879702,0.8551151848290858,-0.5228613183390125,-7.898500609124636,-6.792174160266166,-10.610364135375331,0.32080434498929106,0.8400345675893457,-0.6053715695342741
21.379023018682922,50.13695082456976,-0.3899855786956115,-77.75520274343236,-0.31637182503989814,127.33309639348148,67.57151033502137,2.372865306146194,-0.14465774919644608,2.7658445522701514,-0.8568400690894076,0.11949836093951689,-0.05406742882951508,-0.4773338442866731,-6.426943522442367,-0.261478832133878,-0.6100628705965115,0.9081011390502716,0.843330164107926,-0.5916276500915952
20.8080296347966,49.269291305475626,-0.09638320897674046,-79.07129156131123,-0.28588046981834325,128.86688508013177,66.77567905224086,-1.0454619122190205,5.161230348632174,-0.178227571228804,-3.6674278936200095,-0.10364645118977629,-0.4772721407787242,-0.411774397867558,-3.1124186970883376,3.247511535466564,7.034755608013003,1.0861530800349712,0.6508879419000732,-0.5045328870535075
19.824825461529734,48.39053414340269,0.14305320248872064,-80.77639426575291,-0.24460749239150117,130.43844839083954,65.64028771591133,-6.812001124313184,13.009668330342494,-5.111027160216097,-7.817890561005087,-0.6250830557795358,-1.178980983245847,-0.5270420672869636,1.7889314582401687,10.000677342961954,18.428596633881906,1.5120588757416764,0.31059122195352573,-0.6302353632300779
18.720728568194662,47.23616208229209,0.46631590696813596,-82.6356852429943,-0.21508880182615814,131.99681080207645,64.2806226003149,-10.31089051109346,16.47231483546969,-8.423183116078539,-9.765202530239742,-0.7829088392599287,-1.4988271742761567,-0.32366287820958617,3.1104548439143316,14.471547619981335,23.549361209014787,1.638084124333065,0.4192918131676668,-0.40688489084032775
17.141211145847706,46.57198311054069,0.602329805277668,-84.79758490127396,-0.1946117327102266,133.3092137800316,62.549201469651734,-9.01987452261839,12.39395254964286,-7.463367716561408,-7.285493521188112,-0.6516872239708698,-0.8700487877352739,-0.19512394922476406,2.5385990691606075,12.128138180003711,14.830985079699282,1.3095457683296512,0.6015373514969734,-0.17411884655188267
15.097379197711797,46.17257815454366,0.5343723857135881,-87.0829218138858,-0.19469133954551188,134.3876398624988,60.657277826413015,-9.023170559757505,9.343470189974258,-7.887685930893649,-4.814519655896629,-0.5425441038101435,-0.04064706870551366,-0.09648860629917388,4.182338668251628,12.238227210496275,15.12298106673453,1.2504470770569152,0.8007292165296556,-0.12263657081906006
13.157979977109402,45.32759908808158,0.559854242434714,-88.92726373394869,-0.1946656506843563,135.2549741795716,58.66818051576663,-9.002304839115839,7.902364098738502,-7.746099344503035,-3.7200883349681395,-0.48176146192041697,0.35170349976869253,-0.060489414783322905,5.405702864781635,12.355418199240836,13.749446901783063,1.3479640850797414,1.0247487425500479,0.006667734331522748
11.075640978440859,44.59983672450846,0.5621065033903366,-90.57924306477636,-0.1951470526484565,135.9394130453252,56.517986575063055,-9.283686240921242,7.57734792609192,-8.141589398403132,-3.186507069540103,-0.3734257327149777,0.6703556768959285,0.16373951980672474,6.096430338946147,13.136465188451716,14.054803887536831,1.4601262204229137,1.1972592669044595,0.16611594599042737
9.082254794706152,43.749798675459004,0.5972482441997562,-91.86372298729533,-0.1961068739103758,136.3675243185832,54.33870289219188,-8.303177850988664,5.836398099393281,-7.042364694034805,-2.3833294642410916,0.0948417021755624,1.0091446567990199,0.6121731338551403,2.8798474149217648,10.76892578983027,11.428632035463533,1.3017845496052156,1.5695092365514074,0.5361658785520858
6.846799836001637,43.11216589403231,0.417028848995555,-92.89249692866835,-0.20578927332571015,136.60838569239658,52.074460022399094,-5.770096675908022,4.422979803710777,-4.963996550204018,-2.1311811903517435,0.5379511219619684,0.9296007303913857,0.9382344097363885,-3.320680846369692,6.351892134471577,5.493674546152759,0.9211504411388102,2.0706236771545923,1.0968317534188718
4.665923197027502,42.63791429482768,0.13754206935017582,-93.65917884832312,-0.208114677543719,136.62951420850658,50.06828532777275,-1.7798948375896577,0.560918387664842,-1.2191086205989305,-1.004857681753316,0.815906102947897,0.7644929973268151,0.74386061979334,-5.300672112298132,-0.16206315844010516,-0.27369173243743156,0.34739006144313234,1.6872475106145965,0.34727905679201043
2.8071263102477473,41.98016742866297,-0.03384333186437149,-94.2215831946306,-0.20245389454804938,136.45951138173427,48.648751596910465,-0.1920215054137246,-0.7577820005727891,0.021847045368439524,-0.5654247503029629,0.3790645698680274,0.2909367633650444,0.05421311915889546,-5.597986541361622,-0.2695260777563783,-1.3059828529933237,0.3733612205383411,1.0843296956917503,0.008091732917089842
1.4150056007081067,41.143842161466104,-0.04057390269399291,-94.45565717158952,-0.2023249250631076,136.04154628492554,47.26574089405837,0.5193515744354603,-0.7615895915054187,0.6420105203305877,-0.6568114570752708,0.344776616855028,0.00803716985374112,-0.010415800865287072,-4.161108250944002,-0.9649709650494073,-0.6672632598169388,0.27651375226798325,0.8847284547525291,0.05929627806545534
0.31842943963166737,40.34874341008794,-0.04968085028395106,-94.67753460964971,-0.20234279582886416,135.42074218711713,46.066534417494324,0.11527971910991722,-0.47722679648235794,0.35316440952374956,-0.2759613673457007,0.3775197034626058,0.23223874094551145,0.05596138879533792,-3.5186995648918407,-0.1812033951635252,-1.1784782160996823,0.43076849544423457,0.9553996485213256,0.08056464746719225
-0.09612586288508516,39.92732877526868,-0.04695131362865057,-94.73861699483524,-0.2023430298556438,135.0229695281193,45.55762305834302,0.08314407107624819,-0.6809308804997729,0.3125159381159129,-0.19574207724845327,0.3896133599264771,0.3091357059155534,0.09532997447325184,-3.1942517956724776,-0.057297242667029416,-0.05144694956517601,0.42984857936742016,1.0326797019043372,0.1142826169637686
-0.8186658497501813,38.66448755201176,-0.02936887445816552,-94.80249936091437,-0.20259857968609257,133.84197179634893,44.55573840003257,-0.21773988269013392,-0.301243375038194,0.1619355593373283,-0.2572243178871348,0.4018420100487161,0.4349165977294288,0.13107839795404017,-3.0960791927880207,0.08923193300286672,0.15532783363488056,0.47917729889533545,1.1036323465177658,0.118337485418957
-0.8849520581971876,38.20375180714116,-0.025514188841883473,-94.80409022290996,-0.2023929321389634,133.45099237377926,44.42934836508169,0.0013411769151868054,0.29649674938533227,0.24603982937697733,-0.513774978270639,0.3803050514336945,0.40453103040894917,0.06328015484485945,-2.0408982332861294,-0.4274999092634568,1.1719212457554058,0.21310628363646145,0.9915862042636421,0.17192415607083017
-0.8210929312146636,37.38606341953064,-0.014093042176983563,-94.80870397603233,-0.20228505024043572,132.59556214087038,44.39542642799823,0.3844557680839005,0.2893800853879734,0.23051903303554416,-0.37898449556296043,0.3386680650228399,0.47285025561612914,0.32979017424650614,-2.0862108372254347,-1.0207488554028643,1.287633814065749,-0.10973523127529014,1.0260623084913176,0.3695146542132828
-0.3596980580047076,36.610763058963556,-0.015425516317324346,-94.80851566492845,-0.2023178653558821,131.81768381522673,44.57317343997424,1.0618455839797267,-0.04447472646117927,0.621515662740409,-0.33873547552241523,0.3012244153573172,0.37989172511199537,0.3191262076076336,-2.630856297053096,-1.9416863088120901,0.6107162171201099,-0.35516857882475344,0.9870796406555543,0.38781079826781223
0.4569397673689828,35.935158720009795,-0.016784403185459956,-94.78739894639743,-0.20192561143451834,131.05059748684323,45.2087947166034,1.247436382071334,-0.3151056525861954,0.7762255584137158,0.126674343206816,0.26109161139744164,0.2804702256818544,0.3249637941757254,-0.8939068993177214,-2.2027979166462077,-0.034801771340090756,-0.4196431105765787,0.46477763774199377,0.38694638061924164
1.6461887096565242,35.31611140473681,-0.014980778183065842,-94.62314851685606,-0.20207021115229612,130.26789699103426,46.21929532477758,0.7108761599901452,-0.08375373062868666,0.37357170671115597,0.28219180239579356,0.20526995855672872,0.23322587428056152,0.27849253452693246,0.6400484029639764,-1.398487911788389,0.21668941416531248,-0.2932879144038974,0.117573528807312,0.32550103038313843
3.1399776768852274,34.93932887267073,-0.00188781624610002,-94.31219807930398,-0.2017284529087977,129.55729589113108,47.63326050465122,0.8599853927643046,-0.016278869700692006,0.5149596496154708,0.49444801121960835,0.14541110159114043,0.21197272205288584,0.22871960804512442,1.9150379045805388,-1.6417332410695302,0.2146882882535048,-0.3405405583648597,-0.17207741126912326,0.26836996568633675
4.8602788107682,34.73631203233008,0.007940175896220564,-93.81357134270309,-0.20179940327185278,128.8638463005015,49.27378508931766,1.0532037805035903,0.1484091285818506,0.6464299513566962,0.28180611580852205,0.09644727618162569,0.08527929979103237,0.27601190281289606,1.529074267658654,-2.022528219529609,0.2819119820625216,-0.4834100015018826,-0.2060946022025994,0.31056255915489667
6.798730013221135,34.7325678818664,0.042937768212747945,-93.0131634279579,-0.20208474402130697,128.1371929873346,51.07689421037074,0.4061196266985894,0.7949948778057873,0.18386504547151986,0.5397432186947542,0.043785215709846045,0.22341883839043578,0.2698819012039743,4.560843113664835,-1.524723500584112,1.3721057984669132,-0.4052368909216293,-0.6023989911459708,0.28300570613258
8.828664239765846,35.01482643660683,0.05328512091570387,-91.9263511463088,-0.2022283693294817,127.47809410693297,53.058969102182495,0.17053428536442733,1.301516414043537,0.007199997537160273,0.4306627539199596,0.009328159640961165,0.15793945349273614,0.21822165603435092,5.754563039860573,-1.468935045227942,1.9940501236348167,-0.397512562150929,-0.8589617239594266,0.22687868422985277
10.87763964431772,35.67604991475827,0.053241594811205974,-90.56416457469216,-0.20286652232782426,126.81903627206414,55.106848597679445,0.8329903441867611,2.199634610712694,0.4266277028727888,-0.05657713874324827,-0.01319214682662254,0.07319500023812389,0.22266034487467753,5.611628918330137,-2.952805830826452,2.578884553801386,-0.7053817240582405,-0.8756424326623958,0.22494689918660038
12.94095584595128,36.658433147128605,0.054382845632211574,-88.89177890555158,-0.2035060023325218,126.19269007833965,57.187642468484746,0.40533809766435547,1.923279077456768,0.1252025045939999,-0.09279696611914487,-0.03107031694209642,0.0003426221391569213,0.1848515131882103,5.085287882008381,-2.8424193510231914,2.0045484397149678,-0.6895930888700531,-0.8294419179060301,0.19461423396251937
14.898223823596554,37.952012851995576,0.051188401128506596,-87.03338544717201,-0.20409270158208342,125.55651064359236,59.201980929078495,1.2910181519706043,1.9569153361492277,0.7138570304497425,-0.07940029849694466,-0.036782125208782886,-0.0014139527092557238,0.14382226870977366,4.514420605109688,-2.243503309356696,1.9920015643165256,-0.6172330733762601,-0.7293805126339602,0.17577672100194325
16.752758336008743,39.450823626921796,0.054163498805939535,-85.0129893160803,-0.20405715899821125,124.97737934430528,61.11668254503264,0.8082620443052507,1.3317357833387964,0.2953462141873914,0.3914443944623133,-0.07111191096338196,0.1421453134434078,0.14204727545206486,5.658725118913049,-3.4093650880846154,1.2266630586634835,-0.8326768582068276,-0.9040900398853781,0.17394805454295356
18.404532543510403,41.14209602195312,0.051087180728558196,-82.87314045840871,-0.20463663759335027,124.49101726948453,62.86920276451785,1.1234179006388014,1.3606299729747395,0.4978308769431748,0.29255109898003856,-0.08120258079799249,0.06993286155210715,0.1120628276021494,5.2667237590196345,-3.989094365458046,0.7029072840735027,-0.9552576752306613,-0.9243062954710355,0.15731524078945985
19.143991769080916,42.00170826186883,0.04884630632976095,-81.84710690524265,-0.20465461582419564,124.29723118808184,63.641341409171055,1.4953979630463163,1.2727432403948744,0.7470281041371817,0.4858300311426642,-0.07282807063187915,0.01076572030340319,0.113869135608753,6.037859387243558,-4.480514677706561,1.0888411472325563,-1.0550489130022593,-1.1360844839153694,0.14201214238699772
20.95047281851183,44.5119728510502,0.02176952486972769,-78.9228000465235,-0.20542058136156008,123.87365598485425,65.65753369187455,1.6721858228967423,0.6723655600020163,0.8287102080571541,0.836003232639366,-0.043229429964445315,-0.005810629235578959,0.10867511094362452,7.974801442844014,-5.695028598083969,2.225286502907973,-1.3113265071569493,-1.464210777465717,0.19356414591374288
21.843331149025527,46.05607168730907,0.019504108680184814,-77.36619943523208,-0.2055957107954215,123.82187851142717,66.63481446504373,1.6119293379117563,1.0769831200954136,0.773241545652857,0.6908304784543984,-0.033590811785314194,-0.030868434503878196,0.1464514613439088,7.346210337961353,-5.672092325173456,2.2388143025143905,-1.2375992529578246,-1.1843992701812274,0.19926120113194593
22.413029668948912,47.38257131274322,0.017023607297820712,-76.24703903787743,-0.20588998697469588,123.90026392756063,67.34011113846059,1.8277233291803923,1.0366363074073557,0.900788918081972,0.6934552756452323,-0.008386985734370328,0.29965137687226073,0.15797669351906304,6.213138997605519,-5.522837687319834,2.3554530453508056,-1.0674114879101106,-0.6920183643393122,0.2422582416945827
22.58192767913273,47.94766067189673,0.015340213905706581,-75.9451176654959,-0.20631638937653293,124.06919943780173,67.55493438570598,2.039400057834164,1.4091276594621915,1.0245767816536824,0.5123007103971099,0.02768367749837124,0.3753515799299309,0.19509110507690294,6.128126330886007,-5.666539587043339,3.1239421611755875,-1.0810880668032754,-0.6799763345365862,0.2833664885234968
22.68559022816526,48.80098387686129,-0.012039576860179778,-75.649697778519,-0.20657246116077313,124.70245190102312,67.77534332753316,1.72483310350953,1.622240307668159,1.0197887520480284,-0.09266092526077949,0.05056098191936655,0.3147009424154136,0.18946504529725836,3.145140958797165,-4.083811105720712,3.019617288327216,-0.6530963620312994,-0.11890650285596888,0.22301933357186726
22.5706926037153,49.2852501215707,-0.016993253290395624,-75.94656850865454,-0.20671524161106772,125.61953527987929,67.78409139981363,1.0537924074661067,1.5309307658481441,0.8173150031503394,-0.658293539445978,0.06059051918397366,0.3266866303761676,-0.17632767441907002,-0.23326222475764297,-1.1756880097049511,2.843014505082641,0.18426097051784623,0.4935031563702843,-0.15974244312400537
22.110536507636397,49.522111779356315,-0.015400145899929307,-76.90578735163287,-0.2066488182353101,126.75167110685757,67.61937592727077,0.7849868473775662,1.751794249859407,0.7695596670745622,-1.0472393860644666,0.0772198776241587,0.2340191070301803,-0.17886533060603993,-1.4959531888260194,-0.2836124826689095,2.996398337946666,0.4116716237454431,0.659073743764958,-0.18345793568636865
21.303204347072274,49.50995520695059,-0.015185470259295605,-78.35773241198085,-0.2068243844671281,128.08532804697012,67.01994774688576,0.37300388365699116,0.8491498766311139,0.5036050759169772,-0.9239256487309393,0.10862940621673828,0.2324954623154527,-0.1927013342314973,-3.4354751371156085,1.0833490614706744,1.4826028437348355,0.6619793431975528,0.9414280387817204,-0.19590518911116306
20.18396344170279,49.225665826279446,-0.01578059853237649,-80.19940540104415,-0.20672784453436951,129.52259798375536,66.06499841598799,0.5974773751833558,0.05348506185493826,0.649915874766338,-0.7073615266557243,0.12124369319323657,0.2695764252799632,-0.1615288654696968,-4.805226838281072,1.1458703169082605,0.1901460126715282,0.6506444910505941,1.1638492759681422,-0.15837950588138838
18.812406967103488,48.692465039986736,-0.017557493541584653,-82.22751867243423,-0.2066712194531054,130.98675850574088,64.7848651438411,0.5248822079176692,0.0012890638190690316,0.5779277350719002,-0.7532539834109298,0.14366212614435503,0.2740979483394337,-0.13403113545650383,-5.080882888420801,1.1784527062979067,0.05476584432444672,0.6419320682438321,1.2279893715862786,-0.12394760156718045
17.187271058971486,47.97057399131353,-0.017650597298037602,-84.35817734953986,-0.20672676739194085,132.41992249780162,63.2451846158278,0.7868586105536719,-0.13318849000514194,0.7084574505988107,-0.5823659234964379,0.159837193832806,0.32747029106211084,-0.11328061951423007,-4.80241179563983,1.0678000863105384,0.3838608346808611,0.6640627325585909,1.2644940450064677,-0.10397632293610377
15.379947089684636,47.19553689837941,-0.017322609192401976,-86.42718460265274,-0.20658933407201904,133.68195215319045,61.51444989302445,0.7470553347612922,-0.2136720574584494,0.7182209720121995,-0.4841912413792622,0.19338821386006755,0.46289348700142835,-0.09890928024565208,-4.574519500735473,0.33592266995283704,0.012009198069129213,0.5269999068471197,1.3168213072721413,-0.07024277849970557
13.432437104489694,46.36528406813811,-0.020513785663070393,-88.34975917771634,-0.20615052966885491,134.78342496757634,59.60997637899394,0.2391024988520192,0.24259065329914528,0.35527647110617244,-0.8304442017065322,0.2058581441136574,0.3948080357393515,-0.0867065637141734,-4.986060271107675,1.2901774963366988,-0.73232873074181,0.7006792163459357,1.385475086942919,-0.06176603591158116
11.393456315147239,45.52656111305432,-0.024747075030484286,-90.0203918948334,-0.20564454632340118,135.66514538957063,57.59539457093623,0.5066357598190355,-0.0820779521368473,0.5497397663848338,-0.747876743317806,0.23198659593758328,0.416377227292997,-0.05481719280485639,-4.5258153619953925,1.3028611582483685,0.3665783257568372,0.7129020503375898,1.3918168244796205,-0.04052477403715284
9.329460528312444,44.67709005650819,-0.023326859197186627,-91.44754133319918,-0.20463280562337577,136.25785419381018,55.51112063674272,-0.32626051750471186,-0.3453979818357513,-0.03382698314279106,-0.5624403090405098,0.2512484592574415,0.49283367982688725,-0.015479407848217512,-4.9224843954912725,0.3380700264220527,0.14938165784259053,0.48112033603411775,1.456415057683639,0.017720807194956726
7.2987443276252,43.87660593558266,-0.02405923056444086,-92.54657841069364,-0.20371761391785106,136.64670642848503,53.42855795518265,-0.3053869209666335,0.3132045102978593,0.0018973381313051577,-1.226800635542378,0.28769296607282946,0.2943747892715099,0.02147807277534433,-5.906659970739947,1.1233188526442448,0.07046412995881352,0.6231622329372353,1.5834153167653988,0.0339990319789991
5.362016195261398,43.02652920202553,-0.024880249470498536,-93.39849027215095,-0.2028174077698825,136.7176126871174,51.430615026070335,0.2888523965092936,0.13980469268560897,0.367346014726089,-0.8447396541397478,0.2665293611993142,0.40452609831751984,0.01112590673334409,-5.037526789361858,0.7496790348457631,-0.2667888764844617,0.4991691824940444,1.2529761236986148,0.02065668885361993
3.6032951837484215,42.28681023925232,-0.02648342121419876,-93.97233908674893,-0.20251986167126906,136.65580386757898,49.603807583087175,0.14626454143273954,0.2069965304140578,0.27062607710636105,-1.0744503070300515,0.27869770836305985,0.04163040539831861,0.02166601449257647,-4.964403594181692,0.16349137942580436,0.02923082077728853,0.36325701528675175,1.0623270218620535,0.04389886296281818
2.812442852279985,41.88804995770214,-0.023774011233603703,-94.19987340313436,-0.20215393847836577,136.52182340510845,48.766157374055396,-0.1215869225293759,-0.17726374408174098,0.0793156066495086,-0.7046422180646303,0.26957217379872334,0.01923796516319352,0.004695138484040834,-4.060740687409766,0.38846078632281456,-0.5421308033364062,0.4023270540453117,0.8091653018342178,0.017946850309052038
0.8191098015362129,40.735342433812534,-0.027289927717424643,-94.5967765666791,-0.20188622880347654,135.74766973611264,46.63513394111475,0.20233057802266258,-0.3759571204641394,0.3340481976401205,-0.5626852136980366,0.2640200287772184,0.03583375431211683,-0.0015555647727740272,-3.9455717866504707,-0.1687924734160545,-0.7950621248170354,0.3104749569008101,0.7860881724560999,0.015301740448193062
0.3169860848693149,40.324891203491845,-0.02620751916939261,-94.668643329876,-0.20188547492790268,135.42917876221244,46.07383511834842,0.0979854533878922,-0.8422689737828722,0.2992824907220766,-0.25045961654423216,0.28242426237956414,0.1733414318916385,-0.026477413872214035,-3.9783676445103113,-0.055554776992444,-1.2932488458131732,0.3876656148009045,0.8925827930816971,-0.01596934945994991
-0.7116970460063073,39.14398553088077,-0.02975138605537323,-94.80047445368285,-0.2019920125121996,134.26203600331186,44.84802880917474,0.374266262227996,-0.8571204073295898,0.5349795801005724,-0.23576757601265166,0.2853749284826149,0.24755443315090378,-0.029192798143562654,-4.12180254130518,-0.5052514102197476,-1.1441503671900652,0.3277468088108251,1.015227122709221,-0.01874595107931035
-0.8673226821629786,38.699888711906304,-0.030015691499626483,-94.81379279156408,-0.20190897076690564,133.83917365134218,44.6276384004745,0.6004460202687981,-1.6253571005172323,0.7456254498835141,0.37556750135402184,0.29620433483553377,0.4683229026468115,-0.07229027172324538,-3.7139053573603973,-0.7864989174819275,-1.9950080864952222,0.33343023729191446,1.078400187056211,-0.060757415442723964
-0.9564484573480775,38.04006662281836,-0.0692264919557814,-94.9064869800851,-0.20255794532556662,132.98378299622183,44.49084377420708,3.865629365527071,-6.748879471264465,3.7062278577619128,2.826345601730671,0.440005333192008,0.7555228385256585,-0.033141301201917564,-6.605499914401926,-5.628824131644859,-10.051206242483833,-0.10864112735758884,1.2703504308225133,-0.032313722313804694
-0.9624563090098759,37.73125949632243,-0.31105226794689933,-95.10373803433569,-0.20518284013314514,132.11974010067476,44.51177948160074,5.66751985618241,-13.718000269410503,5.075424346683915,6.168446991263399,0.6544461411535639,1.091868143829202,0.2138157189602002,-10.74963464186848,-8.545150415555437,-21.026694966114132,-0.5633433220984815,1.510529582691008,0.25201978062365493
-0.3767911179009654,37.42912334961846,-0.3596742551139219,-95.28707426989268,-0.20613272996617735,131.24736103338708,44.923582459895606,7.922528843433295,-18.82001918324829,6.796998073249412,9.022446237562281,0.7483383536906798,1.6064245702631659,0.14975974151186644,-12.781148081304917,-11.530271213663468,-28.542385236343048,-0.9741860942836682,1.7755785871646426,0.2417323988777197
0.4989476193966368,37.07894387839583,-0.4610640776465791,-95.37038744801163,-0.20999292085585713,130.36636940829194,45.763832080741246,9.891554946326664,-24.351451385208765,8.543201247985143,11.802159005426514,0.9509864266702612,1.975863176002964,0.16005975678598755,-16.507165972856843,-14.055652280359178,-36.909870458167745,-1.1186456786796897,2.1569422794330917,0.25977128549522305
1.6919141826680733,36.97499502581076,-0.5953766934492319,-95.3747909171747,-0.21297827904012753,129.56832163080787,47.03665246853214,11.434060510815318,-26.30992835237567,9.942810690361082,13.672625066774893,1.0233827306572985,2.0905801317324593,-0.040063705773952685,-14.120285502196344,-15.689547365216955,-40.012728375597995,-1.1500423445587329,1.4330570344745646,0.061425552498395986
3.1956828861952795,36.83302390326806,-0.6708953414564832,-95.0491212617383,-0.2134847317922002,128.84861076275214,48.621904185969484,12.267539784708136,-27.341163001043245,10.661404320304095,14.351479760144064,1.0110147016800373,2.1011701458885486,-0.13811060226524527,-12.685430937818401,-16.74084470977759,-38.8013966962214,-1.2882923731189297,1.0899925479433668,-0.07335151434211003
4.960781192066494,36.70888178018079,-0.7085733031468345,-94.41682535791719,-0.25630875268502507,128.1029347756728,50.40490671446238,14.112870096976852,-28.511320848567582,12.146558888217523,15.807609745212861,0.9956016703667111,2.430826127933487,-0.18012634691068735,-12.721141542222421,-18.58754254454061,-42.97421224184734,-1.5937331477125105,1.0582305858208192,-0.0875190480177715
6.804771033787201,37.01386436519381,-0.8176120112535891,-93.63834052526053,-0.29329626843633605,127.37407718263165,52.36155089352517,14.891868884252876,-30.485844147424363,12.972736563152885,16.683494799882503,1.0877731323234667,2.472139848442914,-0.23009397860067846,-15.822744248461325,-19.781062840516416,-45.84876993165222,-1.6953765681927135,1.2155569617926187,-0.13358825839521155
8.751871158719922,37.45609586462811,-0.9122086474272539,-92.3700322010613,-0.3051500313133684,126.76326683784997,54.413570741746526,16.797950448325647,-28.312682576699828,14.287325423850909,14.835409317761568,1.0896204996679235,1.9204122932285792,-0.2952203411439446,-16.486088347133453,-19.610334233322746,-41.082585289604445,-1.6754837200590575,1.5611481205016156,-0.24491114597933034
10.825593402206312,38.1526355936258,-0.9184759956233672,-90.79666629867928,-0.30556405149422533,126.03631440829209,56.49784419808398,16.254830777348104,-26.437360399371485,13.670153193956224,14.623822519221841,1.0052840468066393,2.4787831438935783,-0.2818596956335197,-15.090591740381932,-20.032726737928574,-38.30216549546488,-1.7639707903528616,1.8044342484865454,-0.20700809199201117
12.8639640080334,39.32313491073169,-0.910308119355867,-89.04465845527835,-0.30756764379807056,125.32994008314365,58.518713753486864,16.251721370198702,-27.606799159559596,13.595059560667679,15.62617378400636,1.0025174556047565,2.915433908761982,-0.26835909097983207,-14.80321811799587,-19.700257269199014,-39.571827196683635,-1.7687325523765869,1.7415578454893659,-0.23571543798761785
