BIOROB-Lab-192/Bilateral-Teleoperation-TouchHaptic-FR3/Simulation/Bilateral Impedance Control/Data Collected/PickAndPlace_EMG_HighStiff_UserFollow.csv
q1(deg),q2(deg),q3(deg),q4(deg),q5(deg),q6(deg),q7(deg),tau_1 (Nm),tau_2 (Nm),tau_3 (Nm),tau_4 (Nm),tau_5(Nm),tau_6(Nm),tau_7(Nm),Fx (N),Fy (N),Fz (N),tau_x (Nm),tau_y (Nm),tau_z (Nm)
-0.9307640827354182,38.08548287575572,0.027339852204624246,-94.85352088621867,-0.10269837333135065,133.30659191506786,44.254301385389056,0.1164900807852525,1.0218763917007856,0.3672680444692447,-0.3045105440558746,0.09370426556997966,0.17346577027356022,-0.12314920938548221,0.6746838771507023,-0.04545410390030857,1.9521865157637632,0.3101599621355381,0.1981221348748821,-0.1464934713792352
-0.9310493308012953,38.08495803158923,0.027076119682844207,-94.85272263892772,-0.10278519474281426,133.30637611009644,44.25398247890199,0.18504767941401695,0.9758570224653219,0.41960402467522556,-0.3325419779960371,0.0932043842220627,0.16558805556771047,-0.12578799848332706,0.4521467653370901,-0.05321261541567493,1.9903869647989636,0.3100554068503873,0.23553985608907924,-0.14864530338301113
-0.9311108781458997,38.08456494022287,0.027443667921630038,-94.85171314594227,-0.10274177475362405,133.30686842722554,44.253899747473625,0.11643949104601695,1.07119974549336,0.3672926944126579,-0.48663004412889704,0.09476612671470784,0.13343213198692686,-0.12503461509218786,0.5170879243991461,-0.07198996770203175,2.0247912462157847,0.30392880168616443,0.20727943047747271,-0.14535545562888946
-0.9305937363404871,38.084662557714665,0.027589098517145243,-94.85171151432107,-0.10280960044522,133.30684534663365,44.25430732765712,0.1433924634899919,1.0707210282942863,0.3785516616727612,-0.47797762357792334,0.09304503677000606,0.13450667791543017,-0.12176945851144438,0.43700823643782954,0.033975773383182944,2.0624607365999124,0.31595870635631246,0.2296681681188401,-0.1449020408665406
-0.9308055981978409,38.08438053484011,0.027526014567036614,-94.85193263957417,-0.10269158846142527,133.30677541349834,44.253799640357286,0.09565565641633945,1.1590801834821924,0.3422210370276916,-0.49544645839025503,0.0940477326216763,0.13245075072340404,-0.1258398808988104,0.7077479090910928,0.0787757020853427,2.1453504544425703,0.32630639949733736,0.18139578858706526,-0.14354827296088388
-0.9302018090126669,38.08371671696385,0.02793027297232994,-94.85207385024425,-0.10269837264242404,133.30684526335133,44.25384979290292,0.027861139548511483,1.1749215545356098,0.2863127343925934,-0.43080723361594836,0.09185859213146948,0.13677716616609092,-0.12285710518121386,0.934528902825002,-0.012148860466461298,2.219511327040217,0.30440795934078746,0.13995367704107256,-0.1438527363837726
-0.9313132035088013,38.08405584349433,0.027118530549332737,-94.85171890084892,-0.10255865044831547,133.30695246831374,44.25409756496149,0.16839368284729472,1.1887746529997216,0.40016663828150467,-0.4679027870557534,0.09136853802023719,0.13305598686335593,-0.13022504527981119,0.717797473691965,-0.06600564359540814,2.220015875593965,0.3041093558691514,0.1816030524738365,-0.15092301855146478
-0.9318621950183348,38.08447814263195,0.026537400289775706,-94.85278308315883,-0.10288139296420436,133.30677541349692,44.25416616654709,0.22008903724743265,1.1023331378662544,0.45806374442590747,-0.3741983620686532,0.08974764155101568,0.14002240591019316,-0.13063888832892503,1.1081052593735596,-0.0746292523313507,2.1452085485393395,0.3077088599767655,0.10055698007789945,-0.14998738742374826
-0.9310564998764469,38.08416693206509,0.027278817394544127,-94.85229388653406,-0.10274178095488479,133.30688798716855,44.254073132295346,0.13983182529845972,1.1499827440238704,0.379770468754081,-0.3744424331330569,0.08855739998609666,0.13738776925809595,-0.12654771478191212,1.0669315517685394,-0.02644801458608234,2.166657135369915,0.3073280618897236,0.10771920777944276,-0.14881262741526627
-0.931482655475632,38.08395483484491,0.02683621129369497,-94.85136355984247,-0.10276756956662843,133.3068251090361,44.25392775620102,0.17282178951030502,1.1500465666665143,0.4166888363282807,-0.5060990981886525,0.09118379930929138,0.12883680678494974,-0.12595499846186328,0.42649514135346517,-0.08561489064942374,2.1445485895193688,0.30617291440526345,0.23211878165373837,-0.14940937993623615
-0.9315424767916946,38.08428597455825,0.02673424608216055,-94.85168009191807,-0.10249492021927813,133.3071164728291,44.25441246939126,0.14013087701167476,1.1177694540451952,0.383993249492303,-0.49774903081675953,0.08949190647368699,0.12959625876272107,-0.12439890892310719,0.37493104867817334,-0.0405221969026357,2.0912529008270475,0.3067691799822216,0.23892031254486054,-0.14743921162865603
-0.9310529246085889,38.08416737346229,0.027457375692185013,-94.85117316144228,-0.10267326853517723,133.3068706974387,44.25434454800364,0.19588418944045224,1.1449095706811694,0.42501838321500407,-0.5395168529138937,0.08696330551673914,0.12486928443860094,-0.12950241372495944,0.2535571410621366,-0.11465544609034278,2.1271764947519967,0.29399660539143924,0.26292443794750614,-0.15115155618387105
-0.9309842663693401,38.084476652920834,0.027342758415491962,-94.851615743492,-0.10262783549235566,133.3070708165669,44.25413662090795,0.10996489753259651,1.1158333760481138,0.3502419803405503,-0.4601586199403178,0.08938329115020316,0.13012561508056258,-0.12680427337632805,0.5560374817896744,0.011208856035236497,2.0911906138591285,0.3103815292178819,0.20124028538169803,-0.148226964058086
-0.9304339576243953,38.084507519287136,0.027747250120446137,-94.8521130760349,-0.10268074847861255,133.30686843664367,44.25398068871741,0.028794910209678875,1.073818418094115,0.29221369431958677,-0.42954774542401947,0.09129041294878712,0.13240719037505042,-0.12919892528799803,0.5841906980832551,0.13176255175634144,2.0251748397837517,0.336294592426486,0.19179888682942736,-0.1523322271621294
-0.9303593652774285,38.08438457865818,0.027645029592879858,-94.85190445642345,-0.10274178409455025,133.30682580648315,44.25393906913063,0.13347240665635618,1.1332758001993066,0.37064034699845494,-0.5322244950968665,0.09016042613853685,0.12306252746205328,-0.12793185412781843,0.25990401262793467,-0.0253779029644578,2.1048919705860523,0.3069130547050386,0.2577452036663252,-0.14914389152575208
-0.9310171346038811,38.084598864545704,0.027629791542657912,-94.85191903287088,-0.1026549626194743,133.30695785001188,44.25426904202598,0.07722615452912149,1.0424746770825322,0.3292893812374384,-0.46146637099478993,0.09322463946214105,0.1167184319730625,-0.12441613736547845,0.371276570692598,0.051981940973825025,1.9437584140123645,0.3219186914524746,0.21377058595840226,-0.14680817137612254
-0.9305936398312228,38.08487498288265,0.027747150624058966,-94.85180669339488,-0.10265496257271667,133.30726433966888,44.25386406284574,0.11521775494667083,1.059586994256779,0.3607482698727233,-0.48549997085860447,0.09089765287906565,0.11821237996717478,-0.12486923559818164,0.2965905968517117,-0.003909167515241785,1.9739130802229912,0.31211574864515346,0.23365958956290522,-0.14733007784250815
-0.9309241203681266,38.084395377598554,0.027227055510050283,-94.85125785863544,-0.10277916318861066,133.30721040345242,44.253822400495366,0.15410627298197152,1.0554042547699334,0.395258315053368,-0.5378184212818172,0.09153103240643715,0.11576407058356891,-0.12605995940421877,0.08737227032619631,-0.026372861820035426,2.0030942164432224,0.3068193428997588,0.27367818046814085,-0.1471775387458201
-0.9306896737812415,38.08500744107688,0.027866500091659422,-94.85209502834911,-0.10269837333198083,133.30693312581113,44.253900241343885,0.10401240200188099,1.037023212719623,0.3379525084365158,-0.44588619002226604,0.0910595922003168,0.11829005032264178,-0.1260717101560833,0.41833396002889545,0.12310575879441649,1.8848821541779797,0.3322135121238221,0.19929871191537282,-0.1498556225096783
-0.9306715971983508,38.08466254938654,0.02764502959291486,-94.85152285309789,-0.10274178508986745,133.30699608267025,44.25397614509983,0.1165823473936026,1.0681853518651812,0.3571360690023198,-0.4823657145381821,0.08973055499323973,0.11267039516796687,-0.12720050619441248,0.3215205841730234,0.12843030539674233,1.9418827537713814,0.33090067773358955,0.22499776556945103,-0.1487377528946982
-0.9308404113526568,38.08438457519817,0.027525866411882004,-94.85127404656536,-0.10259389980959072,133.30730626435175,44.25395445617403,0.12345204965529279,1.1115169448088427,0.36071063869718606,-0.51896699281855,0.08968683792652632,0.11216463519100943,-0.12997413979601755,0.2947234263288284,-0.0045285428543752615,2.0272451434094454,0.3086451501984618,0.23565616653516733,-0.15010363702200394
-0.9307094623742108,38.08459261693221,0.027640508311035896,-94.85153466865015,-0.10265493573182194,133.3072651303115,44.25416161808061,0.12696107715501884,1.1200610203830268,0.3713296515978913,-0.5071690415924641,0.09023400874086775,0.11233053087064235,-0.1287125005740195,0.4624021958379906,0.011712219281711012,1.9667786777684977,0.3181298494387478,0.19999237161090822,-0.14950569106934905
-0.9306911804118863,38.084491828921415,0.027525866411882004,-94.85173977734179,-0.10280281850178488,133.3072078850154,44.254130044007056,0.1129470878869436,1.06265234264755,0.36133999344452017,-0.4687172480406666,0.09066796967760626,0.11750077344594848,-0.12845096383626997,0.42187104162205324,0.025570901716516964,1.9747560946283615,0.32022364295584005,0.20476811951330753,-0.15178613455568457
-0.9307319141860998,38.08447819892556,0.02752534522323626,-94.85149542812894,-0.10276487738152945,133.3072628816173,44.25426570650017,0.13400262985309713,1.043172261916273,0.3840487900363666,-0.46378025296050657,0.09130422231494281,0.1178850085190067,-0.12624800078418852,0.4617442013936603,0.0015111383124638278,2.060465469719409,0.3161470244611687,0.2044979104993108,-0.15197240607885368
-0.9311834657534305,38.084172038311735,0.027281309393573747,-94.85113869835153,-0.10269614061134985,133.3071846846267,44.25431148823817,0.1636194507516634,1.1123734843076012,0.39535846501751315,-0.5080661806272261,0.08884583976157936,0.11366995792287371,-0.1267781165799593,0.24366827357193432,-0.03027216697624971,2.024979246934249,0.3126761808327872,0.24373466073086109,-0.15291907685046707
-0.930623139643545,38.084271847068,0.027377823390782485,-94.85130901768117,-0.10274179332068448,133.3072516290132,44.25399906981485,0.13748754737386135,1.0906936982139508,0.3748117871477628,-0.47241491082480397,0.08848888624918234,0.11319752516057896,-0.127427664503649,0.050703924838011,-0.09118669708947044,1.98211032100943,0.2991901062793032,0.26695055662637346,-0.15062637771609572
-0.9312700520620285,38.08487346263389,0.027057514335455248,-94.85085062473935,-0.10254970835095409,133.3075526782894,44.25406880195674,0.11918225039829444,1.1155898666399053,0.3818102017339034,-0.5966918254188017,0.08920491881849274,0.07291508495224373,-0.1278017346154022,-0.0035230874252438257,-0.01305842123031406,1.9881317703366115,0.32225813403589026,0.25291605315646115,-0.15350928858322546
-0.9316641396011482,38.08455828293025,0.0269969890530081,-94.8509618465433,-0.10259392668889314,133.30772358590983,44.253921892403255,0.2107103739220006,1.0211456697427779,0.4420176123733195,-0.5384187311800746,0.08829730638595376,0.08232763939125358,-0.12906645209961065,0.003539707744869691,-0.14085165505004205,1.8457248948392333,0.2946590077690475,0.248295407250971,-0.1513181193511122
-0.9312836006795436,38.0848437504173,0.026937848809852304,-94.85072971193644,-0.10269599181765844,133.3074889302221,44.25438649854843,0.19515482620802962,0.9868572577285654,0.42879657543250227,-0.5354905737041179,0.09008041999078079,0.08395743333478654,-0.1272212095303053,-0.0823969665589091,-0.12194468863171581,1.7900452582170037,0.2975028780959218,0.26308969994092885,-0.14940326811809523
-0.9312156134844622,38.0851858655321,0.027280833776689318,-94.85123343763215,-0.10261155188176137,133.3074871370121,44.25422522338475,0.16150556470148048,0.993193763260851,0.40774129664403347,-0.4919151110732955,0.09182603280549577,0.08510765496851679,-0.12773556613604592,0.15071410916664807,-0.07003403362421909,1.805475482629812,0.3110146131922213,0.21658875445935957,-0.1510773612138713
-0.9313711772876919,38.08475220812705,0.026822647755732495,-94.85085069969188,-0.10274252815021943,133.30751097965526,44.254251771758945,0.2544948105020277,1.0110140383950168,0.47329612888928263,-0.5466611632482742,0.08997955725599965,0.08200809581048689,-0.1283033323717079,-0.06470352488146838,-0.20528034383596463,1.8273122937727053,0.2834110095060672,0.26074142705574127,-0.1491547961254209
-0.9313925639429347,38.085074086980434,0.026938351163121693,-94.85129323164591,-0.10259455168227376,133.3074526034783,44.25418477969336,0.16507435358619416,0.9901100878334769,0.41546065927409187,-0.5258671880452429,0.09078326522537056,0.08451623176152874,-0.1327500303047919,-0.026925069183376116,-0.07096262198782297,1.7971384680563651,0.315823956441895,0.25270502046191956,-0.15664467667013138
-0.931409346533234,38.08493212195774,0.027057514344119106,-94.85124520378382,-0.10296829810120604,133.30744633541875,44.25412130309368,0.21532096330742573,1.0572132933815594,0.44950947708564226,-0.5507055507894107,0.09034740545988691,0.0813367733789128,-0.12667448802970702,0.0460055004981884,-0.15106952351625444,1.9049367411327462,0.2957067558387845,0.24362182627472784,-0.1494743331019468
-0.9305559850495779,38.084777031310814,0.027564042986810294,-94.85192001813013,-0.10274882612963934,133.30754994300614,44.25406955112942,0.12167656341503767,1.0284955546269858,0.37285444371084114,-0.426490424099294,0.0914415762545046,0.08909732404918944,-0.12473831806382828,0.568769076777664,-0.010797461764587901,1.8764372836805934,0.31635910821628477,0.1387727924129135,-0.1483338238378917
-0.9317980374549365,38.0847358787613,0.02661144140951762,-94.8510718705688,-0.10274178405630485,133.30744631694733,44.25438833187783,0.1724008374757391,1.0475260028205826,0.4180368214591207,-0.5715324432666173,0.09252912285535109,0.08252341771994724,-0.12406070148064886,0.23903211386634762,-0.0433698543924233,1.8754582544783829,0.3179211954258894,0.20518897737365482,-0.15233936328867206
-0.9312705703402714,38.08424707032012,0.026836211265335225,-94.85055185287729,-0.10267777684749994,133.30747621390597,44.254161587046106,0.17241117968741432,1.0950649903857177,0.4116392235385178,-0.4308199036896738,0.08968190248701217,0.09232547812018373,-0.1256696128969171,0.7288699134386641,-0.0804990177441775,1.9951164986439116,0.30351556230448135,0.11878183623251477,-0.14852595371741617
-0.9310866574354841,38.08520841232247,0.027039250461022707,-94.85418796684884,-0.10278516375866532,133.30714164301727,44.253936097679606,0.17640175603278477,0.9779799946567863,0.4216510973345359,-0.18050475858919734,0.08631949271203761,0.11275035766967005,-0.12900257826209746,1.6089254997077616,-0.070400653149219,1.8440385004543012,0.3088502298164422,-0.05920677628516398,-0.15328679518042398
-0.9328902729270652,38.084572560374355,0.026146053601694183,-94.85061376693932,-0.10279119493436013,133.30757122483607,44.253919643706716,0.011199572289757292,1.1184561261595287,0.283435673954301,-0.4264241422587329,0.09224550087047013,0.09555502330090782,-0.1265390901404287,0.8062535395486655,0.15527435929929148,2.0409392065252008,0.3430141087519849,0.10963541775149224,-0.15096068908319432
-0.9293013712881465,38.083773835516126,0.02885553703458426,-94.85233228037492,-0.10273500228714853,133.30735869766943,44.253986976399595,-0.03189169666512446,1.1367154476632186,0.23213019122580508,-0.2772624309233873,0.090706416302814,0.10660418163765341,-0.12388525915404902,1.1076143788104018,0.18747882656427584,2.156914583025538,0.3350206090761646,0.059001870744837766,-0.1478811644522571
-0.929142756715126,38.08377377791387,0.028739088858079243,-94.85098982120145,-0.10278293419138528,133.3074047317909,44.25412709929201,-0.056459096015380295,1.2014733822823405,0.2175138110269703,-0.4901303718876116,0.09246252570363017,0.09373115390506238,-0.12363489555043401,0.44816183003971255,0.12146521915559767,2.184185632009101,0.32567613449826666,0.1929462174249315,-0.14626100571318362
-0.9296480323527394,38.08372677932166,0.02868386297166619,-94.85064997596342,-0.10275804289848146,133.3077235955817,44.25408915546647,-0.03204819700815295,1.2157589667548054,0.23411109258265753,-0.569964340876986,0.0944786176520845,0.08720083548180772,-0.11722384412007573,0.29127860983753634,0.2901692837110673,2.1890594958505467,0.35770214614302376,0.2218617262455635,-0.14793078262902096
-0.9289276527330327,38.083670405286945,0.02908426232600919,-94.85024290733274,-0.10268083185758323,133.3074478898888,44.25393382136392,-0.04676618566481896,1.2036514425560356,0.2158829566188015,-0.5737539941359675,0.09388214789846014,0.08933301595589214,-0.12046030638017305,0.7155583650613201,0.29433351557823023,2.1716399678065366,0.34787298056568644,0.1391567677543098,-0.14681490190568186
-0.9289580594031629,38.08486067255561,0.028820056755347184,-94.85199123093663,-0.10274178405629639,133.3073160739623,44.253933830186384,-0.0869013814380782,1.132414062664624,0.1845075714133181,-0.43010875337152593,0.09054499433733881,0.09582683118629598,-0.12562042352064712,0.6054172069362552,0.18843612760374742,1.8884482376084848,0.33263712765531683,0.13359383044588508,-0.15229341150518966
-0.9295348511223442,38.0850019563607,0.02846104390408994,-94.85161447893378,-0.10292491523304667,133.30735899899366,44.25423275751944,0.11102505507518373,0.99667532379193,0.35030261366031934,-0.3404511713254598,0.0818365176258388,0.09606705604317965,-0.13512706153515422,-0.1879773785299638,-0.1278299941023105,1.7772679726081324,0.30548220191578096,0.2530187022554328,-0.15000225348993826
-0.9285569900905689,38.085606421569715,0.02936480272515173,-94.85095733390007,-0.10269611270349521,133.30821959615503,44.254095397416435,-0.05516832912660759,1.0097425608258046,0.2252447192234166,-0.5498636511873172,0.09330608962741581,0.03129433707867363,-0.12326299510726137,0.987726788839057,0.40959229734957303,1.4174079581927341,0.3677842713997305,-0.026554021669568575,-0.15037593809462782
-0.9287449631853419,38.08601972174856,0.029190387423328544,-94.85290960705927,-0.10271880497205466,133.3079352632467,44.25413001714328,-0.04915388383774262,0.9250466191517771,0.21133760245150254,-0.1538492337592498,0.08237767030597987,0.06306011187806133,-0.13692470426311712,0.9436297715057227,0.2056685548227751,1.8329019137496707,0.3286003846080857,0.016411711753743476,-0.1568714140415125
-0.9296475331231334,38.08491604231879,0.028777858388783058,-94.8515502693988,-0.10256360751901716,133.30795564225846,44.254189685484555,0.08176020689217049,1.0385898173678987,0.32672967952501425,-0.28873258563941284,0.0806995238798171,0.06325033132228129,-0.14405833142659863,1.3433602578767152,0.08878491403791866,1.859640581946248,0.326393219197492,-0.051676409796125276,-0.16542003997506283
-0.930226395336005,38.0854359853239,0.028011223185538957,-94.85132996664402,-0.10240809846279154,133.3082356583396,44.2543890262775,0.31469401371400724,1.1220515991059068,0.5367761837646409,-0.7570601233923192,0.07855731756097457,0.013874569270298318,-0.1499912249185162,-0.6561729757464568,-0.2717727221943791,1.8916703610967631,0.28610057857793303,0.32293137415171624,-0.1727485618849222
-0.9309787589554711,38.08363792774933,0.02740081605577613,-94.84415706863079,-0.10269828960549002,133.30861954631018,44.254519270447744,0.02146913090974545,1.2621241071158356,0.2835222673849921,-0.7888300169251864,0.07876818229082197,0.004828863822435127,-0.14442873944620688,-0.4068994939690484,0.15031620111911376,2.114671872056624,0.3367344446191568,0.2805653406328745,-0.16769331120708478
-0.9286475088873066,38.082405456215895,0.029268747798047855,-94.84374478587202,-0.10255051285872364,133.30859712283845,44.2542047256406,-0.05337377055265148,1.3810885264871307,0.21132320718319217,-0.8385710841964951,0.08031017356765266,0.00029610874826308805,-0.1381803326478864,-0.31232996307624306,0.25250693463584745,2.3075349407533974,0.34250396475900635,0.2729015993099017,-0.16039834834566924
-0.9307794960356404,38.082504953647344,0.027487667563862787,-94.84440717000481,-0.1025871449110739,133.30892938065531,44.25420583007736,0.05324557245326409,1.4034330689870105,0.3133194691709268,-0.8382041612937075,0.07877943389843538,-0.016334809629293828,-0.14179102533353527,-0.20865969540498788,0.10201879639607611,2.3181091858323892,0.33059985133584335,0.23564794612288928,-0.165738213079012
-0.9299571038749811,38.082388493177746,0.028334682605643605,-94.84410920342229,-0.10270515494664623,133.30893388820587,44.2542940300646,-0.10060992726128762,1.3743779062369958,0.17417961392504078,-0.8440927577579665,0.08657107682769598,-0.003910567634847418,-0.13193507496818702,-0.3506682787865665,0.3114811309264517,2.2888775214029904,0.35367150575699785,0.27510320342466793,-0.1544275707750452
-0.9283552599436061,38.08279723662876,0.029486625353748356,-94.84430318641958,-0.10269167425223422,133.30879918618072,44.2544691974815,-0.15556691863049965,1.3426188457072818,0.13385492853904737,-0.7790195577159034,0.08734131873445765,0.0006363963280718529,-0.13365777925016636,0.03206468321670313,0.34051837036051424,2.3195177240368228,0.3580563038781241,0.20122635661236735,-0.15621070195174236
-0.9287569500696965,38.08358190531522,0.028514826005784106,-94.84507033240902,-0.10288846654732775,133.30867224193966,44.25463912270038,-0.08339051054786646,1.3230555628210934,0.18539250276190294,-0.6817681484475854,0.07193495845011437,-0.004715694666372772,-0.09375382963512852,0.2610174221699717,-0.02626216597921755,1.981000086265322,0.149655075719134,0.09848494303418001,-0.03423237622517899
-0.9289819239478214,38.069397477813986,0.028528232381500294,-94.84483247148471,-0.10267855986418888,133.30880365579125,44.2558192483064,-0.06999891768659197,1.0328792781945864,0.18932772210709273,-0.5748058316830267,0.006186276893651512,-0.07964567108883483,0.01401295900402314,0.547649309917102,0.1061738466396979,1.360379151126396,0.15730265584892253,-0.14847858821239113,-0.026906078295513003
-0.9282817403207596,37.94593760027349,0.028594176154307285,-94.84598273459633,-0.10269342955385188,133.2783269579234,44.25579256216575,-0.13490308256480887,0.750579711520952,0.13254750354351222,-0.5024860089292777,0.007119208821380426,-0.21137804988164885,0.025211779615868637,0.060162554359458366,0.11100392095248018,0.9030029651938347,0.15589924955438614,-0.14278163428885335,-0.021873194790391463
-0.9282708145092587,37.87670478801448,0.028699782934986262,-94.84627949137099,-0.10269795368141921,133.2257022378937,44.255908562514875,-0.15082267092265253,0.44928299187368825,0.10491698006148166,-0.42053162969937,-0.00037717095372401043,-0.29332410662632497,0.04691296026105673,-0.4588816512046167,0.0035459693351470867,0.07269364921595103,0.08041598893857974,-0.23210614263126395,0.02465825415693494
-0.9071970661796768,37.63749047428771,0.027724590682270036,-94.84561580638916,-0.10269945161672925,132.98659620303962,44.25716573886423,0.06592037968264092,0.29582257550361296,0.16332566219254327,-0.4984291305894118,-0.000693302366915389,-0.37582246790796575,0.09967483453461559,-0.8380640036164784,-0.2853098900404233,-0.1372535119504301,-0.03342604760763287,-0.211214944553963,0.07109037410276026
-0.8008556508115978,37.31971054334166,0.028166936036338727,-94.84747195260196,-0.1026839305689525,132.642727582773,44.282348278112785,0.059889300335898704,0.3711391790145731,0.05067869287426038,-0.41409386636043716,-0.01061666436547898,-0.29963899750490525,0.11157493380510947,-0.5758433244790092,-0.7111934507042295,0.18555713627903767,-0.21680526709992143,-0.24214323406617402,0.13454885849577808
-0.5920833982714935,36.880342120241636,0.02758371457511248,-94.84495330491819,-0.10273002949542213,132.26971070241186,44.44001629075616,0.18812446893636636,0.5018007856287646,0.09926397063745981,-0.4727054071623809,-0.024028364695371517,-0.33130690383555633,0.17169994737847308,-0.21749731797452249,-0.53767250496749,0.2874802591167795,-0.23329220312269455,-0.26116164256843405,0.16471798209696575
-0.21206025779540655,36.47626443667506,0.027160164940607523,-94.84663991433759,-0.1027523466189786,131.7876846721304,44.72891896839866,0.43875995995937545,0.6627017028094301,0.267414662457184,-0.4313415149534405,-0.056688982496469004,-0.2610358946520118,0.20245030094329827,0.3022312307008976,-0.9446865690830489,0.666194454072353,-0.3630068039808785,-0.26616698293205904,0.19711213621947915
0.37485858256273247,35.934789157767895,0.02614655617550923,-94.78398520971449,-0.10299894613537425,131.2380113836793,45.2163545235753,0.3756802542140573,0.5882826454759389,0.1942642242462999,-0.01610679448972514,-0.07955764401031362,-0.2221741730708638,0.23472995339981864,2.084630384952211,-0.9220527621259749,0.553360125151745,-0.4131740557048283,-0.609950847289309,0.2274448650110415
1.2817040515874494,35.41092940762492,0.027827547956369072,-94.69542517902097,-0.10549474117347372,130.5942499790208,45.960567387200754,0.14194177634578814,0.5862158760281746,-0.013463937665416894,0.3417709920286604,-0.10501014618231827,-0.13059889924630175,0.24584936863295673,3.6860915953150637,-0.6752108221789299,0.6165095507469098,-0.41697577063510394,-0.8447167518183779,0.23622035324456808
2.5557116808970246,35.03623116827735,0.029064978132626894,-94.46392355383666,-0.11886262764747293,129.91806414094697,47.12610450966657,0.29179957539584855,0.5775129360332836,0.1219339218910171,0.373547429219869,-0.15130260355313727,-0.12322988771888951,0.15894065718884456,3.8052451096350843,-0.8592159050193465,0.5711503740123627,-0.43357175472419895,-0.8611044235106111,0.149234454942616
4.148409505442752,34.70257789165418,0.027703167515962912,-94.04200315209577,-0.12580670508806036,129.1959186865516,48.61983258010622,0.4121389985809163,0.6730681101416522,0.2326388351855375,0.43293716501134033,-0.18615030868010363,-0.10238329360457725,0.13562977049480407,4.338335075587173,-1.1561880410946954,0.6991726932221584,-0.4955665499062916,-0.9340005498185797,0.12203339609493646
5.97293077320232,34.652726745286536,0.029584769676781968,-93.35041268559517,-0.1339203262304274,128.51044557370818,50.36189270894904,0.24923393940876837,0.6426310913031742,0.11487873425587858,0.6629794383393641,-0.200773062181287,-0.01798309517958372,0.13272938497426529,5.276964172955582,-1.165924253381874,0.6933582138277166,-0.5032611646400116,-1.038331269908563,0.11412109654931729
7.944447224564285,34.81943281240021,0.030146066993228398,-92.42515623207309,-0.14715210264423767,127.78876824227746,52.30117119292924,0.668206523422696,1.123635056933717,0.3895916307794874,0.44238170465165744,-0.2007186424553476,-0.06353480168397156,0.13698917801272698,5.404821274516567,-2.311177876904811,1.2567297575246716,-0.7477548844000788,-1.0828068828602677,0.16012238092177225
10.013299867960963,35.38529080984692,0.030025902888544582,-91.16493526715027,-0.16150143298817574,127.12696512066965,54.31233006270125,0.47177885062441755,1.1580250456943397,0.26706779704727046,0.4330273654749425,-0.19506907444820556,-0.10661722657941003,0.1625441234008821,5.687579092192378,-2.4375237098069267,1.5603290001938939,-0.7835541901333054,-1.1410037372925164,0.13886425943037878
12.070070054152712,36.19855173597638,0.029855874921689216,-89.62913507986718,-0.17033022724616215,126.50501958133275,56.39346213567228,0.8566726728847378,1.630184284641646,0.502800358130798,0.31561844152913604,-0.23387608430477763,-0.11079715242868027,0.12173306871327588,6.331213152286477,-2.7950792210365734,2.0870028885117176,-0.8432683297699294,-1.2619526683615336,0.10208368899767804
14.093593066598267,37.385874202738464,0.028854940681050864,-87.85967920879222,-0.18185712958094757,125.82042892984366,58.444192388737385,0.8495899386840221,1.4880227711330576,0.520050536688767,0.33313716843131147,-0.24314412940398675,-0.14057578263471307,0.09389893556571803,6.529135976480163,-3.2055537695953675,2.486550728233217,-0.9668669253096817,-1.2663538713263247,0.12836984430541715
16.01409244296443,38.7617420168293,0.031195835604705353,-85.83506853296413,-0.19317223461105856,125.29128928740849,60.37425409025646,0.7363513494879704,1.827853833438023,0.43858381434208504,-0.007875722806152199,-0.2264339498498968,-0.267522687352792,0.14698935761330995,6.773817654256276,-3.8720883210267667,3.526781190586992,-1.046755798284507,-1.3337640733343499,0.12457104966580647
17.720674053051432,40.35917725799473,0.02632203013619922,-83.72801387816222,-0.20305976734897851,124.73010198402028,62.1855627549615,1.7283720756639216,1.552522363760162,1.1323849594655904,0.2558328700479105,-0.20846853657844452,-0.20492912892144974,0.11175130051837313,6.117966682251917,-4.358516455055995,1.8903767551591109,-1.0955656128214548,-1.278400175876559,0.07936096153494616
19.240784652769918,42.0668291818378,0.025405575022649795,-81.61189983809206,-0.2073393200719909,124.31800946073717,63.78878641733961,1.603749933784532,2.285612796055128,1.0194708738322933,-0.12796678090845573,-0.22082996265003205,-0.23730446425755355,0.12135409090309865,6.840424639049983,-4.26617431947689,1.6305499041947367,-1.1198411622194078,-1.4009551875791204,0.15550123983663702
20.576807834785583,43.76249468854222,0.030745266944502733,-79.65262662683092,-0.20979971344990891,123.98127253935588,65.1534112317748,0.49587248407837065,1.363669397102645,0.17149930088351947,0.644951182392508,-0.23445174739669655,-0.04634894087492449,0.19396744550589679,7.435606133044198,-4.014023028939114,1.7120411880657926,-1.131458445084557,-1.4923740520941982,0.21181966623882062
21.120961530313572,44.60438334552879,0.030425237367738858,-78.76009393773974,-0.2115698971968831,123.88759308457207,65.7220167691788,1.3191947279337295,1.4099386637540445,0.7818210300522177,0.4061202282331369,-0.1773625950392929,-0.20706522900426183,0.21410853292466223,5.969439734673466,-5.473430973095511,1.7961347471966396,-1.2516690821103003,-1.267393256782385,0.1710582246892229
21.888075423881077,46.115606146126616,0.01265822952570478,-77.20572997786658,-0.21601596388223263,123.84909925470383,66.69704239490521,1.6859210458149843,2.4744352294273795,1.00547483208,-0.18664872744433833,-0.12202447142053653,-0.16450338781128226,0.22491291559495627,6.861985469769145,-5.559434071526587,3.423133316225831,-1.2616677308696898,-1.2589086178483477,0.2277340972066928
22.464369205870927,47.36869515368876,-0.0018371676775735808,-76.10425114743903,-0.22658765685603716,123.99864417207847,67.34919901028036,1.1892988738241372,2.6335760610851726,0.6411076034186297,-0.34758690467451014,-0.12666074912086692,-0.019567215636107287,0.3427540123423915,6.225304141213057,-4.822309338930336,3.9798607400433457,-1.1062324046247332,-0.9137240672921687,0.3343909285497412
22.73711690489442,48.376027871976426,-0.0016440729480097641,-75.61187241478311,-0.23302793848505549,124.48414406156418,67.67276364659894,1.024567678505076,2.2797106699423852,0.5476383549677833,-0.16912186802022916,-0.12206012338053922,0.1161050305435177,0.3615700719793916,5.778482434891664,-4.4520216012745815,3.731620788457239,-0.9856091778382753,-0.7133202341751674,0.3469167496431104
22.721197726943455,49.08335933952003,-0.0003324434991813783,-75.68980964678454,-0.23328422178932853,125.24991110088081,67.73490355426834,0.12938824483272265,2.7702555268239037,0.16896567624117467,-1.0505126526685602,-0.12819527173099257,0.10879310558590598,0.17656063288383,2.4537591455751886,-1.5237525305468342,4.467985124264006,-0.2183923868439399,-0.014598111232454337,0.1276383245024472
22.435766900138514,49.33855845338634,0.003944225284815258,-76.37504669629658,-0.23315407609844208,126.27522387770271,67.69484468856668,0.01873741413413221,2.824614590473983,0.3468364162782883,-1.5628928069581194,-0.11042004078842724,-0.018364898760545884,-0.04029730703468455,-0.06883737853882456,-0.010819707496531633,4.301537899092667,0.2619513057017877,0.2951667889243416,-0.11496991933371646
21.68354272674761,49.41323214891784,-0.012690244991318553,-77.61670571815364,-0.233414453223394,127.59841897461789,67.28358960779786,1.043925500085047,2.0422226653993043,1.1722052135779872,-1.661218252194575,-0.061718733921945775,-0.08809573049257564,-0.21406323229806698,-3.469754684285782,0.12223954347668783,2.847215021834994,0.4342022928939896,0.740794075753274,-0.27572934858509135
20.64592715082402,49.29789565634162,-0.03966859164988709,-79.33859066201398,-0.23349223254367577,128.9756534447662,66.5404689675185,0.2255484109328998,0.8385109148169243,0.5240323856727032,-1.1495220953955165,-0.05176801560578095,0.11995204447410379,-0.15505848250041024,-4.399986467688266,1.5275796240835253,1.2092524178320168,0.651503471527725,1.0419141776951932,-0.21350402168200378
19.454237005726952,48.84011700864594,-0.020193586184443866,-81.31867318995589,-0.2334473622877773,130.4155896151747,65.35218417797208,0.5658472035967647,0.5728296134126799,0.7836857372224796,-1.1905694065772823,-0.028086928754493284,0.134881763978327,-0.08307385115960671,-5.565580151005586,1.225504483198899,0.7135479198283631,0.5976616451917054,1.2596984738946344,-0.14224433683373705
17.906849284371496,48.276186558765666,-0.024681087320942135,-83.43081262496001,-0.23337890618419263,131.8587990172167,63.95943820620568,0.8387440188815102,0.6471690398331024,0.9815667775397409,-1.2397782512147724,0.006596678946212472,0.06728706900408878,-0.13032823173595942,-5.393615697068624,0.6856449354187768,0.7108183004305725,0.523882841966054,1.147222397909578,-0.17276308158402104
16.146259837117515,47.416880005842856,-0.054460911153739994,-85.49325125865313,-0.2332009610085438,133.21959848918965,62.320756024331146,0.7036792934299728,0.8123667938864167,0.8957992918529375,-1.4132989175624877,0.01982190915513021,0.08650164936760245,-0.14720878824162698,-5.521778662299355,1.663635261260417,1.2435166044660337,0.7178042706576808,1.3230274690662815,-0.1493283128010076
14.296743524820867,46.65299452952736,-0.04065587478053218,-87.51323044160215,-0.2328862496395573,134.40853738099278,60.462737804636355,0.5221263892202028,0.784823199956052,0.766033865171024,-1.1735533484106373,0.0356903367850442,0.19409516161729742,-0.06426693749741536,-5.3324041872194705,1.633900218611959,1.3511881399988313,0.7637835647864052,1.244702056009965,-0.12772352796615963
12.28992523855818,45.76000912685107,-0.03803060135672189,-89.26284631106977,-0.23161409753749224,135.3499890448889,58.47953090588379,-0.3077385369944708,0.8208234429218662,0.21825206084473023,-1.285095006683574,0.06735229189993144,0.2242777871700658,-0.06783660497041764,-5.030813859047332,1.0331342860091022,2.094702432876075,0.6227092522392175,1.3273047244658178,-0.09380567695687105
10.264841066634123,44.919284695662576,-0.029043285620658162,-90.79470067562463,-0.23047240017108786,136.05815277128636,56.42947473057719,-0.9249177606406922,1.5155966229706619,-0.2503977324736918,-1.389684840980524,0.05978384244830861,0.34668511947588526,-0.040821678693116106,-4.24628497840135,1.7830445844870821,2.517023384948408,0.823552430360361,1.3407017674286426,-0.1095669078366259
8.17616883010476,44.088008329862504,-0.030068207203023136,-92.0263468817867,-0.23010955021212195,136.5650084678838,54.33635230570807,0.14516319640834233,1.640438836947714,0.5631870711000215,-1.7552069712518308,0.08679642182080227,0.2147333793658969,0.00677399425032827,-5.6065454002771755,1.8420456881066363,2.8084532462980105,0.7997120546132047,1.5638319401749627,-0.05191893972356886
6.221930790995849,43.23808465034701,-0.02264970158543501,-92.9991874693818,-0.22921730631772982,136.727648838505,52.292826255510654,-0.9448944648011982,1.8969258987397584,-0.2752360778256241,-1.7511551928690614,0.10064692302719103,0.32149787413040065,0.04286332340160826,-4.759895483222013,0.7284442196722004,2.7976427932266263,0.5629343546871555,1.5078916231700248,0.0014840423905386202
4.393250570962957,42.49024255649249,-0.013958870451661505,-93.67170878917833,-0.2287522925883935,136.7235649538961,50.384725914104685,-0.8497359311307923,1.567571938319727,-0.15953476878917092,-1.5664623497878989,0.13783774301610685,0.15823512632201572,0.08344857585548515,-4.006402391255455,0.9355359574870847,2.459122271234037,0.5837230319755087,1.0016783203396147,-0.014440260442278731
2.74382306992267,41.67874797611805,-0.015780781992182635,-94.163107504847,-0.2276716483807895,136.52887287962156,48.65442961132494,-0.7449188941739796,1.341324717237531,-0.06278596141244956,-1.6420706874920432,0.14385160263866453,-0.16313262617991936,0.0721590156107015,-3.858761525694223,0.8090477247258872,1.6141511737668597,0.536127351206925,0.6980352382337431,-0.01666303007722178
2.0052316256231357,41.286363614338555,-0.017846090866979646,-94.30272913984395,-0.22729141761456276,136.31588694490878,47.873105229107615,-0.7130223022796124,1.1595931959654486,-0.04854148384732918,-1.5655510635135288,0.13607569203328038,-0.26503072464904415,0.06423665292515829,-3.7138802337362415,0.42278042739645844,1.608700698595586,0.45552931969215604,0.6708365186899364,-0.036734264347057774
0.29126506320139683,40.11517764592826,-0.017437116051833814,-94.59261848724701,-0.22564159674043702,135.44264284107018,46.0088748895611,-0.49060947776747293,1.1552386913501134,0.13997186465583214,-1.533226587213492,0.12446734281750461,-0.24976094409004188,-0.007863852000549305,-3.9370122113306305,0.715545196899704,1.3129683025652106,0.5632948510883056,0.6871643316044901,-0.09162774304185668
-0.13122059417657525,39.698795997711365,-0.017215815068786035,-94.62720555567915,-0.22481581127280229,135.0509239308405,45.52090747450763,-0.5649184146553895,1.3388933991921248,-0.0010981157609090309,-1.6949453857387902,0.13298157325148183,-0.19634880233467528,0.02448057782352737,-4.075999477487706,0.8667326116904465,2.1101114795513323,0.583943986506311,0.8609495953610709,-0.054213953925333944
-0.6644590984068005,38.87504337524661,-0.014849191505532806,-94.67587772513183,-0.16955409557629156,134.2955605053245,44.810374534132,-0.603027495087658,1.200745949548014,-0.020262713793145114,-1.4933929857614252,0.26540017776128605,-0.0535191488579965,-0.0328853715379058,-4.01734640209826,0.8498345894177769,1.8274292454733523,0.6599345226676824,0.9559538937949941,-0.08006558121528438
-0.8662209102625825,38.06360796944921,-0.013991090059584354,-94.71280375833976,-0.1674228027899275,133.4632449487471,44.50640467130302,-0.44704069420497605,1.1188142207374487,0.0017413681816988362,-1.3622488030388917,0.257207852255457,0.03255308181850284,-0.054190929099069175,-3.7505013744462024,0.6652718777989542,1.8943698493254593,0.5700352262789508,0.9923320638861824,-0.08084796918330418
-0.7686489820400312,37.24750618008803,-0.0011927790364732402,-94.7474924885258,-0.16731269268986868,132.58294643687407,44.48253104094729,0.09769708616990841,0.6251184529071929,0.1501020519745212,-0.9687128639787052,0.23501805466228934,0.09624998510230633,0.28187110053870224,-3.281801298916861,-0.5894822197815033,1.2271253359015433,-0.013517725821403759,0.8956888393752686,0.28005324856242414
-0.2698422196825156,36.507667062453784,-0.0020516880473246545,-94.75144781304485,-0.1671319889342888,131.80139419371432,44.66851550337665,0.33276118132525573,0.6811389137110805,0.18263586547499452,-0.8803356697434653,0.1905675003767273,0.1134153326461154,0.2983467543235282,-2.699768921954646,-0.9042004069461913,1.3835543469615312,-0.19460305882356996,0.8031383542635409,0.31907086079602937
0.6280268572516737,35.77382301920722,0.0013114659828428463,-94.71972400241907,-0.1672957363592981,131.03807119435203,45.311983448356614,0.6644377364078625,0.5632531529676253,0.42171888664488894,-0.44395232687905145,0.14331080656634376,0.03636579976946082,0.340534832278787,-0.691489434010158,-1.4357972270101838,1.022913767085641,-0.35188121431012376,0.27250842098528155,0.35903093766518956
1.8254145270291782,35.219014766748394,-0.0003399626919394715,-94.55016121983302,-0.16704179936208,130.24259727675263,46.36755131947704,0.4924206574658365,0.5321639904930299,0.3188182704254942,-0.19669957610739827,0.08609247410510247,-0.03127466072206148,0.298376352914216,0.5922008351055577,-1.1675135306647515,0.8075776214564278,-0.31582548487313905,-0.0822800113403641,0.3045009270088032
3.331556297214529,34.83393385227193,0.0014607115543141787,-94.223742409461,-0.16806883493585217,129.53342478779462,47.774738585545435,0.5008476997166963,0.4761079970557732,0.3862857798828328,0.0664089548092393,0.05818583197430178,-0.01587248518764246,0.29558786749307864,1.7018491665237814,-1.2777857613552452,0.6708117090691824,-0.32393753357746874,-0.31136080362625085,0.2876012352043304
5.070020624899848,34.67394908314118,0.020878865089122546,-93.69579381757585,-0.16885439058564783,128.82561584680613,49.427537332162196,0.6030648263137957,0.43704004566156257,0.4583786113741668,0.13595834052198072,0.039337037623126146,-0.04943738953695771,0.27375347832242447,1.9793408720856882,-1.4692974955888076,0.5150478891157849,-0.36802633035141674,-0.415087893764513,0.26734705575502005
6.993389736751082,34.69530309760148,0.023672171172717058,-92.893663270088,-0.17059286546938904,128.09876736276362,51.28230463064979,0.16858826113020206,0.8028317183448106,0.1400012943136518,0.3243851052325268,0.01584760013328696,0.020566737476810405,0.2610855050916582,4.47972564791184,-1.5616989672877342,1.7611878887486385,-0.39805824232663967,-0.7884713663015287,0.2473645883181993
9.029339688236975,35.03966621354371,0.048550335013386355,-91.78509891952463,-0.18173825190862794,127.44856144609136,53.265290366159306,0.46483307244129035,1.1813726849241943,0.34008995997369523,0.36055214877168507,-0.015746809951079105,0.0419972977718011,0.2749373864379845,5.918904173666525,-1.6463822586387282,1.994182441056602,-0.4474092713775751,-0.9677907470902607,0.2292835124361657
11.126546984247478,35.74284162931049,0.0610191840424757,-90.40177425093707,-0.19113128923504039,126.75675788160865,55.31440543436773,-0.11923116846692114,1.7591341626705295,-0.10113789169598608,0.29603888506194276,-0.09770276462391432,0.11028939736993505,0.2728649213287025,6.370226977421202,-2.072274923348075,2.31180905013315,-0.5552860406042865,-0.9929580578476025,0.19618251623305719
13.178537798579464,36.79297979274502,0.06785186201706796,-88.71701662391344,-0.19722780488961755,126.11253919751827,57.39692419501761,0.5527320937679653,1.332224936508774,0.39541470929142686,0.33757458815020963,-0.127598918693874,0.05808615707595191,0.2217301228873433,5.735981078914258,-1.7754314710170913,1.9744458189885687,-0.5229821760257106,-0.976169498072853,0.1517957145156724
14.166669107384097,37.42827369826418,0.0686332593781712,-87.8232871944404,-0.20130755799724384,125.77774110005899,58.43007360451302,0.36760680800619133,1.3412210037536862,0.21255123161114298,0.1906775791799795,-0.15503904559991702,-0.02889890563589801,0.2043595589355076,5.236214455428901,-2.3577652695716873,1.4728574347315893,-0.6571238538580627,-0.933324631438977,0.168526707390152
16.97274409229973,39.621834566222596,0.06994570134668955,-84.76047684236042,-0.2043954570318376,124.94141420360474,61.30569480288284,0.43806997297604755,1.7989787832855526,0.2592598037433554,0.03830668513836964,-0.1760367381151278,-0.017301471081213816,0.186245293138598,5.190362436610511,-3.0487245212216516,0.5176514841812362,-0.8024652031714201,-0.9753196979328872,0.1817925809439145
17.81559813023214,40.44173442417601,0.06803263830790741,-83.70593153627856,-0.2054455801834335,124.67722598935647,62.181649734608584,0.19287542202714086,1.553137876620764,0.09884695751071623,0.28357802689237305,-0.17231282135077347,-0.0500418020408688,0.1714348958225758,5.616564277674568,-3.577916694499309,1.9484104844927548,-0.9059543914153585,-1.0306154059936075,0.17829489645746366
19.975164470462502,42.97420589265042,0.05590897490771376,-80.58204341079484,-0.20679065957595158,124.13048907758606,64.4955113660544,0.8864396830018595,0.5477620915995451,0.5425944715635833,0.7322813610138134,-0.1421257363252871,-0.04773844732743069,0.18258097103090906,5.7245806189297985,-3.5859025369310022,0.5204038571807363,-0.9173007591440722,-1.148801967905005,0.17063312761097588
20.590038213475243,43.81220781932928,0.05551202467246065,-79.61803206710599,-0.20680454151425717,123.96392642858969,65.16396522002073,0.4554112765474568,0.7308530821827671,0.23005233466500094,0.7121614405073863,-0.15980668125692804,-0.08447826343555763,0.21919629746901098,8.156695917017998,-4.273078382317491,2.076759466475683,-1.0902341623178256,-1.5455001965767476,0.2083444294449188
21.600072121325532,45.416056302311446,0.0560600195668017,-77.90489019675472,-0.20684675636905517,123.82785428655497,66.23377464617248,0.7693645433833158,1.1768510452563996,0.4294527737699356,0.567103795885655,-0.16486569592905845,-0.07891901107675971,0.23970482900912765,7.2081201758397615,-4.346220273821824,1.53386882311939,-1.0945538912953734,-1.3845187260732326,0.21947538102144737
22.285887943595046,46.845871617580514,0.05330553974140509,-76.61855850332934,-0.20695874946953893,123.83327919333078,67.07485855693359,0.7436273192080645,1.2228110861548658,0.40149584386347903,0.7062523056519707,-0.16378022111059595,0.33724694556421736,0.23194272116726572,7.186405267461887,-4.386659638119555,2.313890208818018,-0.9158432516782931,-0.9299644185942296,0.21245656092173026
22.68505088507509,48.033847530365435,0.0501717586814735,-75.88177085342123,-0.20729070749545964,124.1149362272661,67.57489043572167,0.6328879117035862,1.715998238195076,0.2711428513968843,0.5277707747086859,-0.15394622461479673,0.4559905278743299,0.3075894574827987,7.48447559769338,-4.507929344845731,3.3472947334898846,-0.9077650456138461,-0.7780820318784266,0.29133423861505187
22.789119039262566,48.87098632797006,0.0475954732577157,-75.64916446056743,-0.2074143292341632,124.76114550590636,67.74645163715324,0.12829479494219237,1.5759776457751071,0.14583515241240516,0.10439413477257067,-0.1478520972871751,0.4150497556346432,0.31552679639820286,4.66172322982506,-2.6487389978932536,3.1303476849461553,-0.45234394558192026,-0.2758011382994674,0.2562828299584497
22.634045344583853,49.30632740728478,0.04731684399771421,-76.03042189899459,-0.2073565856453242,125.71112685397516,67.74805768889432,-0.19856765894975711,1.4081479003845268,0.1829182777860097,-0.4101384427913586,-0.11774194470293012,0.3939239831192004,-0.05490291013274337,1.2478245644031978,-0.21251615386234834,2.7951518220840263,0.3059149508102632,0.2847112149439303,-0.12843906116878911
22.113823618091104,49.52114630040702,0.04681615360612059,-77.03604479160855,-0.20762099894869718,126.86044908586489,67.53432419997738,0.11435430980000204,1.3288723902089634,0.5230668507880442,-0.6995695150179345,-0.08015938175224249,0.3011958798564639,-0.12620524321444543,-0.6809584275252663,0.22925178403981739,2.476650152967438,0.48936921179575577,0.5239321409454685,-0.20754529521874648
21.233768982256418,49.50022320693692,0.026395720012887817,-78.53337920472005,-0.20813544782211732,128.21330872318794,66.93529078266187,0.07234382055507708,0.7103131585619675,0.486898164147988,-0.49785293765372796,-0.05673994750737482,0.28641604899547923,-0.16473743501572496,-2.1479528019858067,1.0275041128801659,1.980337933587095,0.6435758359718942,0.7180175360458477,-0.23619181077286044
20.077923501831847,49.132630684810394,0.01132266595640146,-80.39498463379802,-0.20785693538121286,129.68205153613766,65.94284639099963,0.024988815017163678,0.5113146773944581,0.43257781257067723,-0.704776884808062,-0.029003457941876965,0.26584491080200123,-0.15649387744246657,-4.554525695384022,1.4302850897496768,-0.41612462254378074,0.666140904385463,1.0266185391374272,-0.18237580478138893
18.67073657004375,48.6166595584072,0.007904524317064407,-82.43456641097843,-0.2077590598451078,131.15569283062968,64.65187754308856,0.6105542280205195,0.21701621959239764,0.7850710893183688,-0.8541906623961758,-0.0006012647721166278,0.18590677827356175,-0.08980646393683737,-4.443738227864019,1.535828810147051,0.6817377701788111,0.6862670276836504,1.0821518910358028,-0.1496089496108311
17.02770477967274,47.868844992582645,0.0059835931945139385,-84.56095642549084,-0.20786965394486595,132.5736406073772,63.07331860293916,0.07991013907540963,0.11035612615989399,0.44361229815495273,-0.6982898406072868,0.04238653936644997,0.193171318066092,-0.048925476536049395,-4.713425773905307,1.6452449109974066,-0.19692579128280088,0.7148529231376999,1.095239055949852,-0.09319384676820808
15.215195211804204,47.0699653486883,0.006770946329321029,-86.61278393569923,-0.20792176947347607,133.862925112029,61.30617388118396,-0.245328623184494,0.4907960522717938,0.22870146781426176,-1.1285625446787142,0.07731181082997908,0.1616586951108972,-0.028117356427392562,-4.3522159829076585,0.6301831666184904,0.3617509091134698,0.5350599637202849,1.0607377127220068,-0.050130545852654376
13.275708879390297,46.19944729052412,0.008560137494713743,-88.49182756422252,-0.20806337844511524,134.92543974880863,59.3978576997573,-0.6826511861710707,0.4062740067217249,-0.04888994321147283,-1.068980392341521,0.13449582538145552,0.16580013135639798,0.021106098841261543,-4.147890120522845,1.94307091663885,1.1093549452548115,0.8107650179269547,1.1035854269485157,-0.022307066147207538
11.211914654747337,45.38050631348324,0.0032157729293474293,-90.15100391201119,-0.20719352728389298,135.7947995364164,57.343892643801446,0.21549307396027967,0.6385142643014615,0.6020549950721474,-1.2897516208307647,0.16555184111193785,0.14061113932087907,0.04027283645260615,-5.639396566654662,1.933134011789631,0.6969671102892449,0.8242954250683743,1.3023527916490731,-0.01702030826043925
9.134151578693698,44.508393044357724,-0.008435871566770376,-91.50808196354717,-0.2055784826927156,136.38857292893968,55.28432860862535,-0.3443281257281351,0.6723943971037948,0.18661051110785884,-1.4425486714407778,0.18090838372561685,0.07752616825306737,0.04357837363244637,-5.675757942764146,1.4173750556902782,0.7022691075386039,0.7146925637454462,1.260453172585429,-0.01725549039617892
7.115908056970022,43.715430323254864,-0.008859970536021606,-92.61241941629382,-0.20487452380800641,136.72294495011232,53.205352270001015,-0.5245127447979493,0.9841633157361938,0.06988904386755959,-1.696060655815749,0.20447547598018495,0.040880622378403036,0.09438992594069633,-5.5897501907136995,1.258173039130212,0.8282686715393643,0.6823625468681002,1.3393646761672835,0.02603823471066178
5.189714089746401,42.88151017258296,-0.010964480693667834,-93.42250548049903,-0.20440586942401925,136.76738740420896,51.22274965677824,-0.03382365050656161,0.615569265005926,0.38513908485580955,-1.2886143708424338,0.22252183640508913,0.1245769841487498,0.12182684169607713,-5.151820271106714,0.3886476154290574,0.7999829841309811,0.48904745853180087,1.2358530937285006,0.07205652052532964
4.318107734910358,42.54619723415887,-0.00845707112391768,-93.70773991657654,-0.2039565268422637,136.75633305718267,50.288712999828384,-0.5676917857448882,0.8202882475745495,-0.011944319906701235,-1.656643782099889,0.24640813804768938,-0.25680224789298717,0.1427593879407464,-5.126418338549948,1.1520812021477442,-0.07964001034391227,0.5961422896318319,0.7500289802186924,0.09416826103667042
2.692317182354579,41.723105574466366,-0.007261617897017997,-94.18937224566068,-0.20271123133130595,136.54400904204718,48.558114475134275,-0.6291777206857854,0.3642209047177757,-0.06319918919390337,-1.1470279395147123,0.2853255174763832,-0.23904376210271447,0.1696924841751086,-4.195870352110704,0.8241081309730356,-0.07893571430873542,0.5425381705820425,0.6188199061149058,0.11170832185980081
1.3376871451692218,40.976473528285524,-0.0074012091556509355,-94.45809679984458,-0.1838701017876306,136.0284512941595,47.05871853344565,-0.5714340278436093,0.3882551530045567,-0.048205076525141666,-1.1527733158360398,0.3436307446254674,-0.21793663119015155,0.19759739065836657,-4.215669858726678,0.6099154599218055,0.04586766315540754,0.5210269048499916,0.6632958429329987,0.15300336835918718
0.2868493393793844,40.16124676018535,-0.006187977078938151,-94.63658373608102,-0.1831565913910506,135.40841184987423,45.882003139113266,-0.9038400275584882,-0.07338196637827843,-0.2821175158660297,-0.9273596931782566,0.3462935703100036,-0.14846547778022928,0.16791242906914522,-4.52059329801481,1.0547026151068981,-0.5648534840140239,0.6294219834597575,0.7502861000419864,0.11579325528939244
-0.44448584565593136,39.376560246316544,-0.006923633274799814,-94.71498756337208,-0.1825218843056578,134.62356773226531,45.00617728268046,-0.8044013448874688,0.07597701829859485,-0.2318929494682156,-0.9311067732788183,0.3241055693284985,-0.09124778675036983,0.1383398740110247,-4.264878529929335,0.9018992138110224,-0.14976158699046818,0.5850858122903645,0.7950107087968135,0.0915823959904325
-0.8050008393279582,38.49394686005772,-0.00634076654641133,-94.74921450119807,-0.18193560899785846,133.82480418823988,44.52493836704031,-0.8535047759780633,0.18265440117075887,-0.27745654714707574,-0.8738650828433262,0.3071106556053658,-0.01842908750486694,0.086260824106134,-3.8433990104551112,1.031629904646802,0.21868637631524143,0.6153725008186818,0.8135829591407722,0.04170627677425249
-0.8320254453460255,37.69750289188033,0.021426498704766973,-94.76653744843416,-0.18195695268508788,133.05139596978267,44.40311043086238,-0.4740377329248972,0.2703830119737266,-0.21500795819910465,-0.9745614728655781,0.2888698909982096,-0.12053601260378045,0.22005787670666857,-3.8664185479770428,0.3124757951324187,0.24937514206090972,0.2650833913857513,0.7170011516362009,0.2086451898524227
-0.5495689963849029,36.86803814547146,0.017704063724004675,-94.76800326226211,-0.18223637555762678,132.19985659013767,44.43667652569479,-0.016295669716050384,-0.11038243673391636,0.03586784660307931,-0.7439661529742254,0.2704596057368925,-0.001166483090614716,0.4002715204346774,-3.7260467268856905,-0.9079710339511875,0.012480150674153086,-0.180695911252969,0.7374773838329864,0.40988126970194827
0.16058049923415224,36.15209729494233,0.018976645462107058,-94.76007607245553,-0.18197349666862955,131.41375735899797,44.88038366558798,0.19053105846447302,0.3414633679906471,0.05407363592507573,-0.807124808354059,0.22771253355318594,-0.1440318674236079,0.4550541014025377,-1.7056474194600642,-1.0655107796449275,0.24822868405195853,-0.31807476527725487,0.18459399929596804,0.4730661140851481
1.220986750084858,35.46323366516244,0.01804922721278103,-94.65363303047361,-0.18200722748421214,130.65479121740975,45.73722624439876,0.3778781640985988,-0.07502010714954138,0.17007769073893228,-0.11524209022995949,0.15645128504402853,-0.12107141459470985,0.4437533055555455,-0.5689564554194195,-1.169738559545399,-0.30754645002703956,-0.37237059010527096,-0.025573483787662693,0.45685849077691515
2.6036132933916805,35.07967808798409,0.019005443321176065,-94.42202118276532,-0.18192275444226758,129.890921742807,47.026969674846384,0.3710562122341259,-0.2039069966255064,0.18556469187106875,0.3220405978544866,0.10103630349341329,-0.08772521339261613,0.379952164854345,1.1579471097202358,-1.139704974996636,-0.5474577182079883,-0.37139668258384,-0.3733437967229984,0.38696954230155456
4.2307304769451015,34.76718027480368,0.020908320894225292,-94.0136568048147,-0.18283708168364493,129.16347593233303,48.5540697240375,0.6287161450798188,-0.284144303394479,0.38587898822674854,0.3886483458816755,0.08370727252069585,-0.09552841636789591,0.3941424080119545,1.5837875094299294,-1.0907126802620564,-0.7954405200202358,-0.343990341556887,-0.42355126760485984,0.35033687643414
6.045345166913336,34.72991431148677,0.019595023762119065,-93.32773224093596,-0.18439694901909132,128.45823349381348,50.30714350099283,0.6274591097843971,-0.27651998437468134,0.41489258155536257,0.5792186007092835,0.0869533542154788,-0.01259896065766997,0.3825868180361361,3.467328509497403,-1.3679490928566231,0.05321471837150576,-0.41514471356109683,-0.7058676884056488,0.4241716755745957
8.04496268893678,34.890213536235244,0.03814502783456259,-92.3832687116778,-0.18536081996738002,127.74977706238322,52.24550150146841,0.5988301228239067,0.2650243755567633,0.4809862593816969,0.6427090765319678,0.08796490880609983,0.056054066369898986,0.37593590826352874,4.483756427847593,-2.4150927994789444,0.3709130903065797,-0.5395245023493176,-0.8538717929136107,0.3322084022249385
10.071633384756888,35.445651428180696,0.03592022988450415,-91.13257061899334,-0.18670652831873755,127.07622605849734,54.30226648256804,0.9784079204914965,0.8184653814289727,0.7763004030272811,0.5625436048858369,0.053456536360056955,0.021183779574067477,0.2776415389283762,5.070315040580986,-2.661877024259227,1.0042073733092176,-0.5435968803728828,-0.9584506598714333,0.2703619449408559
12.133485144917106,36.25358202507841,0.03426383732482455,-89.55468941020523,-0.19182877708462645,126.47495083498893,56.418906560311896,1.1783379100136262,1.4264472117965357,0.9018467726144557,0.17574780656615044,0.011130932312882513,-0.07199703125605798,0.23544783734209737,5.072473802477736,-3.0824184747641374,1.828587845473609,-0.6458816003998451,-0.9770518004647275,0.23075013267186123
13.163985259281162,36.80917324635536,0.034691075818855055,-88.66396857177214,-0.20651617741921852,126.12870798708825,57.433793398460935,1.003323293782808,1.8323155453355597,0.77973904205576,-0.12929709171551382,-0.0507329471233031,-0.16328112703971795,0.17826176270538507,4.8413840597753035,-3.6286497149582755,2.263295112855321,-0.7624512997312319,-0.989847749623799,0.14069841397894217
16.041555722083775,38.855709563672086,0.024052856530031964,-85.73793673841647,-0.20806031358014465,125.2355154457759,60.47018426383801,1.585347863726918,1.399517534667387,1.1869868939670372,0.15253240963531803,-0.054122908657317545,-0.12718012040089238,0.09518078112018231,4.941340974574142,-3.8068916939984194,1.6825655901762573,-0.7775285299861747,-1.0244686958406453,0.09316150538700912
17.796144063259355,40.441724908158655,0.024884351656273236,-83.63814808339197,-0.2082575132519512,124.68099401504284,62.263909141276706,1.7974690978108856,1.0127956191977392,1.281429761464021,0.5268384806074393,-0.0489046083620608,-0.042585394189857934,0.13010104537456782,6.818817560748028,-4.397676414858379,2.700002393016505,-0.8756039538801053,-1.3046931253112688,0.09190788131089168
18.565294160134506,41.27816530618631,0.0234240720838472,-82.55494132556014,-0.2085702696732905,124.47483958763078,63.1085646829808,1.9458382259746227,1.9404071864975687,1.382997281484158,0.051037412561590126,-0.06973323467900666,-0.08790594583270948,0.11131184554150429,5.979825465246016,-5.0271062075456525,2.5727037852361567,-1.0033164564951291,-1.130382374210929,0.11095795768261442
19.94573470983021,43.010438625091005,0.023035023464051705,-80.51683567022307,-0.2087786465200418,124.11579009247983,64.60290107808655,1.739075177523939,2.004322066182639,1.2110358013399256,0.23688286444915488,-0.08081710452905337,-0.09880798418705698,0.09588827588255554,7.504185306174834,-5.433114973389453,2.645101348827116,-1.1011761006656289,-1.4515554273227287,0.09282234609057123
21.08971923580436,44.677945194351665,0.024438839470736776,-78.66510256364221,-0.20872073059910237,123.86419361194744,65.81976363166864,1.3188943221356306,1.9648429947844113,0.8478117865246158,0.3470801643135093,-0.10357094624141404,-0.0952687601287996,0.15949514135893145,8.320470654614246,-5.393398697878718,2.647636617013086,-1.173230257937817,-1.587761359249977,0.15339276260398801
21.95091714839547,46.19637316029497,0.024490727637323267,-77.17165574495678,-0.20878188853436086,123.82384992321657,66.76201348439034,1.5202988483927073,1.7884232942873686,0.9584190850135321,0.4676599977059301,-0.10643296097729024,0.15397555177162325,0.13397066079714653,7.797201743656124,-5.572469816482883,2.846504941006547,-1.0982581743840794,-1.2340413287295258,0.13321239965598974
22.473493349626917,47.48731136646388,0.022739478465630437,-76.14417679668603,-0.2088277177993705,123.9373843552408,67.43320685574174,1.7663843224997782,1.802962863983156,1.141353677802719,0.45200427079118255,-0.10630871818330807,0.3909984752111251,0.13851675715953657,7.001567630873941,-5.6931771916356695,3.3242936779159846,-0.9884106081118204,-0.8198363906651691,0.13484610109420497
22.699464818527833,48.488448237605674,0.022169873638550577,-75.6678746686704,-0.20867005662799218,124.44385756548743,67.77539003729429,1.526364269908989,1.6008711666269102,1.0477293276315403,0.3081487545836121,-0.08586296430812017,0.3123838925913431,0.2267295391497434,5.670509695627255,-4.953909274073696,2.9920419449783093,-0.8624448973875108,-0.6440893476081077,0.20445232995866777
22.683589223363406,49.145603368890406,0.022216478492945693,-75.74336210429567,-0.20885351299865285,125.2473359335453,67.81197331423371,0.760246776708189,1.8535540458372486,0.8664647259347951,-0.45292416539382707,-0.06938560016525351,0.32294369962569613,0.008973778737108536,2.193281584709999,-2.101564482795614,3.3907040400180777,-0.02259610233436342,0.03640644224590509,-0.05885666387121024
22.369450949953045,49.41642120625925,0.025592668167388078,-76.46251844058939,-0.2089122788704413,126.28008057359611,67.7659532359856,0.18596741182533913,2.1416410727471114,0.5633938439680618,-0.7734191782854051,-0.06608422755560174,0.31471303415108026,-0.17296697250596424,1.2921432620437874,-0.5612260743525305,3.6945084742958447,0.4015652241572284,0.20341080235296088,-0.21236360247673586
21.66635319040592,49.46821342634871,0.021888006115457635,-77.73534390520759,-0.20906882397431722,127.58509001482429,67.32545287584753,0.7693770938122791,1.294221295090946,1.0671314035462014,-0.6991296515439414,-0.04479603317315257,0.25652778378003255,-0.34120838459596853,-0.8874739588670371,-0.32297675219722444,2.3562185424107174,0.5421505018005023,0.4409131171753172,-0.40667083573872026
20.59482184433656,49.340236041156466,-0.037568089701703555,-79.46993325710895,-0.2088306371137859,128.9833720202654,66.57652550004937,1.0321528009583485,1.1919328959937086,1.16096169167478,-0.8313073759555484,-0.047841943788489966,0.2619809157712373,-0.36165055595983103,-3.0421982227857343,0.1604503222995604,1.6840524679610822,0.5851708254798629,0.8319968658966401,-0.4016905038312114
19.30932350200117,48.833005910422756,-0.05958375457469225,-81.43007342434346,-0.20877834780593027,130.44499968312815,65.40641680737531,0.8617457162754413,0.6527794182938933,0.9839226775617861,-0.972447205993987,-0.009433778085429475,0.17132722459692606,-0.2483183255824917,-4.229650203354121,0.5811334953450922,0.997965691157161,0.5734441446273386,1.0036880333232092,-0.2820289491392367
17.84311133166799,48.24065782451317,-0.04731881101229711,-83.55030819451923,-0.2086719762577811,131.8880123768135,63.96750504973045,0.20130925309201536,0.5404383387629852,0.5451933013318846,-0.8338747691320302,-0.014663210608356063,0.2742285333204368,-0.2172487076271357,-2.7635380767225706,0.6317420072001199,0.4285293309819497,0.6014366498367673,0.8705398739232134,-0.23401106158255858
16.13048911833584,47.448563207820904,-0.0363256767946319,-85.6687884875581,-0.2082141002670074,133.20923659658328,62.26873657406363,-0.056555252474480296,-0.338925323064723,0.39689547480685927,-0.187463699272192,0.008665318782516331,0.4772420430096019,-0.1506987668383946,-3.758996887772367,1.279698362679553,0.31167309666803217,0.7941296320589759,1.1054288834385348,-0.24855253609653696
14.187709267776052,46.69555261164352,-0.04229152582632191,-87.66344392484498,-0.20777266094280122,134.40031321819225,60.42407392626278,0.733440020315401,-0.1912557662253321,0.9927303320559846,-0.2266350427851324,0.014140631877339464,0.4720941400727712,-0.1672256176888464,-3.641200694886008,1.4987804197635926,0.48134852376372994,0.8358399902337765,1.000553857850763,-0.22404229605136994
12.184418047583502,45.765767708532465,-0.038817943138659806,-89.40086425324742,-0.20661057034902838,135.36863985435255,58.423966984102144,-0.1059644885266132,0.3055146517672245,0.43019836463625893,-0.7059848139054271,0.05648367688154492,0.3602306468864366,-0.14847224519100866,-4.22130129946792,0.12171548082609454,0.6808843022421771,0.5703562515946667,1.1219030249701403,-0.19271028712820906
10.111998392434085,44.96035313156009,-0.04737050687319953,-90.90494223100806,-0.20612232065500846,136.09925286933372,56.38162082842237,0.040927256748423076,0.37357728668923834,0.5473335063313194,-1.0652194818576515,0.08141714234454636,0.24279844556771382,-0.13140625266088102,-4.253254670448714,0.7119750401878633,1.0880350577232283,0.6687584238533424,1.1525989415964732,-0.17552453932350404
8.042044069477544,44.12805967521231,-0.0539667437185174,-92.13428014689616,-0.2053033260211338,136.57762009099852,54.2900785280522,0.2364618716389253,0.25296986468809796,0.6420070494185194,-0.7855119837638135,0.0848549869062536,0.3036039902032599,-0.11178716875305161,-4.071362676764931,0.44054588377340115,0.5497697731606386,0.597925941192538,1.1308599874167093,-0.16566494852391916
7.055657652301283,43.720445748480095,-0.05186428251603149,-92.67111482671892,-0.20464471140971574,136.6953347884455,53.26079480906547,-0.23376540822538538,0.625385167483477,0.2936969361158322,-1.0669441000772628,0.1062846288575754,0.2682915796018623,-0.06696253759355265,-4.284109472460958,0.9304696988633382,1.1118808265373135,0.6643967250072682,1.2110177178878767,-0.13300510322413026
5.149569736266813,42.87289534797915,-0.04886274616539854,-93.45427287326349,-0.20432191915961628,136.74292263767722,51.28123140566818,-0.543516875113774,0.5334451591474471,0.0922681103670525,-1.0036049344094693,0.1204863069836798,0.06630018264893905,-0.03890176099436306,-3.694203555157,1.1325901615608733,0.6971300776431544,0.6758948448910673,0.8647444924349285,-0.11882005391284685
3.4168614578759176,42.123089598438334,-0.046843052719091276,-94.02334857651334,-0.2037983717004686,136.65492538426443,49.44579425770084,-0.2818865373939363,0.5294489601435254,0.3041312688388223,-1.0843739760956572,0.12280098847172964,-0.19501055086116525,-0.03133359413906793,-3.5359412771735252,0.617873209600582,0.2986716058368464,0.5678074294884672,0.5473738337690052,-0.1092045600181158
1.909826460748188,41.31185595497107,-0.04916683844405662,-94.356517895985,-0.20319016374342125,136.2886917704371,47.85306140897698,-0.3145910707190697,0.2975566076718362,0.2854489251267147,-1.0526934372508177,0.1376343155443471,-0.2822657837510628,-0.0349974626842036,-3.811742002449754,0.5870551381861271,-0.2134101640948239,0.5741450686115896,0.4840766560393786,-0.11209085887552692
0.7031281527812716,40.53573672020514,-0.0500973211749796,-94.55560952206832,-0.20291653151747904,135.74034797453427,46.54582024043634,-0.1356614011790591,0.9139215804471796,0.4215352083723726,-1.4312368532216173,0.14323774260477634,-0.37984156891390447,-0.043495107909166816,-3.800732383757945,0.2600830495579811,0.6989019313621251,0.5268920624898219,0.47337901005019006,-0.11543601447015198
-0.18107670843799067,39.67893569527884,-0.047285522775897745,-94.63234360576264,-0.20202389424083056,135.04496878435788,45.50979831578796,-0.3742735937328241,1.1001910542713067,0.1975384956746641,-1.5442427177532847,0.14523638716346995,-0.3297474028278786,-0.026550869075033824,-3.9523202511646187,0.5198972644541913,1.143818258239633,0.5322350577777595,0.6018367286417962,-0.09697479544400195
-0.700149339755242,38.872443542927776,-0.045655420062562464,-94.691544197037,-0.20114304931183752,134.28431209642048,44.82068079126906,-0.40516668530958067,0.9479246927043665,0.17964403462459785,-1.473761394518179,0.14379951953099143,-0.3084408037852567,-0.04257999951545184,-4.211235200314845,0.5948059624659704,0.7133474668684082,0.6160238918627402,0.7214636425773799,-0.1360790501219128
-0.8868366840888916,38.05505478365872,-0.04481948584495755,-94.71489241037482,-0.16738030653644667,133.4663318384038,44.523720115073054,0.028042985637548347,0.8824411039294459,0.34520916175359284,-1.500264213691191,0.23462068193513305,-0.27269806197849983,-0.09944803307325725,-4.437330610612091,0.04817977024175245,0.979326016165397,0.46409912727395775,0.751044809568847,-0.11338347961567322
-0.7966722579525712,37.20943155594933,-0.02888883706803448,-94.72764519090738,-0.16737930187390215,132.61899777024198,44.506299220312556,0.6442257820303827,0.653367441764399,0.517756019533463,-1.2244393721891065,0.2198243704804503,-0.26251599351060495,0.24270191135351132,-3.7027833675439608,-1.3083705913887251,0.6720315747187753,-0.15220877417363135,0.5766181326504847,0.26060650526338036
-0.2733071282701097,36.46857489269387,-0.02824974706418474,-94.72799841560145,-0.1672446646383974,131.83809561375364,44.71129623958045,0.9091073123819253,0.5564386699116989,0.6407041906417426,-1.376749324013798,0.199506204390363,-0.2625657541610548,0.2293451927948151,-3.718344112722426,-1.653713004591771,0.8092156346083731,-0.3298183877012714,0.6260693490074842,0.2830896005753184
0.616411348443323,35.7545404966304,-0.027575199070700954,-94.69556334604809,-0.16731985854918519,131.0591916161746,45.377973878466165,0.8781719767716932,0.5531213111026729,0.5117446456039775,-0.861672723220843,0.15925907808209636,-0.2425586371377012,0.28261916457718533,-1.679548105818834,-1.968775518369633,0.9674367543781777,-0.4983175777313126,0.10247578706569634,0.3906677713454287
1.8634668642749628,35.1742381302596,-0.010761515003072755,-94.49375751318638,-0.16754659383330006,130.27425121078187,46.41666464803285,0.7459863647762164,0.7850671322581909,0.46502650108289756,-0.7700011921463539,0.11268154816381892,-0.31356534413428855,0.3529219841347769,-0.16468440929388742,-1.833927777068982,0.6784401427636255,-0.4254433330244872,-0.18247656932762585,0.2879998364594665
3.362263958854578,34.83334900923557,-0.002830641109415711,-94.19349448753711,-0.16807011186146234,129.54613289233794,47.86995424792423,0.9300338986041629,0.516398669303647,0.6842913776689389,-0.2936329259169078,0.06495198940721711,-0.25359291621943303,0.22295264332299736,0.772110064589146,-2.114176141654653,-0.05222412460098489,-0.4666503864131188,-0.3682326588273778,0.23025058476209131
5.10160927880534,34.70250646189012,-0.0020155055340270846,-93.65632598245482,-0.16925236766089566,128.84006643053024,49.53871584406017,0.8752214932726896,0.1820327041422849,0.6919084470171032,0.009090590871920226,0.04025146178197933,-0.19648243261828596,0.1971000570175911,1.2119062848405437,-2.2072460380880092,-0.19225147899477843,-0.47296252679248346,-0.44308702980684495,0.20805842002837974
7.022966586294792,34.73469388950306,0.00013334957785841555,-92.85168804218843,-0.16978551137392306,128.09145811632513,51.40426957799673,0.9976041072425835,0.3926499139406591,0.7657223043221224,0.3114022924354779,0.022951608558111326,-0.08739076922211535,0.18209334148130474,3.2603252772277562,-2.3155483826572656,0.6532070094880109,-0.5193002443510463,-0.6932732469937524,0.19334798554910904
9.043436609492591,35.123613188615955,0.009269731030453457,-91.75505706613934,-0.17057332203920325,127.43347191389181,53.39568910107313,1.1473977319418378,0.47244275393556,0.8260249329750224,0.5443625565687813,0.007220536279041851,-0.014371040332315397,0.17609062724600213,4.239050087556073,-2.537089091386284,0.4736193011919414,-0.5456052012538049,-0.8612882804049353,0.17304060802118823
11.124550590559103,35.836997565174734,0.010950519948409223,-90.36012397725467,-0.1708826337896724,126.75476168996752,55.454285091533,1.0223806240020599,0.6895158138104728,0.7263172465931766,0.5036639041466087,-0.005433607046004716,-0.006603624311977767,0.1565155526757903,4.265525276806333,-2.8283094214196214,0.6488240243957624,-0.6262142615171947,-0.830515217370391,0.14502841529082547
12.148797435960338,36.31821416965685,0.010763111234495559,-89.5584639419423,-0.17150735165231498,126.45242573441116,56.50277054055967,1.4332528871467032,-0.1545819224714912,1.0092485445311379,0.8834488549448977,-0.0249694784478001,0.027366986207679595,0.11835682645821072,4.482827522380455,-2.935461267446341,0.9487811414396551,-0.6458710755403031,-0.8400589601426072,0.09579348529851216
15.138612937115733,38.22540109278666,0.010400825753575326,-86.76115111161789,-0.19641355007351394,125.47697565728883,59.55003042612292,1.363187125634083,0.6518244147707182,0.9404266229573196,0.5675739235090071,-0.1065241480284594,0.013054163307163214,0.08912675271647337,4.244677418809257,-3.3795775183382086,-0.033915531342437424,-0.7659800808460389,-0.8360074736330458,0.07775193644526136
16.956400626674764,39.754400345000406,0.010838779776303998,-84.69738549523348,-0.19698514189113014,124.90998022497062,61.44633036444874,1.5054641235334685,1.045218849098666,1.0220078972468292,0.3531814618747104,-0.1358458309373284,0.003872598760363155,0.04519383505568524,4.684475981547549,-3.6241181626332453,1.3464380847375188,-0.8083738803268856,-0.844514383150368,0.05155911212115256
17.791033297776053,40.577193664809386,0.009022625212828253,-83.65840229940355,-0.19698617800327442,124.65272830462013,62.33659243080163,1.5545251760824397,-0.2503791615815292,1.032680993518984,1.1398515774936953,-0.11667994470564885,0.06779855914762892,0.017959530606298246,4.840533699669467,-3.852108342372687,-0.5758502408355147,-0.8601303266951477,-0.9841602193307021,0.029353094546498808
19.298361520004793,42.28267543054574,0.008204597740410234,-81.54231198745511,-0.19689300330196524,124.24565473228948,63.93348146037392,1.8451400817494779,-0.5956343630121637,1.2395411884001404,1.3995115532187539,-0.10603644584980408,0.083834221439862,0.01647665326438047,5.141181552276658,-4.52027418661817,-1.0545689479611806,-0.974171349669142,-1.0830111470405759,0.02735187443972161
20.567397074412707,43.9693389943316,0.007722679527260907,-79.5686187886905,-0.197647847417443,123.93186084579297,65.31507659549713,1.8548829279918344,0.486012491629254,1.1954104485722448,0.9300660347186516,-0.08750087747750314,-0.07064491251413649,0.08637373334757366,6.466363332391493,-5.265803163689611,0.40362356487098405,-1.1640929428970608,-1.3767469443374925,0.0988746152420564
21.54429987375975,45.56626665931137,0.0077855628138486154,-77.86991759731505,-0.1980477405199799,123.81656125912052,66.36444410968336,2.142006914653713,0.5093872633732377,1.3865548188154464,0.9624199949606913,-0.07374988763188739,-0.026438051606109753,0.0909032810338029,6.592836338000598,-5.864844550467471,0.582536621287092,-1.2388823126025272,-1.358477891385304,0.10464963189478657
22.215503708947793,46.98584314313005,-0.0067155056233279544,-76.59929658484347,-0.1986952457806853,123.8320944000239,67.18821280058337,2.1999832691134515,0.11102634544158312,1.3492212610154033,1.1439488901053072,-0.054098325584523294,0.32953247245333317,0.09449443827487479,5.4118185331881605,-5.544874610838717,0.6068004754191273,-1.0510852407072218,-0.7721562850072659,0.12211964937881585
22.591856531943858,48.11331423861984,-0.020801490025940374,-75.86552358905921,-0.19881612900727766,124.15124391780594,67.67145157930442,2.0750887501347366,0.7859518726500416,1.2149538941331341,0.8891470244214046,-0.0671324726626325,0.43147164310458014,0.13705606610294432,5.497971576953448,-5.7030849819908855,1.7671534833847722,-1.0394059087347403,-0.6161327106012049,0.19642708332339506
22.678522840357722,48.95643392814502,-0.02296893968544787,-75.66548399193091,-0.1990168349211088,124.80545492727042,67.82210411215338,1.9029438355649015,0.6709357473886248,1.2332360360473114,0.7013580933910862,-0.035281019797110603,0.3893089145746144,0.21158832554607598,2.5168310527576523,-3.5085004347888584,1.6991796974869906,-0.42079666248450187,-0.09543100241528912,0.12748255807419184
22.534193798151126,49.37002356297436,-0.022569594555476715,-76.08000335579786,-0.19920672445699333,125.76058671934597,67.8214608900508,0.8499480356047084,1.0719631454700245,1.0162651280536916,-0.3665058852005676,-0.01954193768422817,0.3284764907836206,-0.1901525962193586,0.09516199469295718,-1.0524531007472568,2.1539195280201624,0.3113001771601691,0.3184256781491611,-0.247486323706335
22.0034927416465,49.55407596187393,-0.022912270359942432,-77.10286011172542,-0.19910440995169937,126.93021696752571,67.58826206949432,0.9200932673082924,0.9035434839458356,1.1349869952834655,-0.31186217468598276,-0.0031694143774986232,0.3305096311569541,-0.18052612928197967,-1.2454253598746436,-0.33114631840317815,1.691512652079875,0.5111367489811032,0.523545393254745,-0.3306479334610322
21.1424552413837,49.53285912021783,-0.03006861790301977,-78.64588577947042,-0.199015831146128,128.25527989566376,66.96341510116842,0.5285279987798204,0.26450237060385073,0.8414861314252239,-0.14130253564642012,-0.00559459950944002,0.3947751314189187,-0.2827895517708647,-2.2259907030148933,0.5676466731206427,0.46652676117136643,0.6681237020220397,0.7460397844430432,-0.31927304211564617
20.614161443295924,49.40005026928855,-0.029584227486000748,-79.55185333444287,-0.19895465301950804,128.9925064704463,66.51726921751978,0.07973298546961993,-0.05884777391557096,0.46780690679665854,-0.23298306117679202,-0.0013676613040745377,0.4284336859414498,-0.23006250990914426,-3.129712470303192,1.2615444207997915,-0.7087218726083268,0.7386193592242943,0.8986162508991395,-0.2361385272774964
18.597195593304154,48.60805063857808,-0.028994377365531815,-82.56912923945637,-0.1988724013238707,131.20413548894174,64.62047443723642,0.346679299895491,-0.47615091232876317,0.6392671859215936,-0.2473003273151208,0.03411503618385092,0.390246914070587,-0.15239744879913744,-3.2776971315450028,1.3395515579272663,0.4336127386430102,0.7602268195100518,0.9971674238742524,-0.21194419744675452
16.95743707984464,47.88642069005053,-0.028462151512976375,-84.6876428928975,-0.19861814176583065,132.582702375701,63.05048189667667,0.12598240056057547,-0.28331046121244613,0.5210559427280286,-0.17793423166131495,0.04751545772219372,0.41778269237690546,-0.13979453631377212,-3.397348699322824,1.0690276925552653,-0.08492681528384095,0.7415334628388974,0.9690292224415099,-0.17677870410719526
15.139832853855113,47.056620646967026,-0.026091484393361824,-86.72949971477269,-0.19823196685635777,133.8757542265123,61.27871937557246,-0.21140241065516072,0.17192071079553867,0.2974726151306666,-0.6260533319067197,0.07307896593896046,0.32911813443007154,-0.10309049538510895,-3.3609821418965735,0.45933379912105593,0.42740178677768803,0.5701013006877749,0.963721418579133,-0.11695734778350488
13.183459217306856,46.19736896243581,-0.026439611616543367,-88.59044545318814,-0.1978353428676153,134.93888407797456,59.361148395348984,-0.4692807002365511,-0.16332910108251192,0.16210257390729582,-0.5886687834714052,0.11521647954754607,0.2902670175344412,-0.07887509316233271,-4.093080111408914,1.7960288890020213,-0.18359087898972165,0.8667063222267258,1.0192759316272726,-0.1520383213607932
11.097004919098616,45.38467766834034,-0.030446882860003723,-90.24398347330043,-0.19713298959490919,135.80035950014394,57.33360268513266,0.30132276833510213,-0.11572974877595499,0.6702142285634664,-0.6930473385884014,0.11443120960776701,0.27869828827464505,-0.09303177832597796,-4.926484242831234,1.6182198896726323,0.11466017696132924,0.8194619708627484,1.2157570856560573,-0.1386726377194377
10.09523459302507,44.97204582521506,-0.02692242794773746,-90.9576709642407,-0.19672472906227342,136.11469186061953,56.29216139764183,-0.2854473172400851,0.15220346488451342,0.27273197299928315,-0.853388014666205,0.12002280501331573,0.2563717205459245,-0.0507358414374395,-4.491665972377977,1.251572867874104,0.2534765140346452,0.7384010554903535,1.1424881711173196,-0.1195590263380644
8.029119317278145,44.13378599666172,-0.029944868383283797,-92.15490858124483,-0.1957553509611253,136.59033890699905,54.21845400355427,-0.020150325297968695,0.4249514966737888,0.5339351794969138,-1.286345232235077,0.12450609386693585,0.11848228601742947,-0.0704122151509316,-5.6491904793290475,0.8874618856108107,0.39498168477034373,0.7113425920526026,1.2680582486144896,-0.14284971297279853
6.03967229968356,43.30129197647637,-0.037258587433655475,-93.09719264741065,-0.19457768572572148,136.75840511927572,52.21085735579857,-0.06436684620620059,0.32357243205823377,0.40988066906790754,-1.0172892598856236,0.13649001630394542,0.1665910473147135,-0.027062579604051704,-4.641280595553051,0.5908759053989964,0.4267426876612212,0.5747657379235924,1.1329595084985682,-0.08631258735921678
4.248564490164466,42.52890077892267,-0.03205725450877132,-93.74532262106321,-0.19371337997863658,136.74767720798224,50.29837387475437,-0.5299635176928863,0.6354213092992447,0.07406090502451525,-1.4841405811096828,0.15529532081787298,-0.2526686840963331,-0.018455660457251055,-5.105820617276239,1.1335458656755648,0.23947876063888723,0.6457616922841268,0.8108672306116522,-0.0888820354574548
2.6215472724080997,41.70235381945136,-0.03430271222952627,-94.20606107317539,-0.19283833882975931,136.53376295212377,48.58454264702143,-0.511789074591424,0.37476169076479027,0.09791002779204368,-1.4114771896179956,0.1683991176101376,-0.39361827545865813,-0.0043165464206378025,-5.136928561123989,0.9433371815939124,-0.3848590541274572,0.6128097830972844,0.632695345902796,-0.07597508578954207
1.2686182295026973,40.94813315539962,-0.03478415227837628,-94.44800584495923,-0.19214543664962488,136.02980479955232,47.11457538262936,-0.14062051552875204,0.6141869724065976,0.3843305072126643,-1.5366206677100953,0.17021612020828733,-0.40624234095659295,-0.01603087821817768,-5.101057755600987,0.30353060342382826,0.05605136900017406,0.5183472037962599,0.6600738957098592,-0.07971706930411222
0.2162896030638864,40.10072749875205,-0.03395940683700146,-94.60150001711735,-0.19154576376903398,135.42128498479522,45.95915420848138,-0.48518490148551247,0.38745095577209876,0.13952694174076943,-1.4331722244560015,0.19691277812673588,-0.3467422688349576,-0.005239707689272361,-5.338573683342885,0.6896250496181802,-0.16482379268107727,0.6102248651806065,0.7584182124224713,-0.07616353657969882
-0.4850218323038553,39.30695645013254,-0.03289101405111098,-94.67703750500247,-0.1676912435356972,134.62773979488276,45.07182271923665,-0.6523295959119509,0.5309632044773842,-0.01949703623420542,-1.4288431690632122,0.27528654767195176,-0.23352348847696178,0.017747047676941394,-5.174152738939797,0.8451332968675513,0.34561177124992004,0.6655413961848323,0.8876153910270066,-0.040344870345294305
-0.8225634352990128,38.442566955955755,-0.031910096006465924,-94.71526430141459,-0.16713779285567357,133.8234059897413,44.57731720745707,-0.6966838930456818,0.4678217368127619,-0.044103988339793516,-1.4062916306965076,0.27271145102147115,-0.2032010266553959,0.0017176353953965572,-5.2555785299357405,0.8540738786080384,0.266093753289065,0.6736535870604967,0.8837630279598936,-0.07404228699682304
-0.8549520209854209,37.641796884964386,-0.0303658012902631,-94.72907692517472,-0.16705076721333498,133.03612499377846,44.46682344263308,-0.2914291847994522,0.6291017760341124,0.008888246616851789,-1.5456589274009103,0.2536280096116512,-0.2408939993357769,-0.016781355765515205,-4.939403076374852,-0.12897743393855537,0.5701988512315685,0.14454175813625078,0.8557687094765292,0.13772446463840257
-0.5444385627063459,36.7953830017197,-0.031978828116795345,-94.73138695560878,-0.16678758602285798,132.18705685163502,44.51098705433217,0.28578923174768733,0.2750190217506362,0.14747254742817523,-1.0582974523962303,0.2289443304211864,-0.104249716939293,0.28780842408941665,-4.621923125258781,-1.3062746419686433,0.43450999713184163,-0.2859352788606499,0.9297365558822048,0.3038194877277241
0.1744298090171189,36.09324635300105,-0.031184122094826204,-94.7295080993738,-0.16688242823346988,131.36898868709943,44.996816604968785,0.6299392666661017,0.5012786417915529,0.2197824268846844,-0.9868389529800818,0.18232302347860518,-0.05932335545203541,0.28007497543981485,-1.9283758670152653,-1.2928783395361707,0.3549877078438942,-0.3887920839815196,0.3894505087277992,0.3547416056939065
1.2471820456590477,35.43492293296916,-0.030678973954518948,-94.64695102450287,-0.166809012049865,130.5935157028065,45.88128806603591,1.0408196299712045,0.22230702391025237,0.5522246281958959,-0.3482978205092986,0.13428278787249986,-0.0370218104294994,0.2804959108506793,-0.22804751050142424,-1.443957655701926,0.15503894442435068,-0.3883136991802834,0.06077429102776013,0.2955068761596336
2.636584915855037,35.03545055135557,-0.002294937185892479,-94.40868595311865,-0.16728961180347007,129.83506215052094,47.17911514415209,0.8811439157664579,0.17111837592861506,0.5977593059009005,0.15904923923594733,0.07452974313777985,0.06948314746609943,0.2293661731460367,1.9041247926402118,-1.5606926933510428,0.07601720036316367,-0.36871532224534065,-0.26448839805691654,0.2244656932606329
4.276447013772032,34.75753150836954,-0.000867732722794311,-94.0081870539644,-0.16784207039657945,129.09363573135755,48.73110214727255,1.1624587086980511,-0.28157333110566085,0.803369742965346,0.6571102372153741,0.029196826088095047,0.1431629389323551,0.20995433536234875,2.4303712628407994,-1.1127260896730289,-0.22053159559746494,-0.3139748613721143,-0.3685545848165894,0.19999848603993503
6.1229000153092565,34.72831328753131,-7.2668164919279596e-06,-93.30614863113239,-0.16876027602698282,128.38477817975254,50.498270464268934,0.7290932627807879,-0.22213817320264537,0.45682660532721014,0.8163745064320915,0.003506213404650082,0.17691077670064115,0.2080157824805075,2.99013479240983,-1.6300326845708124,-0.27178073213111803,-0.4332899210204292,-0.4667545779892857,0.220878680647513
8.122725395636524,34.91106919143166,0.018192051145841794,-92.35633634261615,-0.16899999836979934,127.6714511964688,52.44236314199629,0.5280533177342174,0.34962269924464867,0.339162912702769,0.9338332255503956,-0.02571896859611934,0.3058062410591075,0.19886335031716443,5.056699927177156,-1.7128818742125969,0.7302987020655708,-0.4274095901503328,-0.6819438061993268,0.1991271607532468
10.185082896532473,35.49603954201016,0.027503636336812545,-91.09674488783207,-0.16986266164922142,126.99887759386652,54.49679277032504,1.077769762106806,0.3561693397348541,0.7471708851580444,1.043760459082658,-0.028336352600582492,0.24968902491704806,0.1522044423637769,6.0757627616855014,-2.2542958797369765,1.0798301279630398,-0.5164928459841147,-0.9618339641228997,0.16046642196163677
12.24452427462954,36.35877567885156,0.027474184440765388,-89.51735066367307,-0.17026994347676627,126.38765618358673,56.58102574439968,1.0791399607906824,0.4909904838252363,0.7267467410206632,0.9089564891998103,-0.037667698225514766,0.20063851712900987,0.1216852408511861,5.52374886529909,-2.852569316180044,0.7157241883258455,-0.6132733215684973,-0.8904473320384015,0.1354170426829214
13.264886979076044,36.94652628621136,0.02768204686534623,-88.6400542243766,-0.1703170638447887,126.03646634937013,57.61070519593762,0.8060311730801767,0.3974811458831356,0.5261939686532796,0.9091262043595902,-0.060193363934110594,0.21983943185950583,0.08737786379243519,5.331816437743927,-2.576471184605795,0.6099574745878483,-0.5551204692817896,-0.8372054499856517,0.0947864245472042
15.22121067063215,38.277516879889234,0.02737764595703641,-86.71838767975812,-0.17056791843301988,125.4271996139738,59.61702878874228,1.3612248043840312,0.4906224627779472,0.9281441749246137,0.985653780774102,-0.0788600219001237,0.21085816087855946,0.046687879362159686,5.9501152258251295,-3.6847311588080607,0.7069637681351112,-0.7454290813669481,-0.9767493672838866,0.059174713025175865
17.009050576177252,39.803634259166174,0.025329859295773142,-84.64685801358193,-0.17139050984407883,124.87048203567836,61.50764251254875,2.216359877340347,0.23236434862811872,1.5597306292883453,1.035732970567574,-0.057693832859807864,0.1390445424476264,0.011647806691032363,5.329135102157957,-4.876476378475215,0.22923936131269418,-0.9325350093411722,-0.9837700389855115,0.03184082894696945
18.58333823302775,41.44697492824788,-0.00028406531117925,-82.50148145533838,-0.20830418290528302,124.4322812630176,63.242122061610196,2.3148434751602895,1.5611828855165413,1.4806958103227157,0.30549986594295325,-0.18129245993302362,-0.010974075563713093,0.00021869397986972602,5.897868359463648,-5.363863853686038,2.09434881082517,-1.1698938679760038,-1.043464130271523,0.024627003685436386
19.979085201725347,43.128668375531504,-0.014217110781128181,-80.44921897119096,-0.20994053196391077,124.08894155168268,64.7194538714149,2.0021019928631816,1.1130468683185286,1.2362843656117948,0.5706948125970142,-0.13856405494778837,-0.06575643065617537,0.03662400226506444,6.3236555120008395,-5.2787457994977,1.3535294856220057,-1.184382078489223,-1.2463317763721384,0.05974633430501929
21.112129089724945,44.796208166408896,-0.014475854563571356,-78.59829260181984,-0.2102989866146155,123.85768799047834,65.90912725217537,2.2499843674415203,0.8279958925742713,1.4023006263620952,0.7726899813871012,-0.11744091840635809,-0.11488698317912045,0.05788495047951288,6.668836613083819,-5.922807857032132,0.886669787475621,-1.3233970172581713,-1.4126825438302657,0.08123438740020367
21.911417685548294,46.302864113735744,-0.022126684305087227,-77.12341993211922,-0.21050109056408317,123.83049332928623,66.86121760239216,2.3595114747008585,1.2095714734507035,1.4501176019869204,0.7208342747361544,-0.10140289088310601,0.1943831299173701,0.0385603443643115,6.880532558302822,-6.268927288351625,2.0272631664150094,-1.2211465403689996,-1.085050632049677,0.06698769930481288
22.450180081572572,47.59717498190336,-0.021174438759012603,-76.14223902860496,-0.21045661265506593,123.93772827122338,67.5010436052267,2.0756909231867615,0.45241219675021177,1.2583521893342682,1.0927590325761358,-0.09746704545200323,0.4014898807801179,0.05858216840221293,6.498624583215527,-5.793082012759043,2.4083804590987956,-1.0325458610309324,-0.6768358972943532,0.11793138292049482
22.6841192914849,48.580979482950724,-0.020910119491904498,-75.69524623619799,-0.21057783433017355,124.44893572128309,67.81407021424785,2.0933958860782957,0.8047782945558102,1.2388539857975784,1.0018123375500876,-0.10383313786916615,0.5689677904267997,0.12671041338643452,4.986666465919578,-5.25999366407351,2.312655995889554,-0.8333048290295784,-0.4032643779065882,0.1252471683021936
22.639225095964346,49.20524867266771,-0.04083853086646061,-75.79032087067588,-0.2107869788731761,125.27244892207392,67.85485333670682,1.7799803083285426,1.0379651823142884,1.3755721130081546,0.22113049626035955,-0.0747700323011699,0.4377293727551755,0.07964854162120413,0.9028456222642792,-2.459342191980608,2.711264565108219,-0.0644681809315159,0.246702213770031,-0.1392251578504258
22.287647291774437,49.46897110951189,-0.038797925307907856,-76.5255022935616,-0.21033373682278922,126.33910380304349,67.78992320115286,0.9420835133061655,1.5872149009549894,1.017999757746451,-0.6152157471263215,-0.0567958219763324,0.32986345945946144,-0.22120799842525252,0.1723977621799478,-1.0532690369488797,2.4840168701709784,0.31013000424507675,0.38396674641369066,-0.24743388118637183
21.60619035052291,49.51595182076607,-0.037120840382867386,-77.83079547804786,-0.2105428686994834,127.65441910935924,67.30363086317419,0.5549994880191144,1.3408222007209518,0.8099626536774036,-0.730495423573575,-0.04983314993932217,0.26919727578429703,-0.23450490633902227,-1.3202983700563204,0.3636861259924614,1.519241610950561,0.5670356440002401,0.5940351119694379,-0.29531998495581757
20.612634934401378,49.35079689045735,-0.03385267041169093,-79.57402992486605,-0.2105602087494764,129.037225887717,66.47128181662353,-0.07157167393200457,0.48401459743003145,0.3459069577815434,-0.4879107157592835,-0.03632174627994398,0.32985260119958487,-0.21900984871500057,-2.068224912265329,1.190024316388545,1.1335453834901583,0.6867073931890708,0.7254419182720051,-0.27774846058691793
19.31755458323987,48.85766651230843,-0.03486876167200787,-81.54812479086013,-0.21037950860397758,130.49070008814286,65.2820645835459,0.19524082858326525,-0.33106109279266577,0.5389453342793146,-0.35110407357383516,-0.013382518811630262,0.3102059557562794,-0.18524099218550788,-4.675600879909968,1.2606614912659921,-0.3459538359854393,0.6801212746146242,1.0514402614478506,-0.2407620605762843
17.76396380766529,48.22661670867861,-0.03651525152001661,-83.66418828282843,-0.21055365040658958,131.97650485784564,63.861321152053634,0.10256089433997917,0.41301233349442285,0.5129174945426278,-0.9204140995508134,0.00015366708685938724,0.1934459386823284,-0.20146247234862458,-4.3401412061201485,1.5758769969696393,0.6141960454862905,0.7671891731352798,1.0261521053033191,-0.26068408030057755
16.896257368088296,47.820770112520776,-0.03724613597703316,-84.69969797651932,-0.21068287210485445,132.64974899938562,63.024771285356664,0.529334136583636,0.19587568244274692,0.8630616109673149,-0.7436182885084123,0.04476059222750123,0.22050995479592678,-0.15975173845147775,-4.548412642505837,1.1639241512093113,0.7306011697672776,0.7368058890090557,1.0231062685305288,-0.22408578793981992
14.08229755195725,46.613692187978025,-0.039123268842140284,-87.71262085589059,-0.21002341497713573,134.50941362642254,60.30064311390761,0.7018043076503293,0.2715192136993191,0.9695504030647611,-0.820439614012517,0.06344016816567581,0.19538529200225643,-0.12633164102532704,-4.288580826573273,0.2900675839033582,0.3797450419367682,0.5555526395211804,1.0044531822040432,-0.17306670606959665
13.104481596182278,46.14464455969687,-0.03819529102115299,-88.61365683088785,-0.20941019695194332,134.99312598264135,59.34386502796904,0.1408376919881982,0.09044199788102697,0.6218765614379231,-0.9452086672680113,0.08908012830062233,0.18821349480867405,-0.13360544106586897,-5.15451158188726,1.1592537587378975,-0.027944458534086815,0.7627676304459009,1.1528488270542456,-0.19628483372755637
11.023188221482147,45.33311055387152,-0.040520439866162224,-90.26120182380131,-0.20853410196324493,135.8413545025197,57.30001500201157,0.2146307578011324,0.6212414359137949,0.681958275047189,-1.2100174302109215,0.09102432846091782,0.18436798993830958,-0.10429018900232814,-5.00346013565766,0.7794701422429942,0.8600538249208727,0.6944984486769892,1.2126601521609648,-0.16900499312986622
8.971077448669451,44.45128451495798,-0.03781717306056209,-91.62173532641579,-0.20770945035063643,136.40284719332644,55.2173142319511,-0.21976305254581974,0.39256748686492404,0.3013273044111378,-0.9940908166152844,0.11698498923326153,0.23012794591263483,-0.04720271666626832,-4.492481742172732,1.0628729872266174,0.6148290030204162,0.6838847064119215,1.1591329261615313,-0.11202998762077165
6.9817673990104065,43.67264110294034,-0.03652976952919922,-92.69871728260254,-0.20758008939472494,136.70984499757517,53.13767148309511,-0.32905430723474,0.7327425459031399,0.2712953944526125,-1.3636360471102915,0.14852784939855534,0.16578210846537791,-0.01350991333403989,-5.250829202964324,1.0932405663839313,1.0356442210153831,0.7174272219604246,1.303084640922234,-0.08888962600912835
5.054643112576818,42.83277583851422,-0.03837839719592497,-93.457751284699,-0.2072351216816004,136.762188144199,51.162502945528104,-0.581869644866516,0.6482950409534002,0.06165150977457892,-1.4117097896598845,0.16385586291257712,-0.06173485350577411,0.022488433782940336,-5.150818358302446,1.2207317730126146,0.5567152809474778,0.6800506740896838,1.0325418282787846,-0.05660184425318263
3.3467363308423055,42.0604525102616,-0.03584395406991205,-94.01053006779455,-0.20648388091812434,136.66444713419136,49.3287544725236,-0.40476006364933104,0.8330938741734482,0.17216540162783542,-1.446560510199771,0.16144623063049474,-0.27257262017385864,0.04092056877267231,-4.349884323184081,0.7339441911549527,0.6176604134499135,0.5487561737773696,0.6726617760405879,-0.03296509359205734
1.86405583006747,41.24438339406191,-0.035526876158583756,-94.33769842253788,-0.206058522578589,136.28074945457118,47.74137062121015,-0.5215005133928551,0.967851576762954,0.09038267197453363,-1.6195223856859815,0.16705865283151453,-0.3893389205343296,0.049758752228951285,-4.575241083045882,0.7795718781298878,0.6823677833985622,0.5557589930038285,0.6194254337532145,-0.0281162782800232
0.661407154035129,40.466403403100436,-0.03704493952002772,-94.52731839115937,-0.2055621047850556,135.71935698219042,46.442152474081446,-0.2705375258490906,1.0349060516914437,0.2983529529566648,-1.909287344299876,0.16686570631764364,-0.49873175381636287,-0.00020834472435816566,-5.600256400788307,0.41287916743038133,0.6115106733216259,0.5328457777044319,0.7265136824243346,-0.07136684606139308
-0.21063408022302824,39.64082772102283,-0.03556659233160302,-94.6124573645446,-0.20532631197952667,135.01716645744096,45.42565616867518,-0.4945942777537911,0.8961532001964908,0.10781594530465258,-1.789730169974509,0.17305321366816523,-0.4243738926605441,0.016260907954576548,-5.546876886120932,0.6640294201661403,0.5473982439576179,0.5575463782069334,0.7880022312178402,-0.0563716258425805
-0.7254932676982457,38.83217722893672,-0.035824256720351104,-94.68138109880056,-0.20522528749882513,134.2534348127918,44.774773364496205,-0.3664233565859729,0.8986396582269492,0.22586739916934073,-1.761260695639979,0.15303625042269958,-0.39491420291615575,-0.046343789903347095,-5.45151582872753,0.48279174095649857,0.7196231041148683,0.5534061946767319,0.8188801951221016,-0.11786933137559358
-0.8900054787891185,38.01045843521218,-0.0355599908031972,-94.69660450020793,-0.20518262567186843,133.45109280816658,44.50943929987774,-0.24675697839728933,0.798056855358314,0.31644857591190567,-1.7181358627868573,0.14259004109618098,-0.3795691789618734,-0.09738587106025669,-5.871493967680715,-0.1901605896266237,0.6103437408591726,0.3123861360367256,0.9170819540535348,-0.12753583178843342
-0.7957052122049156,37.17202602922138,-0.03820523996775694,-94.71295516320322,-0.20508824451243235,132.60064992617907,44.50113744826995,0.5631859824840931,0.7294431752985095,0.5547698798111234,-1.7358503710514932,0.11823271334440885,-0.45485062029568163,0.042941497454239294,-4.647730264848986,-1.6845014681045969,0.6794738936416377,-0.30822581784269826,0.5827676200689924,0.22271086570371476
-0.2518611944577378,36.41357444586087,-0.03812204314443486,-94.7116787361264,-0.20503967405581205,131.823078698283,44.75572222092995,1.2770070863200937,0.730744911645654,0.8851869213808216,-1.650645391061395,0.08629095397145393,-0.44443396206625174,0.193986174846205,-3.8835757059228837,-2.2344418912552784,0.7026717487879295,-0.5428816800489702,0.49182085165142564,0.26285430224655654
0.6617206412050679,35.69779635517334,-0.0365856028735104,-94.67603820746695,-0.2051215719895062,131.04059465550597,45.44280869939692,1.0668698732225943,0.622687079860589,0.6007725357020072,-0.9981977507559273,0.05741330059818961,-0.38638911707055706,0.27746875534113485,-0.998600507931257,-2.330433110782754,0.7269565232804358,-0.647067288771298,-0.05756642885849472,0.33491968825015206
1.9318909993123572,35.162390649266776,-0.032472303716421375,-94.49127074003822,-0.2051104665152993,130.23573098033654,46.52920695572575,0.9720541794318659,0.7228635252768734,0.5614705479653969,-0.6250841250729362,0.01842030852243754,-0.3343080258402022,0.2812346942516988,-0.37698502729042577,-1.7859818310283535,0.6579917274219514,-0.5496226723428834,-0.1926325196091996,0.3093610466813409
3.4617432366622394,34.82226157302072,-0.01018187813322815,-94.17733062281845,-0.205345857278267,129.50326580936905,47.96093020128995,1.047063622118924,0.4559024230951776,0.7116987579823421,-0.17260848446815052,-0.023756447839924696,-0.2506693999440397,0.22487850492602962,0.9050393093600188,-1.8868221940152523,0.2889990702220172,-0.5257733193993747,-0.4093299415824983,0.2362344139595843
4.3139752521871655,34.725454639967865,-0.002647083624512618,-93.95492083869276,-0.20557999412463984,129.127391948605,48.770910666201644,0.2409466811469215,0.10225004543163899,0.13484611649277256,0.32738018961890725,-0.05558664467988415,-0.0739766105003076,0.2538033246297065,2.058995482078526,-0.9065104690887699,-0.07558315027127363,-0.3777528920333626,-0.49886893523854575,0.23975559168757377
7.195161551627244,34.7498320330741,0.03403801911101107,-92.82578876793819,-0.2062173201423117,128.01786601194013,51.48514382111528,0.639114370462202,0.23861485083974174,0.4420154537751782,0.7624490315443729,-0.0795101598387157,0.1023363697058545,0.26028273794357576,4.244815666844386,-1.8051506807913493,0.27695432079219057,-0.5413667037931444,-0.7471510605668568,0.2477847017623938
