BIOROB-Lab-192/Bilateral-Teleoperation-TouchHaptic-FR3/Data Collection/05132024Gear Ratio Estimation Attempt 2/GearRatioPose1.csv
q1(deg),q2(deg),q3(deg),q4(deg),q5(deg),q6(deg),q7(deg),tau_1 (Nm),tau_2 (Nm),tau_3 (Nm),tau_4 (Nm),tau_5(Nm),tau_6(Nm),tau_7(Nm),Fx (N),Fy (N),Fz (N),tau_x (Nm),tau_y (Nm),tau_z (Nm)
-0.012068373134899946,-45.044065305712586,0.016952688921277385,-134.92177558035755,-0.024027585420419547,90.02819416158383,45.0078075614342,0.33956615024676445,1.8638599796999173,-0.5448821601774061,-2.7095399960212228,0.5615764516393188,-0.7326042328454787,-0.15844078914975668,0.005038885427657024,0.32408796927088807,5.144032583850484,0.7128745946639413,-0.2810257456471532,-0.2568950338702646
-0.011970755272364858,-45.04406530546887,0.016993378199363498,-134.92167132164403,-0.024106999617903236,90.02815075085901,45.007708550009674,0.3349775411320344,1.8770981373847162,-0.5429110859905573,-2.71739738718344,0.5618921493401687,-0.7325464093184294,-0.16170113814478068,0.0326570936088228,0.32927240808185565,5.158714498757705,0.7124281450017776,-0.2854869528060903,-0.2579574992489499
-0.012068875559121527,-45.04415893793189,0.01699337889421489,-134.92155433143785,-0.02420918461678853,90.02815075085479,45.00762172855987,0.34340606019909503,1.897268912056219,-0.5395268882766582,-2.7168800403541304,0.5617264869140303,-0.7339895939665539,-0.1648281508099602,0.09517408909959914,0.32408660434957337,5.140214180353901,0.712276936873711,-0.30171132758314323,-0.2623932784517395
-0.01219094593742497,-45.0442565740576,0.016876112888030457,-134.9216734404863,-0.02397136469390255,90.02815075085901,45.007844974501914,0.34552422690486473,1.9084141088248199,-0.5293124703244614,-2.7296223866848868,0.5595893235303319,-0.7346806039750173,-0.1630798001396746,0.0515436837720757,0.3018987648482445,5.1337264874899216,0.7076511305300061,-0.29206920568073574,-0.2597137881956543
-0.0121833862720838,-45.04417578793466,0.016993378897062355,-134.92189474576352,-0.02424129356410583,90.02819416158383,45.00794254964756,0.3452343292124887,1.9110274184006142,-0.5380295892315548,-2.7243527674196684,0.562249577750134,-0.7360739646672085,-0.16068578872422515,0.12224615386725131,0.3121384663119214,5.148436546595031,0.7109704391957846,-0.308767902267225,-0.25906380899396464
-0.011872635062426733,-45.044140382399135,0.016891220337119116,-134.92177552213144,-0.024131376819175397,90.02810113871635,45.00776492772279,0.3509026728294223,1.8867285331804706,-0.5212228341259888,-2.7200902329127845,0.5627691852202397,-0.7345465392626994,-0.16648577707434445,0.05545752848142903,0.29015632700506766,5.155610486707729,0.7048220247163347,-0.2925612921954467,-0.2624395654572128
-0.011970680850470415,-45.04412148691025,0.01711254205253454,-134.92167392768954,-0.024191097472493695,90.02819413382305,45.00784572400731,0.34206528198283986,1.887101397675452,-0.5464429866259124,-2.7167351593756357,0.560799702068166,-0.7315321669543695,-0.15793444731686387,0.04774295496159807,0.32526601598083715,5.143492958381812,0.7134954587411645,-0.2915207195980516,-0.26212619073039123
-0.012069377830106682,-45.043949398791106,0.01699287446015725,-134.92189476158038,-0.02421822719310927,90.02815075085904,45.00770929029663,0.3427141584434216,1.8849174823736108,-0.5393283028334963,-2.7198749641728717,0.5605392853877491,-0.7317175892153099,-0.16076214047837592,0.04706306003532723,0.3159020768076175,5.155797920083255,0.7084113658421833,-0.28893171946911356,-0.2597332770773404
-0.011970755493519647,-45.04420019994621,0.016992876550095206,-134.92167393370264,-0.02412251818712276,90.02810113860212,45.007941044016334,0.3434929521730297,1.8824160829070178,-0.5431965934274522,-2.7136052135688717,0.5614202486645526,-0.7327103236228615,-0.1654790755386327,0.07955179172511255,0.31353529286194964,5.1743112801114455,0.7104570640748377,-0.29587427577178366,-0.2601865875802657
-0.012068875482871009,-45.04405934390445,0.016758510410634916,-134.92177400631843,-0.024217361048883394,90.02819416158383,45.00762171930493,0.33559633428585844,1.8988512439674714,-0.5437533050722341,-2.724202868187914,0.5589460738368922,-0.7344560259486974,-0.16217283808206895,0.008681924695715888,0.3174198239035312,5.146868845234111,0.7098313765603261,-0.2840388037555413,-0.2562427843305409
-0.012068875253173768,-45.04401183943673,0.016891238338549046,-134.92155427730438,-0.024012431357367595,90.02810113860211,45.007623968042545,0.33147116097061585,1.9032625617155627,-0.5484513388784752,-2.7149962167470933,0.5595984372834044,-0.7318917831729914,-0.16241177214072613,0.05405545583411529,0.34350441253318237,5.151595015036821,0.7130347159046511,-0.28930382364779694,-0.26001616589022214
-0.011970755272341472,-45.04404880835291,0.01720865175043856,-134.92189474376679,-0.024174807183077032,90.02803226080349,45.00749228166814,0.3444258654756491,1.8999988392723905,-0.5350006080928568,-2.7222816601972553,0.5609658928241287,-0.7338170749572855,-0.1622346130452502,0.09141974763243665,0.3148339076980148,5.132517157264195,0.7099307879591098,-0.30182133732522376,-0.2573010848038316
-0.012069377830106682,-45.0442431482596,0.01687130925044644,-134.92177558631715,-0.024147578004321917,90.02810113860211,45.00752869637541,0.33928108041475646,1.8855465212313776,-0.5459778115990523,-2.713361285793236,0.5593614426666372,-0.7327986093753571,-0.16239874994752557,0.0937431743792101,0.3096350832631766,5.15172194517216,0.7086628240378877,-0.3008242340272283,-0.25912672544289395
-0.012068875480665318,-45.0438526923037,0.017108018913756604,-134.921761407556,-0.02398492820928796,90.02815075085901,45.00780156476643,0.34305536201719966,1.8752046210798126,-0.5340930615397627,-2.71759117990174,0.5598117601019903,-0.7318845705062258,-0.15625700202083237,0.10053314056952185,0.2928302767018969,5.175217040726023,0.7042893297563019,-0.29812697213840755,-0.25698467721097007
-0.012190945937413284,-45.04406529866458,0.01707134962960165,-134.92168708212517,-0.02421521209251959,90.02815749672489,45.00780239656057,0.34037261679260694,1.8995801473664788,-0.5477558593393133,-2.7210021494540766,0.5603057122198584,-0.7316731674180216,-0.16207361127836117,0.08148944215544794,0.3002570377940186,5.135216257888478,0.7074552311901561,-0.29701320020554545,-0.2615755579862675
-0.011970755042636642,-45.04411867915082,0.016993378888450022,-134.92167348816486,-0.024078531358429144,90.02819416158381,45.00772905916004,0.33770168584664334,1.8901646923387094,-0.5474037003676276,-2.715514864251957,0.5594856159595226,-0.7330211013769304,-0.15970847983460748,0.05376166831307535,0.31033611366705527,5.167317601637143,0.7092256824092221,-0.2910824030632852,-0.25326953031119315
-0.012068875510913495,-45.04406530547687,0.01699337269524809,-134.92164824589898,-0.023991794360678977,90.02815075085903,45.007844974462444,0.35281453193288825,1.8998945667996288,-0.5325483267476147,-2.7227285167836213,0.5616031282094534,-0.7320178103167491,-0.16851469102179942,0.12753729685035126,0.32852911594229367,5.138857174699614,0.7107662310284312,-0.30680762612466805,-0.2664761034476604
-0.01197075527232985,-45.04404226152392,0.016871141827613217,-134.92154011098611,-0.02421169635259757,90.02815086190162,45.00764783104972,0.3341692438510995,1.9127124706120755,-0.5504561694971499,-2.733239554415901,0.5606624940118221,-0.7320893810863641,-0.16502275696909796,0.11694787110242906,0.35012851348687923,5.183082166820085,0.7162614369543951,-0.30062048330659075,-0.2620778378039769
-0.011930065120675683,-45.04390439816011,0.017088090999579485,-134.9217755803557,-0.024197128284455187,90.02819416158381,45.007865239822145,0.3460651710036129,1.9051371898403195,-0.5303550990445486,-2.720900971105302,0.5613035143763739,-0.7336115421481808,-0.15644878194734155,0.1132418898153016,0.29196913404636404,5.1477851913291195,0.7054477844565146,-0.304468296888779,-0.25443326401077415
-0.011946805026753103,-45.044065287084806,0.016731330156922537,-134.92181604064157,-0.024218143357881913,90.02809003806634,45.0075664869793,0.3473859241897728,1.9006954726843261,-0.5312416989340768,-2.7185999715012543,0.5634175251142197,-0.7339295656256278,-0.16247381056018606,0.10295271679667585,0.3011785447526057,5.143172080334493,0.7089409629446771,-0.30303097685692254,-0.2597951498431018
-0.0120688759419506,-45.04395083189587,0.01689065606007049,-134.9216734404587,-0.02392151772787073,90.02825562391709,45.007983703029446,0.34949299562406966,1.890604085995322,-0.538873601656308,-2.718412298221041,0.5614012714975415,-0.734325652223166,-0.1611757772415591,0.07097232988504901,0.31276598800932776,5.148511626850495,0.7114270322529064,-0.29622748301236584,-0.26094490239562745
-0.011970773903328277,-45.04395083187241,0.01699332231403193,-134.92179188523292,-0.024005271199708,90.0281334487912,45.00790796361817,0.3488905790823992,1.8885201480426939,-0.5349204652215938,-2.714769515304122,0.562791758274248,-0.7324350374735793,-0.16232164406057864,0.0735147117529504,0.3069133270156396,5.1434023018382025,0.7105356849494876,-0.29531887869859436,-0.2608431436424193
-0.011975278466627819,-45.043932292570375,0.017098972581897433,-134.9217755803574,-0.024215239873998828,90.02810116640097,45.00782188256254,0.3405130398048745,1.8804179724751269,-0.5461833455027919,-2.7105691801169143,0.5604059883870737,-0.732577140419654,-0.1676000702811888,0.055366802890939815,0.34390737836201113,5.135999980448996,0.7152455798565228,-0.29229462639439424,-0.26530534597378264
-0.011971257619845261,-45.0440637911663,0.016768664048022273,-134.92167392768675,-0.024218227210593277,90.02819416158805,45.00770854418318,0.34765203874611117,1.9025126347771284,-0.5351338379613976,-2.727083501787731,0.5610167477293682,-0.7331428788794986,-0.15967631067328547,0.09447342049996368,0.3053096148656097,5.169119582910704,0.708696845355082,-0.2981729861057223,-0.2585232630525877
-0.012081824911715734,-45.04400967093411,0.017110532395320538,-134.92167344048534,-0.02411302763080566,90.02815077861979,45.007869272242985,0.34829960384902914,1.8898763588370977,-0.5291397716566981,-2.7251747217194673,0.561504118405955,-0.7339513339443701,-0.1636031177859661,0.05701828940356904,0.30139382776088963,5.170065993843147,0.7070315965832847,-0.29101817217563936,-0.2608730522590852
-0.012068875482555828,-45.043936927234725,0.016866787920825837,-134.92166922364996,-0.024172555578970488,90.02810113860212,45.00758730295651,0.34764395175455787,1.8890085315117469,-0.5312408784250596,-2.710873504551382,0.5607969538460421,-0.7311399008392655,-0.16171862103259968,0.03468215647758684,0.33013440362752305,5.171921946238959,0.7134301286160484,-0.284250250593301,-0.2563188792923081
-0.012068875457033928,-45.04406381576524,0.017091041199528798,-134.92176157846941,-0.024174812351098467,90.0282812328803,45.00776065144358,0.35100321414140906,1.9031648719241545,-0.5346118588565223,-2.7162885965637016,0.5619925974389295,-0.7334749421044344,-0.1584945394243477,0.11550030905027125,0.2989542567261162,5.135655014809345,0.709100658152292,-0.3058738386252047,-0.25824904979154817
-0.012183349061148914,-45.04416192780133,0.01721412378724887,-134.92178873479318,-0.024196347174448865,90.02819416158381,45.00758055687769,0.3391999072464908,1.902950749284565,-0.544067901126361,-2.718157845056961,0.5609126196078714,-0.7324552386293457,-0.16738468091869846,0.11349604666968671,0.32244598671426855,5.146551485048973,0.7117747804367879,-0.30194803486534677,-0.2592321784260338
-0.01206887549106313,-45.04395082304258,0.016991871864703165,-134.9217755803552,-0.023993887778330964,90.02810113825939,45.007710817138694,0.34909564795338427,1.8856101532210068,-0.5396894207426032,-2.7132875874918105,0.5604330805028228,-0.7320298532069256,-0.1596573936662935,0.05792505854763951,0.32031552222447257,5.139153654523649,0.7111212889228024,-0.29244520838816573,-0.2601720669789098
-0.012109566323266133,-45.043828099140384,0.01697981352911698,-134.9217755803548,-0.02398944003059881,90.0281507508971,45.0077589025582,0.35105407944106254,1.8844137818149536,-0.547397010148755,-2.7199912006006612,0.5592958473879376,-0.7311259782966194,-0.1567655282836069,0.12211468402766573,0.32569952701513316,5.154123340331199,0.7128683876049728,-0.30351556854671163,-0.2641691522387264
-0.011970762162297486,-45.043946360465796,0.017112523472722435,-134.92177558032813,-0.024217944900153086,90.0280900380664,45.00766513106354,0.34724821169784253,1.9025581479943672,-0.5374240835601359,-2.7221844882798703,0.5609444333594715,-0.7330100026498102,-0.16408464937533307,0.08083104539630157,0.3020074005825325,5.134921924427152,0.707303994496595,-0.2987440015518159,-0.25949373999746256
-0.0119707634506847,-45.043897202188546,0.016932904658451344,-134.9217756531827,-0.02421520382437931,90.02805772787733,45.007845733269356,0.35755137762815864,1.9028895998178452,-0.5163707600155547,-2.7140173558843457,0.5634960027479046,-0.7306088953486345,-0.16024696644566055,0.09834948802089967,0.3205665302039021,5.141602329221256,0.7142945744039304,-0.2997822108943633,-0.257305810402183
-0.012009933369922319,-45.04406512057816,0.016992709104867703,-134.92177996517586,-0.02421747353623667,90.02810138846169,45.007685395847865,0.3339214160738341,1.8740398724401102,-0.5524185444023719,-2.712395409064961,0.5599863393045152,-0.7303405648449078,-0.16527396568123826,0.05925286657247589,0.2943855815307927,5.137741824542722,0.7056599500649646,-0.29181736716825474,-0.2562873192335207
-0.011636258392760042,-45.044025081205824,0.01699331687076253,-134.92177558011474,-0.024013927951913663,90.02819416066988,45.007710834816734,0.34301634732365527,1.900012836935114,-0.5405582299454038,-2.7249533317887376,0.5615870071832345,-0.7342603135156573,-0.1609337149290853,0.08320617417674385,0.3319788899374234,5.17049276406014,0.7138171964344148,-0.2940997357927288,-0.2666917129427692
-0.011970755306359049,-45.04381048271995,0.016891238951070305,-134.92155410240858,-0.02420056554287225,90.02814400499317,45.00775815301142,0.3409598147441335,1.9051403806179372,-0.542805233079979,-2.721847730443799,0.5607845826378007,-0.7312045213483734,-0.1692045612722381,0.05986109924619503,0.3369846816664988,5.16679210916992,0.714519066563798,-0.28986696580541776,-0.25701736990954144
-0.012109063295129991,-45.044257081077156,0.016993378794962485,-134.9217760675562,-0.024251884399111696,90.02815749672487,45.007758402859785,0.34429853209220973,1.892476986695552,-0.543214450854822,-2.714047187267034,0.5626945665539456,-0.7315160609399026,-0.1663603142685268,0.07422312972417588,0.30040356610884367,5.146513367013732,0.7082814650549596,-0.29381975771932456,-0.2611504522479505
-0.012068869280734213,-45.04394463811984,0.016891238329621253,-134.92167342105293,-0.024305019380917652,90.0282809830334,45.00784498304806,0.3423149192992037,1.9200588888343453,-0.5436005576759348,-2.7338572357835376,0.5607018663132791,-0.732298191970188,-0.1620532651006804,0.042847608471534224,0.31397938930648034,5.148880004843635,0.7102352933265949,-0.28815310250237963,-0.2595482006521967
-0.01218334906400024,-45.04390910156037,0.0169888018818794,-134.92171290380332,-0.024069406418484807,90.02810338722406,45.00780165935852,0.34219389338627443,1.8875027318289255,-0.5445332655217371,-2.715107144846149,0.5604766100647266,-0.7312831536422746,-0.15782606669432525,0.07126511573220921,0.3219878737253357,5.1477715800457355,0.7121068186759573,-0.2933091986409585,-0.2571975346441219
-0.01175213331289665,-45.0441634236412,0.016886711720236557,-134.921791830431,-0.02392731746328008,90.02810113894624,45.00758941220178,0.34926927649675954,1.894008966655173,-0.535050186314483,-2.7226472607236314,0.5607735098989496,-0.7318613496359377,-0.16042375912797324,0.07740286048786864,0.3058023803007526,5.1645660931212,0.7088599821824593,-0.29370036549592976,-0.2596289304045613
-0.012082438866432817,-45.044158900695706,0.01685054287170581,-134.9216749018497,-0.024241310446813123,90.02815075085901,45.00789067917328,0.3502268963901469,1.9106199587021053,-0.541165011272402,-2.7347543790284328,0.5607398089267635,-0.7311767385199985,-0.16334651157192198,0.10886342606430542,0.3209625140303288,5.1911214263236305,0.7128113735415372,-0.29729842766596537,-0.2634930227516437
-0.011979797528249108,-45.04392907958701,0.017098972584099127,-134.9215588180484,-0.024197103694593113,90.02819418831642,45.00755343013791,0.34627948420148075,1.886757891782228,-0.5404938451960318,-2.7166153215376143,0.5612279694748779,-0.7317439569470958,-0.1629806109264712,0.0655776686925712,0.32108631820957373,5.151711068777976,0.7122743664673419,-0.2922263553450587,-0.2618820629001241
-0.01208243886642888,-45.044047355291085,0.016891164597668398,-134.9217887367952,-0.02417406296363018,90.02815075085856,45.007931795912015,0.34244691903540747,1.8839178272236303,-0.5515568975245613,-2.7133030550439505,0.5614187103839741,-0.7322502505486332,-0.16033925048350486,0.06191104384655862,0.33718078998975615,5.1425688987271165,0.7169588475480005,-0.29276531019802204,-0.2605556341811986
-0.012183349035630767,-45.043950807124084,0.016830617335010394,-134.92154594364592,-0.024005650121149823,90.0281011478557,45.00786227961493,0.33947145616158614,1.8793193313220502,-0.5471519436738647,-2.714129156761137,0.5601976986883361,-0.7337043441683856,-0.160518586644851,0.043982330899926855,0.3334174990529206,5.144772946990672,0.7136683246505467,-0.2902536084542019,-0.2592206251196727
-0.011970755272329417,-45.044256892770846,0.017070326537397058,-134.92155433210615,-0.024260856492262818,90.02810113860212,45.007758236337594,0.35098871496038353,1.875919428839445,-0.518081696264792,-2.7158542180087624,0.5636312592452416,-0.7316012660500243,-0.1603732801810109,0.03300736355117357,0.27252506328509485,5.15705826086948,0.7022096015455287,-0.2847620112760953,-0.2566062571381178
-0.012068205685821357,-45.04381524901901,0.016993211448695242,-134.92167344048536,-0.024260876145372225,90.02819418934459,45.00780167478071,0.34343560780720067,1.883619201176412,-0.5375517103738554,-2.723028089783294,0.5614187533378189,-0.7329649696833063,-0.15797769624475608,0.0425105643799366,0.3085022286209348,5.1701631999815705,0.7093116007265222,-0.286970473400782,-0.2562817762441041
-0.011872635062103724,-45.04405189738671,0.016871308561359755,-134.92177558035453,-0.024156438508733512,90.0281507518872,45.007641967199746,0.33917064813593695,1.8778268059636367,-0.5391556717984071,-2.709940267254667,0.5602472222048366,-0.73140311502944,-0.15798933122749195,0.04995417996770558,0.3153974645086439,5.138579006901115,0.7089445352803202,-0.2897548508811869,-0.25552983216419284
-0.012068875559121476,-45.04406528707695,0.01689107150292551,-134.9216734407081,-0.02421746469336216,90.02810113871635,45.00770862405092,0.3422290811985568,1.898961771996389,-0.5459728387122631,-2.7202152183735753,0.560762763691659,-0.7337634776576494,-0.16363997224359306,0.04670445260605258,0.32026588279767554,5.154041861687327,0.7125882055101229,-0.2869104711604159,-0.2606724868778313
-0.012281469271378784,-45.04405172548129,0.016988355226164206,-134.92177558035476,-0.024110949067406195,90.02815075085903,45.007639771257544,0.35486244744514994,1.8908075756809644,-0.5250394900861816,-2.7136830505071443,0.5603394754224885,-0.7325727962068385,-0.1613342623296148,0.05051772799463786,0.30413696389987394,5.149648583137151,0.7085044109669991,-0.2894138376703429,-0.2604203104463795
-0.01212296156886442,-45.04377601442148,0.016993378666421578,-134.9216734407081,-0.02417481612833062,90.0281941616219,45.00766513102311,0.3351953078381828,1.886975211219452,-0.5429348622267529,-2.7173616562670424,0.5615565060025806,-0.733637275023159,-0.15976320086416948,0.04600452351752213,0.3368259612628973,5.123015400094692,0.7133629041158221,-0.2922420747446336,-0.25855451505200644
-0.012011445422898722,-45.04390597424769,0.016985448777215893,-134.9216734424903,-0.023967053625157282,90.02815075085903,45.00780256316465,0.3449182129484297,1.8693948630634443,-0.5441733614166919,-2.7061779471001235,0.5605098546014775,-0.730186822833762,-0.16266830157506976,0.05063487124894939,0.3133202608741774,5.1590078117200715,0.7085376422373965,-0.2895118865865149,-0.2587681900118374
-0.011970699532816532,-45.04400566181842,0.016993209305088592,-134.92167017998628,-0.024174778928919616,90.02810105531982,45.00761497651232,0.3381684932119354,1.8805201977244583,-0.5353727376752159,-2.7124216353162622,0.5620840729064382,-0.7329443479763982,-0.1621915132220972,0.005311827111419036,0.30330393000126155,5.142486486603871,0.7079427539256288,-0.2789766026328883,-0.25517394665087256
-0.011970755272329851,-45.04405139503975,0.016979759789360623,-134.92167392768678,-0.024106999490187696,90.02813051327422,45.007981408168924,0.34179565304992643,1.8714896869018927,-0.5448125697441196,-2.7093079239524145,0.5610335920308968,-0.7314301017763225,-0.16437842737369826,0.06766975801975418,0.3173205973827576,5.168023816514432,0.7107403423553562,-0.29174082384298117,-0.2599901722739352
-0.011758161560037584,-45.04406524212471,0.016979790543378677,-134.92177606755516,-0.02415470912321581,90.02833288923689,45.00780156374217,0.34408585222610333,1.8862512592433123,-0.5352603435172526,-2.720773809062208,0.5611015287617024,-0.7309599041646068,-0.1597278308109684,0.07096746519608113,0.34336466394528686,5.145613998111303,0.7154596275640477,-0.29501205599729813,-0.2584652258210364
-0.011758161458930248,-45.04393294846559,0.01721311909533339,-134.92177086025364,-0.024029033549850642,90.02815749672487,45.00775840388789,0.3462223767779898,1.8934582952621113,-0.5340844060554515,-2.720426911555131,0.5600047079812778,-0.7343579810448423,-0.15902221657443186,0.10179669113669103,0.31629720560612173,5.1763123379130285,0.7096611534111096,-0.3003265012356014,-0.26178138525779876
-0.012068408202095097,-45.04390381173634,0.016992709102055248,-134.92177623017662,-0.02405818698269077,90.02813052255314,45.00787120033067,0.33958801986540893,1.8948940242468661,-0.542091940914756,-2.7153992991157008,0.5603905365232991,-0.7317784532635443,-0.16259341761693585,0.04612995726548554,0.31812545586086743,5.14668949299591,0.7115654939703787,-0.2885216887964429,-0.26209225288840915
-0.012183349289892929,-45.0439354317733,0.01711103480735432,-134.92167338419281,-0.024371191784313226,90.02805772787733,45.00786898041267,0.34208388791321853,1.8573221524723407,-0.5513385211830613,-2.7003775793207807,0.5593135254478164,-0.7318699943488826,-0.16298949814030092,0.028369614852807964,0.3306597658617561,5.166515104667425,0.7133128214887449,-0.2837322955001531,-0.2600891504478041
-0.01206870803337221,-45.04391011306551,0.016991809157823577,-134.92189397233008,-0.02413055608226331,90.02815075085903,45.00802936181783,0.3476547104247941,1.8815496422962092,-0.5435779059593481,-2.711602438999475,0.5622156082479561,-0.7324804023431878,-0.16016625722441497,0.07796039046070907,0.31606972061540894,5.1493077798392815,0.7099311479185978,-0.296063103033396,-0.26108464000889864
-0.01197075526382255,-45.0441617450179,0.016991704158605066,-134.92167782596647,-0.023941425503613403,90.02815075085903,45.00775594140714,0.3403303567463637,1.8704429258925284,-0.5435202313570382,-2.705441748831249,0.5613238854751447,-0.7305653988713291,-0.15993457059897614,0.08779061811498547,0.29999988267161837,5.1572294007514765,0.7052270518046659,-0.29789279729579027,-0.25995608779019164
-0.012082438636836812,-45.04416340728749,0.017108020904416172,-134.92167344048536,-0.024254827957597064,90.02816185139473,45.0077152897444,0.341237967867311,1.8803602027916468,-0.5505566418118756,-2.7140493877287173,0.5594627143419181,-0.73178547028237,-0.16163206203586866,0.05000683060602754,0.34096339390908575,5.14827151244634,0.7154033316294208,-0.2892939703788289,-0.2613793685157972
-0.011970680850470464,-45.044007041183654,0.01695067962104455,-134.9217919988197,-0.024113752001323676,90.0281011386026,45.00804735039975,0.3370812828030196,1.8800630103240383,-0.5543913628635232,-2.710801584877835,0.5603352173075492,-0.7318830846775232,-0.16204829582947664,0.05478607267726002,0.34983995608132207,5.138544771184363,0.7175909079726137,-0.2912564828824162,-0.261142663265198
-0.012068875482835905,-45.04401905075078,0.016726804286477447,-134.92177558236793,-0.024175542212651346,90.02815075085903,45.00788921870006,0.339744825099864,1.8988392031563444,-0.5319015010530362,-2.7313652923451475,0.5623004527184543,-0.7339291958362039,-0.16218316812159772,0.0741677005775874,0.3079656703908239,5.182569330757012,0.7076905762525619,-0.2935046404449209,-0.2576544400033122
-0.012024990201411956,-45.04402918607647,0.016991871164269128,-134.92167783128912,-0.02425322170971663,90.02819417050738,45.00788847772311,0.33679467971355376,1.8847251132529181,-0.540948491042803,-2.714730364983136,0.5606249816673149,-0.7319099349622564,-0.15871853503771388,0.0623530161807418,0.3208405929782417,5.147066745404665,0.7100424371394831,-0.29212366753948166,-0.2557532338263163
-0.01206870805826394,-45.0440474224992,0.016988355149592255,-134.9216739255276,-0.024078535378069088,90.02815072309684,45.007912433590555,0.34515493460188845,1.8829570488285106,-0.5433140188127122,-2.717663814931084,0.5612442832353047,-0.7322730091682117,-0.16081625065192404,0.05101559759410526,0.3225860680074607,5.156185514015645,0.7130480977924667,-0.28929762949028126,-0.26024267911929433
-0.01206887548255453,-45.044045938312166,0.016891071579595716,-134.9215557389829,-0.024165439325401404,90.02819416158383,45.007808309603476,0.3453698882169382,1.867735351544667,-0.5484502620335883,-2.7104182204676075,0.5602913558409662,-0.733146854889524,-0.16118376138560642,0.0149257002057283,0.33298464791642335,5.142790295228195,0.7151811631644803,-0.2837570842340538,-0.26167518259303346
-0.01206887548254411,-45.044063145169034,0.016992634682606346,-134.9217755803551,-0.02399238062311863,90.02815075085903,45.00777383304656,0.33951855926409735,1.8739968107787763,-0.5524010384071762,-2.7102099004827176,0.5602690362979833,-0.7312970589987181,-0.1649482378012113,0.03749387263292503,0.3503335299426731,5.142226726376728,0.7175386701392701,-0.2867051157674284,-0.26393072816599716
-0.0119473073755643,-45.044065121259166,0.017112541388973602,-134.92167437741116,-0.02413132202371795,90.02815075085903,45.00786771054149,0.3338176557848059,1.8777203405180163,-0.5562378253422015,-2.711329733700751,0.5594708859700839,-0.7294196667683184,-0.16117094283647598,0.04977046652051169,0.354474829635565,5.147407386933344,0.7174162406525864,-0.28695477959986376,-0.2599255066111105
-0.012183851408703658,-45.04402291069839,0.017111034356613986,-134.92177574275493,-0.024241263881691753,90.02819416158383,45.007682432103195,0.34097083715243376,1.8622199634865388,-0.551003486353266,-2.702646466007054,0.5598545716650262,-0.7294020767532439,-0.16341101797050483,0.050206441880201846,0.30173416148662696,5.154251367083904,0.7075129202435573,-0.2878818083404981,-0.2594955282421635
-0.011660041043481381,-45.04402059479067,0.016856050141356556,-134.92155427930928,-0.024234498440027934,90.02819416158431,45.007760456327446,0.35203110175823843,1.8669516236613553,-0.5216763381215112,-2.704440596504159,0.5628392204063174,-0.7320217118193094,-0.16305265871697902,0.058127934110164696,0.33774823484059974,5.124403290402873,0.7143986058633216,-0.2921508019229658,-0.26028401678703394
-0.011970755272332443,-45.04406083634106,0.016871307205521324,-134.92165956704306,-0.02426127509082569,90.02819416158383,45.007939551103846,0.33336451525306526,1.8915329032479113,-0.5504398626048304,-2.720260558171776,0.561186836726428,-0.7332911635751383,-0.161522215383725,0.07422819701117496,0.316382547247446,5.172385761985011,0.7091074220540747,-0.2921575469273802,-0.25759843508203867
-0.012305419440389976,-45.04377502676837,0.01711103473047665,-134.92156743976253,-0.024174816485591784,90.02815075085903,45.00758940911725,0.3364670152681151,1.844352874589539,-0.5520925708635493,-2.6914654665767217,0.5603740343464191,-0.7286892229524405,-0.1603393210100732,0.09823904875707011,0.3266753269356047,5.153404897591878,0.7144466539773747,-0.29963460367978795,-0.2600453136969175
-0.011859128183712757,-45.04406011202963,0.016885210208793324,-134.92177400639397,-0.02409259852683241,90.028194162612,45.00784500222319,0.34732839184101594,1.8610686643177443,-0.5385771712230075,-2.708817243067068,0.5613017454492506,-0.7333960569688112,-0.16501506582571304,0.10746057563482354,0.2775980549581256,5.140236695022933,0.7032702838827493,-0.3018503102798282,-0.25639013704647645
-0.011970581621320725,-45.043811764522175,0.016993360202451062,-134.9216734465005,-0.02411375859724965,90.02815075085903,45.00768917796479,0.33969784789829327,1.8798121746276248,-0.5431465883265291,-2.7142643261214427,0.5598512777827763,-0.7323091734781906,-0.16185991773003114,0.08255363428256751,0.3059530729305088,5.169246328928222,0.7052110909178247,-0.29284418596607215,-0.2577744232602757
-0.01197125761988072,-45.044027358203735,0.016891239027635625,-134.92162936748622,-0.024266129884207722,90.02833311235133,45.00780156375032,0.33394492192010455,1.9119185300483093,-0.5468841455778459,-2.7413390856874496,0.5597367590701222,-0.7326335584556175,-0.15781164925149016,0.05825951056208064,0.33034608478979693,5.164892257326831,0.713302238291756,-0.28981355475272996,-0.2626875212409527
-0.012068875482555813,-45.04400203132446,0.017160240651999475,-134.92158368383213,-0.024261515953406625,90.02819416158376,45.00778925056549,0.3400935820711602,1.903947721027414,-0.541428940078362,-2.7257291764294416,0.5603877902275061,-0.7337732557647333,-0.16604351157472746,0.07031765028787232,0.32179168769946903,5.161667234461825,0.7125823626629332,-0.29445315543103934,-0.2608781944361461
-0.011970085399029677,-45.04372702138178,0.016877005918720277,-134.92167342097287,-0.02417796887451265,90.02805770011656,45.007802313278276,0.3328119412794471,1.8762458347294146,-0.5507643195447512,-2.7124203502154924,0.5597581419487201,-0.7335177720236128,-0.1615705564284993,0.0509991406135332,0.3565563462065461,5.162308493871782,0.7168064788206864,-0.2900285923866204,-0.26119088906371735
-0.011970773647152343,-45.04404742892863,0.01693912550114074,-134.92155427730438,-0.024174816484524863,90.02819641021,45.007905714825405,0.3332542323615262,1.9076807310194803,-0.5531936587595739,-2.738093022876437,0.5580562158871537,-0.7355484408752688,-0.1602882152316412,0.11645110509568349,0.3339611601383385,5.18555255718121,0.7125616481701226,-0.3013342617261492,-0.2604874238782395
-0.012183349061047729,-45.04402060730434,0.016979809369974765,-134.92173308139994,-0.024152210863175747,90.02819416158381,45.007667379110046,0.33942899584680164,1.9021411046838743,-0.5461365995287417,-2.723514335284989,0.5609475436346952,-0.7326910038660615,-0.16419159834217642,0.11858751771123714,0.3573131928872751,5.157111354213378,0.7156717003702503,-0.3026682353354353,-0.25965808244766597
-0.012068875482557124,-45.044163407291954,0.016990472456857142,-134.92189481571376,-0.02413140713918957,90.02815075085901,45.00766515782998,0.33707060540907136,1.8973945635427272,-0.5467517729567776,-2.7138881374614154,0.5604542607787574,-0.7313897410408253,-0.1613733233812786,0.0580841505215031,0.3101741642436474,5.133160532496593,0.7086503000392436,-0.2925741094805702,-0.2627114583030069
-0.011970755246819613,-45.04406524815835,0.016852553002703833,-134.9217918304322,-0.02415447138713199,90.02819416055564,45.00762921783543,0.35027287938686025,1.8826212971998628,-0.5330969846298339,-2.7076816566208817,0.5620556385246593,-0.7318475328524855,-0.1607297470801615,0.04904589615463916,0.34500489306578885,5.168576126346784,0.7155204310418466,-0.28822825226783827,-0.26131118737351156
-0.011872634602394596,-45.04405171415104,0.017112535560567754,-134.92168653662614,-0.024210440676319306,90.02815075085856,45.00771082022364,0.34764783642641883,1.890219283728464,-0.5459577989685861,-2.7236366458350223,0.561147683036996,-0.7310222457046027,-0.16205245908092866,0.06481841172451891,0.32784026681963324,5.172029913738479,0.7149111919644393,-0.28955630646943403,-0.2624904345988114
-0.0120645410983379,-45.04381620530966,0.017071789258323325,-134.92163094157812,-0.02403511756620498,90.02819416169822,45.00775590747541,0.35152249717751477,1.8877612594821602,-0.526482360845539,-2.7217680432557665,0.5614799466678317,-0.7345456597829901,-0.15827959969706423,0.06678983414883376,0.33443587508735545,5.106414354692243,0.7153347638341127,-0.29534402610488664,-0.26190290145235834
-0.01208193646783423,-45.04411702186953,0.01707168467881182,-134.9216783124997,-0.024218224103647396,90.02815075085901,45.007758153406336,0.35051060587393507,1.8997811004401826,-0.5303806803881759,-2.7292787518032107,0.5623008001894908,-0.732427030036233,-0.162612319663196,0.08288427919621914,0.2993023759769113,5.179172946333244,0.7081482389174123,-0.2941344382362178,-0.26078307311156623
-0.012068875252855275,-45.04400085670107,0.016989967957328274,-134.92167344045902,-0.02407844545130829,90.02810113860212,45.00791268616702,0.34982557151543453,1.8858061302009266,-0.5271116034022376,-2.7308550967777583,0.5609445038968597,-0.7339572268050654,-0.16002188861023364,0.03397995772513682,0.2910717082928321,5.189768557336501,0.7048749054447595,-0.28444267184832644,-0.25797417853722626
-0.01197075550201542,-45.043935382350966,0.016871584669445636,-134.92177558066004,-0.023946014848148865,90.02819416158381,45.007931795912015,0.3374056421524065,1.9087044561250897,-0.542667683250928,-2.734319335296358,0.5608196147534499,-0.7321078817161838,-0.16494473876947008,0.10235694052501984,0.33451927431618955,5.188963741930138,0.7127002597619208,-0.2970541564067358,-0.26148610175124937
-0.012183344696907964,-45.044140381962045,0.01697980932461448,-134.9217754060503,-0.024131405772333355,90.02815075085903,45.00770879060281,0.3427024884214511,1.886855784806245,-0.5329464588003465,-2.720666405114344,0.5615434949441513,-0.7330033385812642,-0.15952335278328536,0.056902070816278925,0.3038690716084815,5.16082972200366,0.7073652091190963,-0.29085860558958276,-0.25652718553574627
-0.012196912444640705,-45.04412265073287,0.0169492243972865,-134.92199693820703,-0.024261551109894613,90.02810113951604,45.0076216360579,0.34395977173412084,1.8779869372606084,-0.541121921227263,-2.712296679348709,0.5615138814215038,-0.7288884658774284,-0.16025339946925252,0.04958279138886331,0.318284676573299,5.151330944033591,0.7118348656564285,-0.28603905071394026,-0.25899474050874727
-0.012190945962935195,-45.04400181676837,0.016850381677423483,-134.92155868018642,-0.024035112324837668,90.02810113860212,45.0078527197158,0.3429572900527418,1.8953226268838936,-0.5380063403442421,-2.72864014171495,0.5606657280186883,-0.7327872580687114,-0.16445722941671478,0.03100660197171901,0.3119396743452171,5.154592917503394,0.7093304089783427,-0.2842578492999672,-0.260508533722582
-0.012187870189215516,-45.0440099937278,0.01699170441351243,-134.9215542773045,-0.02421794468129934,90.02815075085903,45.00762171966177,0.3472616341641805,1.871469386013167,-0.5359947550211008,-2.71158281792884,0.5611379313404389,-0.7319454166761213,-0.1617118449363674,0.07805901635025458,0.32172342404131854,5.166676926944791,0.7121390612649443,-0.2942090510432373,-0.25960739126889887
-0.01206887548255453,-45.044050387203846,0.01697540209934393,-134.92179183065466,-0.024235094960644934,90.0281941616219,45.008024831244995,0.3434570219689839,1.879290043332929,-0.543390463238757,-2.7118315245001274,0.5598746939982195,-0.7301502725010103,-0.16376637448086953,0.05281913414136317,0.33085579045306257,5.146145607765913,0.7127948681744048,-0.2884379387591572,-0.26245237272967636
-0.012068875482555828,-45.044099167032016,0.016866781211459618,-134.92189474361004,-0.02415446836280731,90.02819416158381,45.00754868407715,0.346059333340608,1.892820636388267,-0.5316561393036006,-2.724964221046362,0.5589516951409678,-0.7300147372908368,-0.164299725715093,0.07197204902461556,0.31143930632070144,5.176563324091529,0.7066343043989374,-0.28965628901542734,-0.2616182833912272
-0.012068875482555828,-45.04414852009025,0.01682453338672461,-134.9216735006337,-0.02423820096301756,90.02819341204318,45.007801813698705,0.3453500480998993,1.893640612517153,-0.5264377748000333,-2.719554613997831,0.5607051882998817,-0.7316738955596604,-0.16361715865056273,0.03671730390831798,0.30919146778931084,5.135556443127795,0.7080843138259365,-0.28747017735993835,-0.25653939671338044
-0.012061278606294037,-45.0438507596085,0.017107945870544986,-134.92167344070802,-0.024157192027887017,90.02833288923689,45.007981408181614,0.3422184915789262,1.8889614593793262,-0.542565309942435,-2.71964301210317,0.5601457255137745,-0.7315396205855288,-0.16345446986041867,0.13563051167802712,0.3107632316185709,5.187670611545245,0.7090828527079241,-0.30424831228891086,-0.2595930790395536
-0.012068875482555813,-45.04381170968604,0.016948275542085996,-134.92179331007986,-0.0242116126137915,90.02815075085907,45.007765149055594,0.33657738515416863,1.886690529984194,-0.5530555098005503,-2.7165410082732278,0.5589879705168257,-0.7315178830216101,-0.15935640114404856,0.060570402955831666,0.319153627737786,5.136690193516957,0.7102106124589731,-0.290059443511052,-0.25813016590795934
-0.012069880186164837,-45.04399754357276,0.016988349176563524,-134.9217755803548,-0.024078243964675793,90.02814400499317,45.00752869736597,0.3514685977589392,1.889961505717289,-0.5322854899501576,-2.7243705453578135,0.5601465916836238,-0.7313697893795008,-0.15835590643827288,0.10599673167506629,0.3044744164638844,5.161227375244838,0.7071805939943554,-0.29800368640729114,-0.26255605849678587
-0.01216978566877591,-45.043904336618645,0.017112039495370754,-134.92154960933541,-0.024208932752957938,90.02819416158381,45.007985950737435,0.3461343153817162,1.8893663725268912,-0.5379838279710193,-2.7207767215217435,0.5603004505160937,-0.729786850381139,-0.16435658256195346,0.11090210134026587,0.3291350234465131,5.1699258322134485,0.7125933991179697,-0.2996560062266494,-0.2592709963859026
-0.011872654969184349,-45.04398465812043,0.01694520559328478,-134.92152493270797,-0.02415719098310901,90.02815075085901,45.00766588266901,0.3411661153217471,1.9082992038736455,-0.5422022066980711,-2.7234793889822106,0.5606715685452983,-0.7341141314894732,-0.15862080690868707,0.12925488159909787,0.3273876717291686,5.149317972622569,0.7149201590886919,-0.30553772328712153,-0.25731713254796296
-0.012109565608548008,-45.043935744656984,0.016988352673878576,-134.92189475155647,-0.024174564278579558,90.02815075085901,45.00762171930629,0.3462274998397159,1.8740245681438876,-0.5454696184351085,-2.70840969268742,0.5613264696273587,-0.7328846424327992,-0.16003534848877776,0.03869995484469381,0.32402021418955407,5.133149565214511,0.7141119140778392,-0.2893449883896724,-0.26026839208302593
-0.011970755272331145,-45.0442078954919,0.016715627251418178,-134.92167344046146,-0.024112748357615486,90.02819416158523,45.00788913610305,0.34255469731249705,1.8935739215995429,-0.5382853944904564,-2.7257777347873295,0.5608469125574569,-0.7329405149422697,-0.16087663782180478,0.09842637321520574,0.31511372485396516,5.169530081447317,0.709834610535031,-0.29800205572463767,-0.2586368338753984
-0.012068875482555667,-45.04383924705925,0.016974603702759584,-134.92177563471378,-0.024076272173822827,90.02810113860211,45.0076216915443,0.3510590285663473,1.8932188890219284,-0.523804701113035,-2.7194940317612466,0.561359147147442,-0.7283422955530888,-0.15892426015686328,0.08534171500469144,0.2822045240587987,5.16380716983506,0.7033073216353125,-0.2919194813883144,-0.2567381169642756
-0.01187263498557318,-45.044028796818736,0.016857243538165815,-134.92189395086785,-0.024174731727637854,90.02815075394497,45.00788838417597,0.34035092207865136,1.889872073403654,-0.5403051152238033,-2.719520483544698,0.5613162642945525,-0.7320050977075618,-0.1648526020119095,0.06982331666167368,0.32788721378481517,5.157683229418939,0.7120988465515592,-0.29285588929909756,-0.2617449916823666
-0.012011445423949005,-45.043889498101564,0.01699281419160453,-134.92167186645275,-0.02410697167144519,90.02810113860212,45.00752952914763,0.3420893693996068,1.8872385958704103,-0.5434557510002986,-2.716251232827227,0.5609645149878894,-0.7328454883288027,-0.1621784590445435,0.06623783335796739,0.32762622204708497,5.1477538503432,0.7129759962935752,-0.2938151624227216,-0.26059203930941627
-0.011970755272325958,-45.043926761236655,0.016987349999032633,-134.92167344225072,-0.02414735484047558,90.02823757265134,45.00748603519127,0.33896759079589656,1.8741468754079957,-0.5451791564221783,-2.7113044222752998,0.559396418588483,-0.7313823643695428,-0.15885876296252036,0.035912522716974066,0.32833432252984524,5.145191938329924,0.711675815301576,-0.28619736967618037,-0.2574169052764705
-0.011970755272018659,-45.04388430550119,0.016993372464641866,-134.92189523274115,-0.024071665832238184,90.02819417083741,45.00775807224392,0.34684119123813884,1.8771897588434596,-0.5397808769377407,-2.7128204855607096,0.5605886377822797,-0.7303031499757251,-0.1606610429269204,0.044219166467906544,0.3160547048543901,5.1501599018939475,0.7109693581384302,-0.2864285576983396,-0.26002909967656007
-0.01197075527232985,-45.044042256005405,0.017071628710578258,-134.92155375329423,-0.024333512756744027,90.02819424486188,45.00757839186431,0.3333490078940109,1.8733222328630135,-0.5447784150237978,-2.714495202187452,0.5600168625491275,-0.7324154702577622,-0.16007291275720223,0.026181619711627892,0.3327156629831168,5.152892681632904,0.711591107104244,-0.2845055599593683,-0.2567024577021312
-0.012068931988041657,-45.04403771078325,0.016974717504619388,-134.92167788143658,-0.024070495180662118,90.02823757230861,45.0074852897126,0.34891131769764816,1.900167449682543,-0.5257444943534086,-2.7216033571340987,0.563164411050284,-0.735011275110632,-0.16383503553487402,0.0944233904786915,0.2937037146896523,5.149995337735797,0.7064864432547611,-0.3017148090228301,-0.2604086336582607
-0.01197075328162163,-45.04390435246762,0.017214681918810485,-134.92146365954036,-0.024174785317436595,90.0281011386021,45.00794054123951,0.3328723726536799,1.8727490463884044,-0.5498974963487069,-2.7226211089672283,0.557924871688885,-0.7307844875602061,-0.15974280624616954,0.011965775108126337,0.3435672499862791,5.181336682509057,0.7127264951983221,-0.27737984722933245,-0.257491526947672
-0.012182009467683861,-45.043824021677935,0.016975343449938052,-134.921444337727,-0.02423450808732469,90.02810138844899,45.00757830859423,0.3397189616455531,1.8876722295738955,-0.552864513177184,-2.72404539454939,0.559232446123306,-0.7318469138151078,-0.15756722065034376,0.054955031420440045,0.33864001731004106,5.1730695265207896,0.715227445746992,-0.2882140336769366,-0.2579600444995517
-0.012068875479720013,-45.0441498315343,0.01697773100785816,-134.9217770419324,-0.024193845759889313,90.02810113860211,45.00766513002988,0.34228114858429465,1.8849802624833403,-0.5372344673328745,-2.7245274451849193,0.5586784705776344,-0.7332507350255741,-0.16448785926147597,0.028285924487020515,0.35527180698327093,5.150322902663469,0.7175304717492643,-0.28465533994543807,-0.26632239641235045
-0.012068373135004975,-45.04416137581942,0.01683039313850372,-134.92178873545262,-0.02421822721059695,90.0281507508717,45.0077581530144,0.3355784430897545,1.8880180398104243,-0.5516802048851742,-2.7274167969182,0.5592366164231671,-0.7324413080755999,-0.16269709247158592,0.049184112375563145,0.34871066632263803,5.1815321321082095,0.7155159788116241,-0.28685022211717637,-0.26091340911577826
-0.012038621806268034,-45.04390291797564,0.017071608025295826,-134.92167360310953,-0.024254856247184174,90.02815075085901,45.00792447213678,0.3484982884445907,1.8704625956187055,-0.5319640251475296,-2.7091970363311426,0.5611228124801575,-0.7320858961565115,-0.16603384847105782,0.02715234636468088,0.3110103075187538,5.139738767324385,0.708880068045776,-0.28554125078455095,-0.26354928082839457
-0.01208266213200702,-45.04411816143,0.0168164785672956,-134.92156793741708,-0.024216692247572877,90.02810113860212,45.00776043770628,0.33175944160994536,1.8855342125832029,-0.5502942008516157,-2.7163168400960354,0.5580014172802114,-0.7334347873498593,-0.1619416660075527,0.05999609575677436,0.3488988659533199,5.147742426810744,0.7134283838443733,-0.293092274603347,-0.2591018545803478
-0.01197075527228317,-45.04412524612742,0.01672694758828896,-134.92177562801078,-0.023991588973229408,90.02821145439805,45.0076419570562,0.3436795644543144,1.8731093050667145,-0.538818829149568,-2.718218498139327,0.560730614261943,-0.7320771236576149,-0.16165872381593221,0.060793442013833444,0.31180346149931626,5.160820505643988,0.7098785308546434,-0.2906985497496367,-0.25441530639957005
-0.012183346993878933,-45.04382500734885,0.016975275817885487,-134.92189476358612,-0.024218280831845775,90.02828402652062,45.007621969153696,0.34208106695146934,1.8724674239196015,-0.5517195281951337,-2.7094844566932283,0.5595025741380667,-0.7318658498584343,-0.1615237727690893,0.0009766564856295381,0.33209646209553734,5.138046762426695,0.7156180606640524,-0.27921765776016355,-0.26093421578755577
-0.012070388658971606,-45.04401099533001,0.01693468538430175,-134.92179130576088,-0.02392494298659493,90.02816424259072,45.007528651000065,0.3465196566923469,1.8924051145767267,-0.5405224785784205,-2.7222971843126897,0.5590196066830371,-0.7310779771680228,-0.15841913799667842,0.06000940539041436,0.3177395754638191,5.162152961336057,0.710522762361133,-0.28815122942068727,-0.2605703292903504
-0.012068875482555683,-45.04389051251897,0.016950503214831,-134.92167344071086,-0.024261665843400233,90.02815075085901,45.007778393707596,0.34938276174688354,1.8936006332753907,-0.534210168639122,-2.7218962309377046,0.5604997186392412,-0.7292194633378973,-0.15981757705846114,0.036611124032628,0.31387983972104444,5.143214232416899,0.7118367939018774,-0.28730363637440587,-0.26023554655126435
-0.011930065120710693,-45.043945864144625,0.017065092187937288,-134.92177704195916,-0.02421140781533359,90.02837629996216,45.007530917185825,0.3449376103795672,1.8940891728140508,-0.5490144304936594,-2.728082199417759,0.5603443950963155,-0.7318546115957284,-0.15743971491367734,0.05186694210274384,0.3391797382380776,5.168524038375193,0.715204784087136,-0.2887512839708874,-0.25568712068096633
-0.01214265891520523,-45.04377501315562,0.016844344504551023,-134.92190058995283,-0.02399170990815779,90.0281011386021,45.00766512897611,0.3507940281667365,1.8864129053775158,-0.5356463739627776,-2.7130486630997184,0.5612941080569034,-0.7326143646623751,-0.16085906966600494,0.07624652928168868,0.3142278997808492,5.159706453668631,0.7122839953451386,-0.29228097008311893,-0.2584179168495455
-0.01192057633374404,-45.044047347164685,0.01685003852817147,-134.92155427730438,-0.02416803340804488,90.02815075085903,45.007641929485835,0.33722858043024695,1.8882199239847195,-0.5603109661728904,-2.7221297157041024,0.5600117297867702,-0.7309149438524148,-0.1617238355110485,0.06138309703333859,0.35954603326052265,5.1691379569512295,0.7203345182263147,-0.28898061899555755,-0.26203131939072843
-0.012183349027123603,-45.04402483497538,0.01697928537964576,-134.9215542779717,-0.024193811720813495,90.02815075085904,45.007363860065354,0.3421368416736109,1.9168983241999862,-0.5295628091341849,-2.741314527371412,0.5619400412868251,-0.732289039064756,-0.1609863232991754,0.03768733749420667,0.319588315905802,5.138771193979451,0.7120361279599381,-0.2888331378485259,-0.25608058398695505
-0.012068875482559718,-45.04389773832843,0.01694372884667893,-134.92177558636962,-0.02415447146371576,90.02815100070575,45.007798628207915,0.34045768998014964,1.9052077645217516,-0.5454134797163432,-2.732348912652595,0.5591734565109467,-0.7328011726748916,-0.1575129878881189,0.04630202996210274,0.31275570231467903,5.182640323106564,0.7104427316284174,-0.2861012214013769,-0.258755323684393
-0.011872635062103868,-45.044005653533624,0.016810450490025414,-134.921831293966,-0.0239713654992091,90.0282376031539,45.00788838564283,0.33695020195003,1.888024290626029,-0.5437334964158487,-2.720062834311282,0.5614203398243376,-0.7302748779919175,-0.16367167954288875,0.06537520129586576,0.33360138373094395,5.164553750850034,0.7132610121422053,-0.2895857828205976,-0.260393833396593
-0.012073396610513508,-45.044108280910464,0.017070094928609496,-134.92167344049363,-0.024086906617817604,90.02819418934463,45.007708624038166,0.3494824116336746,1.9072773736057662,-0.5274404236180694,-2.726468660724379,0.560815969087203,-0.7326220746104462,-0.1644767585016186,0.11128697223915363,0.3001820604346081,5.165265417880734,0.7060723646372327,-0.3015294126427469,-0.2617269146635653
-0.012028185330936672,-45.04406331008429,0.016728398183396005,-134.92167344040539,-0.02397110426172365,90.0282375723086,45.00780856253494,0.34398236860595394,1.868464708686608,-0.5458039992923246,-2.708181530957493,0.5609779416098939,-0.7300514945876174,-0.15660755821608222,0.025437491788656855,0.3201665313028538,5.142771283629773,0.7129483427428572,-0.28287521065537613,-0.2568368249568408
-0.011966792308317558,-45.04416141206987,0.016992867939781785,-134.92177558011485,-0.02412911720972988,90.02819415233023,45.00757838979528,0.3502819793252893,1.8886911935175041,-0.5392402889063272,-2.7134411566504464,0.5595842508926722,-0.7329507519159851,-0.160912836849571,0.07574744360813311,0.3145666143284912,5.138130228024287,0.7104675220770114,-0.29676735342485766,-0.26124783458378537
-0.011984318579637202,-45.04392470138696,0.0169748189096465,-134.9216734397684,-0.02421596664878901,90.02815075085903,45.007598549265026,0.3467344567877967,1.8745203816375577,-0.5336035431231403,-2.7093248834193853,0.5612518747413828,-0.7326578292180961,-0.1549122435983361,0.038933218549618995,0.2942912276941331,5.136062326436784,0.706746985834897,-0.2889113147672432,-0.2539196099740713
-0.011970755272003095,-45.044019933595365,0.016970654782263183,-134.92167344026987,-0.023974073053611197,90.02810113860211,45.007405210067354,0.33836797032718646,1.8858039315327444,-0.5473326686494295,-2.7165259176517482,0.5581618047009964,-0.731467336703643,-0.16494581790933788,0.06312116737001383,0.34501940677121207,5.152732746560688,0.7134877416412826,-0.2913434777503145,-0.2629514053146614
-0.011966236211614923,-45.044158212380374,0.017106283529826263,-134.92142678044263,-0.02416803342083047,90.02810113860211,45.0077085412129,0.3391392193806192,1.890739442832401,-0.5426914449784335,-2.713578489669277,0.5595064404496777,-0.731038646782915,-0.15756084592855826,0.08455185200083537,0.3214948201637279,5.141582960999794,0.710159027546093,-0.2964081033245237,-0.25589840909448514
-0.012068875482544206,-45.044001849225694,0.016979062328834418,-134.92167338820536,-0.024145093818394473,90.02819416158384,45.00775790317159,0.3464541536533904,1.8975716007024503,-0.5385341731170293,-2.7200414163444786,0.5619705783816469,-0.7309496711448266,-0.16154537806750754,0.09455073654255927,0.3141328105615895,5.156485844524475,0.7113979564153826,-0.2971079565706679,-0.26026223780671953
-0.012070156962659263,-45.04381007250232,0.0168304242762697,-134.92168659494882,-0.02419098871161319,90.02819416157112,45.007606665860465,0.3432425105121661,1.885906267087245,-0.539792444856632,-2.7261014147439786,0.5600223078559464,-0.7330115811245709,-0.16174973015828453,0.04412711109069886,0.3210147010968604,5.177696282255109,0.7105108222937645,-0.2866941426681621,-0.26000844390033995
-0.01197075527232985,-45.04400696667514,0.01698421183831769,-134.92155429510893,-0.024032608509287328,90.02810113860212,45.00802936283314,0.33444291205466004,1.8845346161032586,-0.5691682127543397,-2.71457155357442,0.5588194746559343,-0.7309904218621556,-0.15724719765631562,0.06328479807370235,0.36951536531866336,5.1488729713181645,0.7226453394042127,-0.29123887244824603,-0.25922367517469347
-0.01187263506210776,-45.04398244414264,0.016984202429452595,-134.92189835512144,-0.024123842644762073,90.0281011478557,45.00762396792828,0.3328847264922253,1.8910682930280178,-0.5540899126547282,-2.715463006281012,0.5593122354231207,-0.732062191938628,-0.1629023487159996,0.08079669143329032,0.35480752881863065,5.144638434217774,0.71656777497459,-0.29636919197689465,-0.2607557301027789
-0.01206887614612522,-45.04389970552135,0.016870915079203644,-134.9216687183794,-0.02425484694020488,90.02819416158381,45.0077108347011,0.34009985147152816,1.9011668687112244,-0.5485692499253063,-2.719026024524304,0.5594409752051795,-0.7331495167502685,-0.16203812368451112,0.05654579708192298,0.33572542040702547,5.1429770410523545,0.7161820863274916,-0.2891797652503771,-0.2589948104273482
-0.011970755272329851,-45.04398393582998,0.017053039423030637,-134.92167392768965,-0.024035121641521846,90.02810113860211,45.00730314733621,0.3446324389642924,1.8897573556338132,-0.5451943541010562,-2.7051397573593405,0.5642528074711843,-0.7278006075338186,-0.1574683451859288,0.02622102957020068,0.32246166390853664,5.160594591336856,0.7123387665859319,-0.28202193244535456,-0.26171468569567047
-0.012068875483501084,-45.0441187272865,0.01681637771800923,-134.92194736128326,-0.024167782577611353,90.02810113860212,45.00779481787178,0.34244201166836763,1.8960753969183441,-0.5514127859469219,-2.706468302364611,0.5605267649528086,-0.7288188859743497,-0.15696035814832693,0.00958513243339948,0.34222941554700964,5.143470631928419,0.7142683266362263,-0.2811786557546756,-0.2629435694868803
-0.012068875482550642,-45.04379287518316,0.016875942673758425,-134.92155427752712,-0.024106987082179003,90.02823757230861,45.007526447702844,0.3451581325173146,1.87400156036029,-0.5392162002194926,-2.7155231521465333,0.562575946615796,-0.731355104291907,-0.16111649878358272,0.09163477275656211,0.32331740615891824,5.175871265946361,0.7113812171274003,-0.2963938721131953,-0.25790822497280275
-0.012183349061047776,-45.043798915737696,0.016721718561085376,-134.92176143208098,-0.024157108253916582,90.0280404258095,45.0078015733725,0.34966098938012824,1.9119967284041326,-0.5409722611397267,-2.7275068845221693,0.5609810912587623,-0.7302568747127224,-0.16191810138338206,-0.02454066588489125,0.3300422437487222,5.152050206213765,0.7143136803739595,-0.27284939677037323,-0.2616548080695977
-0.012183349063989003,-45.043899221733994,0.016944533083428973,-134.9214569900169,-0.02402829863640415,90.02819416158381,45.00764446466445,0.33914713851389783,1.9086778626098306,-0.5597556760211925,-2.728147737526021,0.5594620954311313,-0.7301654633844638,-0.15994856083168194,0.11600590021853995,0.3547894601823115,5.175047713216659,0.7194458435946343,-0.29920397067020565,-0.2610408837271769
-0.01197076147418648,-45.04378489476516,0.016845349737148713,-134.92154594362177,-0.023982667659717537,90.02815075085903,45.00757830858154,0.34754953418236223,1.8974623615362205,-0.5442474272471779,-2.7202490491991265,0.5597443829425154,-0.7309411374055358,-0.162776606921623,0.09030549523874294,0.3218861939989577,5.1711326977248335,0.7101049562428342,-0.29897196866481135,-0.2577395053307038
-0.01206418690509896,-45.04398708486742,0.01693397829697121,-134.92178873479318,-0.024113780258241513,90.02810113860211,45.00742164790246,0.33537438857851853,1.8944595072776058,-0.5491297718793992,-2.722883821201029,0.5593663408535544,-0.7311069848756239,-0.15427425400908348,0.07919566762409523,0.32909591588062537,5.148795641924021,0.7126984308001203,-0.2951399188108882,-0.26491163625800707
-0.01170987445562681,-45.044103591426996,0.016748881052303204,-134.92155427729548,-0.02424045549787572,90.02823757230861,45.00786754396845,0.3423228757665138,1.884209085260521,-0.5420585744759958,-2.712782892863357,0.5609370689817487,-0.731847695497659,-0.15508716949339105,0.04384168673180648,0.3261552209825488,5.166405683419908,0.7148262641141945,-0.2847451918841733,-0.26048067549269993
-0.011972264382256282,-45.04388879503813,0.016851189985566232,-134.92192052765384,-0.024129135781308795,90.02815075055437,45.0074418748752,0.3498353960999719,1.8868957221593388,-0.5424775157806653,-2.714461921592949,0.5614263896402215,-0.7319707941245145,-0.15677162584679244,0.06958792671445936,0.3105246083344179,5.144659082763902,0.712183485480386,-0.2939168127216374,-0.25796685268475283
-0.011970922721514765,-45.043771322363966,0.017096727506818395,-134.92167344048534,-0.023984926141017167,90.02815075084648,45.00771537097048,0.34464393693280754,1.8668924510361895,-0.5391402507609757,-2.717064155620183,0.5615122094149405,-0.7312781836341361,-0.16249138537060215,0.0028372146927638504,0.3186365770531268,5.167531152810503,0.7114759684727301,-0.2771686226887851,-0.260720518615185
-0.011930065120722378,-45.043827949055206,0.017032274951954942,-134.92180498486928,-0.024240529013652742,90.02815075086043,45.00761942227946,0.32929968817352157,1.9194292243314452,-0.5634576803726347,-2.735992117047834,0.5603138858817189,-0.7327572617602041,-0.1629722923512652,0.13225613166342354,0.37185903226275624,5.185241008694426,0.7216260240954336,-0.304318208964981,-0.2613820002283973
-0.012068428951399032,-45.043886300905335,0.016824006124422534,-134.9219975330061,-0.024168025379861357,90.02796861248115,45.00770879060344,0.33737497413266904,1.8890410446265997,-0.5522663519582311,-2.720053062603527,0.5605406266188375,-0.7326684198657362,-0.16081605882131822,0.0653478037841256,0.34354334335439474,5.158313456490415,0.7163523688527563,-0.29252135195612583,-0.25976775381331435
-0.012064412249609623,-45.04390218269399,0.016850972616818873,-134.92163094176928,-0.024241041354003207,90.02819416158383,45.00813123647195,0.33745771460581747,1.9085998458628937,-0.5533714507509063,-2.721795622259966,0.5598552953392786,-0.730182698431366,-0.16631240145501153,0.12714895042087349,0.35627658515558225,5.1560783882144285,0.7179016033332845,-0.3032353485756202,-0.26473438656995596
-0.012183349052641467,-45.04403756409274,0.016603039806835546,-134.92177839113188,-0.02424126496269762,90.02810113860211,45.007981408553974,0.3513044476950962,1.8606716897218951,-0.5339136590599958,-2.7058598610745035,0.5607044405839342,-0.7309505616363412,-0.1591003677529547,0.0038527117800456097,0.30024822825184827,5.139002360007011,0.7081093064283932,-0.27956405226573117,-0.258883329209061
-0.012092825736021376,-45.044022672450716,0.016929446384449712,-134.92145212023286,-0.02401939672660578,90.02813051428966,45.00780081419698,0.34135772664294484,1.8832100435919388,-0.5443185023481005,-2.7092927517574332,0.5607548826317332,-0.7320569672170848,-0.16234073079915623,0.06716905982513448,0.3301300413365696,5.1315021570597725,0.7132510499154787,-0.2946532850529359,-0.2607063868990078
-0.011872635751195154,-45.044009662200914,0.0168122902743672,-134.92167490211438,-0.024113530130945752,90.02810113860217,45.00762181287463,0.3430440434092737,1.882636345273729,-0.5452565350474237,-2.7072959586678076,0.5595726863859384,-0.7320885639673319,-0.1671187515254668,0.0689003708664605,0.34080107551257227,5.125853302707361,0.7143737340443769,-0.29554552794044764,-0.2655530838563517
-0.01191332544436536,-45.04388436299345,0.016931465631178245,-134.92167495689154,-0.02419763097664277,90.02810116944741,45.00798140816897,0.33588487202391076,1.911235527091711,-0.5499247349325733,-2.721061832585517,0.5597717202585241,-0.7312276654642875,-0.15999302646801838,0.13538111743496062,0.33993358196245044,5.1496841076871265,0.7142978204559209,-0.30657816060789345,-0.25832294408072654
-0.011872635062138879,-45.04398739956658,0.017106504646063492,-134.921776065397,-0.023991683034246078,90.02815075085901,45.007710789377896,0.34097770065298727,1.8868355436053397,-0.54527365043098,-2.724510682593531,0.5597249383183331,-0.731670906672747,-0.16090420343325648,0.06754730896625549,0.29562363472977277,5.131387344598234,0.7077381599830315,-0.2971404163923861,-0.2584633650360974
-0.01193157836514986,-45.044143810918584,0.016932852633394686,-134.92165927408715,-0.02427164339623833,90.02801431713984,45.00752869632888,0.3432084193295347,1.8936989434177258,-0.5399686384431045,-2.718041537078845,0.5606600844634148,-0.7304472986844074,-0.15741590899752889,0.08663676177269143,0.31261164431582683,5.154287413373771,0.7098887781927657,-0.29513681477072784,-0.25628038624338484
-0.01188619844597697,-45.043899156268154,0.016812284532087485,-134.92155429534887,-0.02421814032939012,90.02815075085903,45.007623967928446,0.3433494409461314,1.8982099298953912,-0.5478119833216881,-2.716347893459472,0.5605196639785429,-0.7332365304508655,-0.16451585083004358,0.08334127689946515,0.31633023368304747,5.164872190857392,0.7094764465236709,-0.2938112735018596,-0.2655196119155036
-0.01197075527232985,-45.04393122419374,0.01681537309656594,-134.92177558037952,-0.02403511822039977,90.02810113860212,45.00761950736871,0.3389654751344393,1.897209145737794,-0.5512910223992665,-2.725222781412417,0.5613724703612524,-0.7321869312151031,-0.16375754242709234,0.09209160700470514,0.34165377117136037,5.157997026886595,0.7157748778918073,-0.295247028718053,-0.26577438794893515
-0.011758161483191662,-45.043982426457845,0.016710165334158724,-134.92167344048536,-0.02428469383754025,90.0281574968391,45.00764420552582,0.3432645640618655,1.9016614077954699,-0.5482056630862148,-2.7210427006414206,0.5612075861693353,-0.7298313616398182,-0.157660244785445,0.06061134173253263,0.28296275348665145,5.175308566620113,0.7031276737137816,-0.28834541734270347,-0.25814852156495643
-0.01205480998082772,-45.043884323935224,0.01697755509132116,-134.9217814267747,-0.024261637586592527,90.02815075085901,45.00766512900295,0.34337429077335074,1.8668860125432531,-0.5373526390200228,-2.6946591715084844,0.5629700481491466,-0.7291974625028572,-0.16598726539730035,0.08957761351512716,0.3211242760134825,5.170843948308466,0.7105954985049142,-0.2966339371487626,-0.2573674317090906
-0.011970761474151466,-45.04398261234241,0.016810448345092734,-134.92158979174886,-0.024035111326603836,90.02815076011261,45.00757830858154,0.33856751359669723,1.8935405599228865,-0.5447709609726238,-2.719759703118344,0.5618005943446744,-0.7296300164815389,-0.16184883321553015,0.07815249963149996,0.32648059578192223,5.156924295111909,0.7141725607247882,-0.29490689667571646,-0.2580558548437417
-0.011981123527623969,-45.04382364747777,0.01681479831916027,-134.9216865949228,-0.024215203818684656,90.02819416158381,45.007709040437,0.3445172166124936,1.8664582029856431,-0.543656802266904,-2.708169509355924,0.5610570950228235,-0.7279750656839775,-0.159738516768424,0.07876696290610344,0.32419768803633303,5.163828692292796,0.714289101911907,-0.2941750012142229,-0.2600988732118199
-0.011994705508419029,-45.04398823739093,0.016947416708334596,-134.92205262085866,-0.02411076274116228,90.0281941615833,45.00780381236397,0.3443039025560074,1.8667357609246942,-0.5433117441347676,-2.6934089071363556,0.5619946207005001,-0.7301620915259719,-0.1703689229164903,0.09306302918964908,0.30737876499443917,5.157195065748377,0.7095368936071614,-0.3014473616684629,-0.26206809581838025
-0.011872616456627353,-45.04392403121963,0.01698843517279747,-134.9215528656704,-0.02419788203396131,90.02810113860211,45.00798815450866,0.32920682855009314,1.8819720940813973,-0.5593144343655304,-2.710192052048543,0.5595387773590313,-0.7311280428321592,-0.16988075696625132,0.035704156060989006,0.31549614772648105,5.167773319272459,0.7107382276753175,-0.2837329161496462,-0.2611016472794455
-0.011970754583238543,-45.0437700186011,0.01698391693427184,-134.9219342068522,-0.024218282643881883,90.02815075085901,45.00784498337328,0.3437395504436266,1.9312289752690543,-0.5465463736528743,-2.744202955038488,0.5608298293610005,-0.7310038645268686,-0.16131450166765898,0.05497308888266617,0.3090531086930867,5.152251450692444,0.7097967130986902,-0.28871824655415723,-0.2615048146353138
-0.011970587823146231,-45.04378375425905,0.01706964771045956,-134.92155427730438,-0.024215963541594387,90.02819416158383,45.00775815301284,0.3405015517053967,1.8889987863968665,-0.541622505413643,-2.726504264486468,0.5602324025951009,-0.7319423223126543,-0.1593128802927355,0.12125646525906492,0.2909792104618236,5.164903327895598,0.708065524850362,-0.3025136807081978,-0.2604258188371317
-0.011957191887511542,-45.043902684709956,0.01682383983252628,-134.9218947435375,-0.02415719191322002,90.02810113860211,45.00776044695941,0.3517267683848084,1.87704161475504,-0.531242200318542,-2.7158513138747087,0.5624269008173364,-0.731540032265548,-0.16228029971904365,0.03663426171013332,0.29923675238495007,5.156445011497185,0.7087092739803224,-0.28551942643588335,-0.2609847693787341
-0.011970755499191174,-45.043894967696936,0.01682534502154563,-134.9217755803548,-0.02423856279919735,90.02815075085903,45.00775815301284,0.34558308234430307,1.8864969167520986,-0.5359933788500483,-2.714481892131277,0.5612626860841067,-0.7313594258022585,-0.16527824698052457,0.06911385119022499,0.31809959215992006,5.1463978684956775,0.7105215285037731,-0.29305384936814255,-0.26280454405105996
-0.012182846695653766,-45.04401862075773,0.016947578089265593,-134.92179183057377,-0.02411327442544969,90.02819413382305,45.007665047091564,0.3380880206887069,1.9186732554035308,-0.5445258663873435,-2.734974355229125,0.559239641747384,-0.7331907624910843,-0.15641298577377438,0.13112219665862745,0.3234313353702352,5.181690967473891,0.710511282052619,-0.3048253588201768,-0.25500031282119423
-0.011859071678234705,-45.04397896284908,0.016828359772517433,-134.9216324572683,-0.024215622787781062,90.02815075085903,45.007728778391545,0.34050425720387495,1.8736619785330093,-0.5409696786662831,-2.698356346361889,0.5610041835570995,-0.7295206494970691,-0.16137601350859274,0.06019569639704418,0.32294839799468994,5.11113213156489,0.7113668936118827,-0.29244565798676825,-0.25900566746936715
-0.012068875482555828,-45.0438887813881,0.017092700174732578,-134.9217799651676,-0.024154468287604463,90.02815050101212,45.007628466213205,0.3443948955645575,1.8979468408963438,-0.5338632785983675,-2.721838093566002,0.559912009430696,-0.7308161286576104,-0.1622711147486503,0.09269730270675981,0.31132951421199145,5.161903920048316,0.7076708764474666,-0.2961078319859919,-0.2597091236195641
-0.011930009295808853,-45.04381452332264,0.017036119285520797,-134.92167342706472,-0.02421511978082966,90.02815074811723,45.00784805899184,0.3275177844579454,1.8990992618457774,-0.5627702063976173,-2.7186585376017764,0.5582133988281898,-0.7318162491881574,-0.16443541078508545,0.08017059651400708,0.34036406552403486,5.1446050200821505,0.7155678416985723,-0.2964375240150537,-0.259920497466896
-0.01218334906115266,-45.04393862264747,0.016933851808919268,-134.92167186667277,-0.024218226852800638,90.02823757229594,45.00766742402001,0.33066773030635543,1.8962030196741164,-0.562301284860045,-2.7040364624255244,0.5603755052012277,-0.7271972927745431,-0.1615608312647077,0.12411144160574651,0.36638658325838064,5.118288832081954,0.7208593179854661,-0.30293627468603546,-0.2603539917394196
-0.011970755269809168,-45.04419573680872,0.01681033098040921,-134.921672669252,-0.02417379215236843,90.02819416158383,45.007896127357434,0.32756406386743736,1.906255087443886,-0.5471770342390685,-2.723499066091816,0.5601784147546401,-0.73114140071945,-0.15963395289744126,0.06382222720818438,0.31202012653186256,5.154385033858268,0.7098415485827116,-0.28833647339622015,-0.25424650401943283
-0.011872637129272712,-45.0440271179552,0.017051509667539464,-134.92167392768678,-0.023991375010713994,90.02815075085901,45.00762105613251,0.34061396814411304,1.8748338548833112,-0.5446152958732524,-2.711365149360271,0.5601224835272902,-0.7300934247631814,-0.1605158241763218,0.039703878930459985,0.3284790548786774,5.147891364895039,0.7124453587600369,-0.2854680779406238,-0.259088264344691
-0.011970755272333737,-45.043769832122535,0.016932363380940212,-134.92167344048536,-0.024134501520426545,90.02815075085856,45.007845724003076,0.33634049984921716,1.890815657580961,-0.5506793881387443,-2.719786023062066,0.5595159196875673,-0.7314622464557698,-0.16155030401457157,-0.013167102799179433,0.35561674137907673,5.114762790593973,0.7173925871499172,-0.27784861523042925,-0.26212431976304695
-0.012068931298950383,-45.04389771287362,0.016850964418846863,-134.921775586435,-0.024218217907813453,90.02815075085903,45.007751407148405,0.3465288009907582,1.8787931728884062,-0.5388547155277973,-2.712445458600233,0.5595188522655982,-0.7308529121270843,-0.16313490684161586,0.096095506894445,0.29193783965612763,5.142974658135119,0.7055311231690343,-0.2995750332072559,-0.2589023386383994
-0.012190939735591684,-45.043783919779806,0.016929437723019195,-134.92167783130412,-0.024172555919262297,90.02815075085903,45.007758153013356,0.3423411239675123,1.8910220148695345,-0.5354735010666574,-2.7187955315075993,0.5612069029860098,-0.731132626697858,-0.1615504896710782,0.04344183240415379,0.31987658389419793,5.147987252747558,0.7114234820226213,-0.2844525721943497,-0.25981183034518796
-0.011970761465749193,-45.04389027067842,0.01672622521160623,-134.92177558049758,-0.024215937706024784,90.02815075085901,45.007398550517095,0.3400900034989684,1.8824530213635835,-0.5469792739213621,-2.7175602225666475,0.5606956839539949,-0.7306251480664846,-0.15908864330367295,0.03800620369781108,0.3060982426057162,5.146111864543622,0.7085410778736905,-0.2856796089532484,-0.2570034675842367
-0.012028172927293442,-45.04388452888745,0.01684383159342455,-134.92177563448826,-0.024217892195691947,90.02815075085903,45.007528779734024,0.344249908990363,1.886848888163572,-0.545693575177982,-2.721258034495185,0.559696334532945,-0.73345276874333,-0.15958479851709326,0.06838328834280342,0.3093388269941065,5.108340509202392,0.7126559023828473,-0.29568926905787046,-0.2595703325632636
-0.011970755272329847,-45.04410361344548,0.016929939990857755,-134.92177558036337,-0.024015226995749844,90.02810038906146,45.00784722308385,0.3492778260970845,1.8882353207547995,-0.5370592058787658,-2.718837328242536,0.5608521979244679,-0.7308039752880052,-0.16186591397582217,0.060795604095650206,0.35678224024070454,5.142785655926796,0.7178662220171911,-0.2891656167472152,-0.2599438764912917
-0.01206870803338388,-45.043671934215325,0.01697070431206648,-134.92177558035476,-0.024078521939858426,90.02810113860212,45.00748761754262,0.34729925498367253,1.8828004071982427,-0.5387221800590458,-2.7206554325118644,0.5608422302838987,-0.7325929960305485,-0.15998708276069593,0.06745242486847544,0.3166204044490289,5.14905562850575,0.7116303912486783,-0.29047423991793453,-0.2607819307257548
-0.012073453115999342,-45.04408121100639,0.016929605094565224,-134.92155427933682,-0.02426163781611394,90.02819418934459,45.007708549971454,0.35047766728758345,1.8987728702849718,-0.5336510062005674,-2.723188470383189,0.5620309861258755,-0.7313148479346433,-0.15816725164438952,0.07639836812969399,0.3289406908383033,5.166067741309355,0.7119131294689715,-0.2917425376709285,-0.2591966386505914
-0.011970773877759543,-45.0441567964691,0.01681480383153816,-134.92167344070918,-0.023927703625003627,90.02815078170431,45.00770855016184,0.34965554911483177,1.903339561075751,-0.5419718850710645,-2.7279066804928993,0.5612171040367939,-0.7296515222340657,-0.16210646894096842,0.0464266569620343,0.2993723512192385,5.1662773350985525,0.7081447733898432,-0.2851843632077248,-0.2585475654452594
-0.011970761474150889,-45.04377430306811,0.01694768948658646,-134.92167345852985,-0.024261637586575232,90.02815075085901,45.007621691558754,0.348005759753131,1.8731827481449979,-0.5355064651794598,-2.707852521242082,0.5618622418487301,-0.727956613879286,-0.1575149545547684,0.05725667468085808,0.3069166854273687,5.174969721299494,0.7080788306949184,-0.28578410589619385,-0.25800840425293226
-0.012064354354493115,-45.04400035966409,0.016810274468365822,-134.9217672466725,-0.024215891995354465,90.02815075085901,45.00757832708872,0.35014044260664573,1.890650797231052,-0.530306877892296,-2.7207586313998218,0.560048668543459,-0.7295149091619315,-0.15853092540331165,0.08351866036084245,0.3510294251584725,5.12447420513739,0.7178749408849098,-0.296927466950714,-0.2642592098939933
-0.01186806432818948,-45.0439829781766,0.016708302044349404,-134.9218947435359,-0.023984919838111157,90.02810088875523,45.00744870505559,0.34267892485065227,1.9128005226399807,-0.547642577756966,-2.7294770947566405,0.5603678003339776,-0.7307173582789577,-0.16115972427418634,0.10194949909428375,0.3018698357864183,5.142498328994525,0.7078940033180324,-0.298817644593553,-0.2581888527646507
-0.011970736666444888,-45.04376999740925,0.01703157820503747,-134.92167360489353,-0.02410699961223233,90.02824431817396,45.007854763815494,0.34137277596329985,1.8868728273734545,-0.5531908647403063,-2.714929425715327,0.5605037445320765,-0.7311850210762955,-0.16045323157406513,0.06971355104947732,0.34193628012660304,5.147899520911576,0.7171253994890258,-0.2928724827215129,-0.26076366538887463
-0.012282970103702431,-45.04398297745335,0.016811781497780478,-134.92167344069927,-0.024197862504861094,90.02815077860708,45.00788838518742,0.33927927862217994,1.9013091100768338,-0.555411380452156,-2.7287227115116552,0.5602340855879896,-0.7309487466544724,-0.1613290033465305,0.0963156128435402,0.3221830800632678,5.191344375473846,0.7125484965375888,-0.29497870065919235,-0.25776457526284
-0.012069544590198865,-45.04398292224519,0.016851020870687343,-134.92176088935807,-0.0241983390911109,90.02815075086325,45.007589492399596,0.34856548724403674,1.8794021704857573,-0.5450170344289846,-2.7183778321221617,0.5604609639374504,-0.7275884012800229,-0.16010675188618648,0.044859366198353054,0.3229154715583434,5.171556321891167,0.7135859835852865,-0.28196756818589924,-0.26101796756294005
-0.012068875482555813,-45.04388480203593,0.01670830824868433,-134.92167345919822,-0.024131391936636538,90.02809003795215,45.00762846513365,0.3480659525845505,1.8947633972180276,-0.52748330825459,-2.726721007733945,0.5610314777977232,-0.7333315536268936,-0.15849001224101059,0.07047605543580354,0.289932109735823,5.172819505915118,0.7045482985186396,-0.2929879427604499,-0.25623723881450733
-0.011970254992052435,-45.043769997409356,0.017056028367438112,-134.92171290369672,-0.024174481587531875,90.02810113860211,45.007844225251795,0.3473570189445666,1.880274194297878,-0.5331124938154973,-2.710273732315018,0.5615966906200653,-0.7294073987368664,-0.16201511093693302,0.05973421859065951,0.3057286659910613,5.142533097854021,0.708615084026598,-0.2894719675783015,-0.2599734492906944
-0.011872635061788784,-45.04388430548948,0.016932344197109424,-134.92167345853272,-0.02401105129164334,90.02819416158381,45.007619676234825,0.3445369179044778,1.8963238360511725,-0.545789460402502,-2.7221938649058695,0.561176752451039,-0.7291372491784646,-0.15917951892047794,0.08919651630352163,0.324232498440218,5.167958948415967,0.7137803351361961,-0.2931588501869965,-0.25914366247073095
-0.012068372462928283,-45.04388901705227,0.016970146357986143,-134.92171132976486,-0.024016492401542355,90.02810188814274,45.00752869643889,0.34448655684221163,1.8938198357315508,-0.541228458056363,-2.7243025714835607,0.5608835337491355,-0.7303637957074579,-0.15637535223541585,0.0758640657598971,0.3117426632417925,5.173108109060681,0.7105383104343165,-0.29113029428455683,-0.2559617592060902
-0.011872635062103868,-45.04398248970417,0.01663116857658743,-134.9217755803549,-0.0240761880668167,90.02812137619966,45.007825487433756,0.3467822936734592,1.9028545577167115,-0.5367298658899531,-2.718968528408923,0.5619584837139596,-0.7305748218712566,-0.1618175606799281,0.07567646165026955,0.30972231609253553,5.171521411130138,0.7090397614413162,-0.2907390717187849,-0.26022103709982114
-0.011970362566859901,-45.044143315331844,0.01682434010077485,-134.9216479085975,-0.024112689784269437,90.0280577275346,45.00788913472777,0.34630728294794644,1.877486105441729,-0.5351233643741702,-2.7102279940139677,0.5613662736201612,-0.7282722181173646,-0.161436660657541,0.052550100851306666,0.30896591233887505,5.146910019616901,0.7092261273902556,-0.2864357736068183,-0.25958358714082175
-0.012183292476580579,-45.04400646117426,0.016810776894613293,-134.9217917741383,-0.024026042206844095,90.02823981201954,45.007758263981145,0.3476867528708919,1.8931397286329008,-0.534155866396522,-2.7216414436674428,0.561191351566311,-0.7286545761725667,-0.16031290357925948,0.08081502317179118,0.30459961822300563,5.169562770879945,0.7084764851125371,-0.29077509953023634,-0.2588693462692888
-0.011872138839808795,-45.043783736622835,0.016929611985372715,-134.92155427933406,-0.024156937359351534,90.0280403425272,45.00780156372493,0.3431900091982857,1.8890104722698018,-0.549764171540446,-2.710251799069654,0.5591114209348184,-0.7290244114641228,-0.16239177257536588,0.06804270768112626,0.3268856846432406,5.150211267123775,0.7102658711188361,-0.29180269638580536,-0.2625039213190304
-0.011971257619879406,-45.04376999748493,0.01681027446542114,-134.92177558033637,-0.02407853177528483,90.02819416158387,45.00775815301707,0.35021161470666445,1.9062962145668905,-0.5363930375032474,-2.73577625717461,0.5597457871985511,-0.7311539754371202,-0.16118213569989487,0.05491392209895851,0.3075065628449622,5.1684747288756405,0.7093210134617903,-0.28684021335141885,-0.25612119495774477
-0.012183349061152805,-45.04388430546523,0.016708140823297128,-134.92179623328948,-0.024165735987310203,90.02819413382305,45.00770856852923,0.350930631483542,1.8832141914378828,-0.5366837871729573,-2.7021740740871385,0.5604050759534848,-0.7277699223632547,-0.15908295737799533,0.06181798463684323,0.33033851959128246,5.185545906120879,0.7125411702210378,-0.2880166971071402,-0.2625205717486686
-0.012183349137718505,-45.043982431805325,0.01670819041200786,-134.92201442169758,-0.0241311535537334,90.02810113860212,45.00752794683491,0.35282665246375056,1.8865947125145843,-0.5283934555973361,-2.7155864301131154,0.5593836589970408,-0.730745755859557,-0.15899126681322304,0.1103257754904681,0.32162909369641585,5.185439066916086,0.7088477321550977,-0.29808106977646237,-0.2564865939060006
-0.012068875482660855,-45.04398410543213,0.01693395943268816,-134.921788734796,-0.0239841757333565,90.0281011386402,45.0078450022246,0.343120853658908,1.905079521198034,-0.5365109266236383,-2.728509749310024,0.560670423885489,-0.7314702914576681,-0.16128815666065374,0.06088082953758388,0.28029657767539595,5.1640871498075525,0.7013871420458777,-0.2901705170668475,-0.2556537152626542
-0.01206887547415399,-45.04388447129152,0.016929437671940738,-134.92155444037314,-0.024305048659660506,90.02819416158383,45.00775890255348,0.3460383958586167,1.887507018415284,-0.5302647996632169,-2.718128309861664,0.5592223883962854,-0.7295690964890704,-0.16305889618561434,0.061818580739929796,0.31014358541130893,5.146060263864338,0.7087970092666499,-0.28903768194206275,-0.25886302892018903
-0.012055312098682776,-45.043769831888795,0.016810441911080512,-134.92178001930105,-0.024013687141579077,90.02815075085901,45.00788154682795,0.3375399811125542,1.8647740821146688,-0.5495723005903728,-2.7045180849524995,0.559009142173661,-0.7274409511121825,-0.15584160805108663,0.0831055970509813,0.301274982557078,5.160327836295575,0.7059097300443976,-0.2953484890899026,-0.25543458667862773
-0.011970680850575493,-45.04394220413898,0.016810293079371222,-134.92157052740532,-0.024302788085090263,90.02819416158383,45.00757855854267,0.34916129560027814,1.8800175837836985,-0.525407121303847,-2.7186347508939743,0.5608123463630068,-0.7302153363876808,-0.1617955129522169,0.04280374918817456,0.2920317916061505,5.1658111198491525,0.7043096297358826,-0.2846657750694543,-0.2589940798647243
-0.012068885818925188,-45.04388432385984,0.016983691730131832,-134.92155459562767,-0.024034839351267184,90.0280404258095,45.00784497446237,0.3460569938521425,1.8976475844132978,-0.540451286676151,-2.7234781544399373,0.5602363554529922,-0.7312175088196671,-0.1608758724421902,0.0531512559123979,0.29565919818309705,5.168206689079033,0.7091268954640104,-0.2857213948452447,-0.2601805367710738
-0.012068875483501084,-45.04399583309254,0.016708320649477117,-134.92177557963507,-0.024217464040521778,90.02815000131838,45.0076652225655,0.35803539344171986,1.8884455415508292,-0.5312543219365025,-2.7258376044754424,0.5618862046709265,-0.7305809513654105,-0.16401233283674055,0.06701720245712116,0.33465031708221676,5.189793889814674,0.7139226909526746,-0.2888004975179341,-0.2586612443909629
-0.012068875481921768,-45.043770329130055,0.01692943833550559,-134.92178878890013,-0.02421571547317877,90.0281941615838,45.00748539767109,0.35088611712849016,1.8905403681876412,-0.5391034043185503,-2.721996077227457,0.558874906406985,-0.7306915672872611,-0.15931676067045103,0.06923714961406596,0.3118571679610546,5.167669597498817,0.7095942283743076,-0.29053865360977466,-0.26013316259546804
-0.011871128019451309,-45.04408054520389,0.016810776818083118,-134.92179019639747,-0.024070902970027945,90.02819412045676,45.0075579284142,0.3427021539605036,1.8750419876243312,-0.5482944255776028,-2.704788489637278,0.5584924393077374,-0.7306974611426249,-0.16225378757931322,0.051383821673660804,0.33854047903315865,5.126703972343419,0.7139486507474162,-0.29039408546437406,-0.2620306766631137
-0.012064355043580516,-45.04399591073591,0.01670813462151614,-134.9215557389086,-0.024016628841741935,90.02815075085903,45.007801535634194,0.34462453365167456,1.87198372709355,-0.532609361012725,-2.70513824345953,0.5603781962013971,-0.7294129922549045,-0.160895886813451,0.04285740150733683,0.30600034156436157,5.132769747200564,0.7070031305748248,-0.28678225728193496,-0.25831939602735
-0.011848682750198507,-45.04388634691394,0.016828861197851593,-134.92166871838845,-0.02408723806842757,90.02823757227046,45.00752952914742,0.34579745284412133,1.8788885221981408,-0.5392825765808911,-2.709480086726504,0.5609854106987475,-0.7303585773234994,-0.15695983900073865,0.05551399285074389,0.30857876624069924,5.138902835592497,0.709901740881243,-0.28985047848930806,-0.2564583841273954
-0.011933241643825311,-45.04388579449517,0.016810275155452973,-134.92177557820418,-0.024109175382022084,90.02815075085901,45.00788841294799,0.3458272577000736,1.8880609280210743,-0.5402815843222771,-2.7194987869369913,0.5593442447249268,-0.7293941719264392,-0.16027190204514255,0.06767708618286306,0.3183143433532501,5.164882035459722,0.7102212813051652,-0.28915940532730927,-0.25966475677915896
-0.011970755297851686,-45.043897712872656,0.01697020263056036,-134.92189474353577,-0.024113778203792537,90.02819416158383,45.00799335079386,0.3375254012743486,1.860454518399121,-0.5408015210588879,-2.702413381356707,0.5617855444940127,-0.7297510518108467,-0.16017058078312812,0.011010980394217424,0.3213922578446008,5.131628367002619,0.7111550980757462,-0.2805206271978134,-0.2570101812444108
-0.011990178187170355,-45.043884361320906,0.01681196755210332,-134.921775573902,-0.024241206049516163,90.02815075120175,45.007710786293345,0.3376991771714399,1.8686617496750693,-0.5466152761674541,-2.7027877206789315,0.5593146037224654,-0.728857816025678,-0.1610087105312573,0.037377608384380256,0.33563126569283736,5.1292843776427866,0.7127779626091477,-0.28538105335472663,-0.25914950343401877
-0.012069047066285893,-45.044103080088846,0.01681027444840624,-134.92167798836695,-0.024102185881838382,90.02814400225138,45.00752877964501,0.3456817117789839,1.890980198153681,-0.5304385367991468,-2.7222980128111587,0.561087110273658,-0.731436653272999,-0.16078215951217892,0.06907784554412068,0.3006074259025923,5.166542094399136,0.7064335955901755,-0.29135142228331223,-0.2580349324853167
-0.01206888168452915,-45.04400497281954,0.016929437649289746,-134.92177509037728,-0.024167754679344452,90.02814400499317,45.0078674606862,0.345679545371046,1.8884772161907413,-0.5319622236843093,-2.7183647654967285,0.5612374108070977,-0.7312275620821101,-0.16169887895930365,0.06855392427472402,0.3046656957700435,5.1569637575848635,0.707535837016416,-0.29187748416390297,-0.2590692281074036
-0.012073413225270184,-45.04398094232003,0.01682400520563898,-134.92167344051012,-0.02423216689576163,90.02815074777449,45.007690551780335,0.33943426441245406,1.8994038796502242,-0.5513070480331207,-2.7266627172845506,0.5587552101289135,-0.73018717301933,-0.1622832163068006,0.08944168372940711,0.3454477423643601,5.17681032485004,0.7153173953578603,-0.2934819266338131,-0.2616481448323214
-0.012183349035630904,-45.04388580221599,0.016933977351670064,-134.9217755803548,-0.024121516959062162,90.02810113860211,45.00782180133658,0.34076955995313984,1.885355700581897,-0.5394547910160975,-2.7209101979699417,0.5593580939770633,-0.7314591033183573,-0.15821619647133686,0.053826603746064634,0.316353715288863,5.1661489045413616,0.7087534969377636,-0.2881991340805112,-0.25634334317267987
-0.01206736821010071,-45.04390216566079,0.016814801764277954,-134.9217755803548,-0.024172301648549978,90.02815075085856,45.007758157468736,0.33190750203238994,1.8795504675848025,-0.5517435276896231,-2.71070439616801,0.5592322297584144,-0.7274514742235689,-0.1594483650042993,0.10357010947240305,0.3048075897851461,5.16015625851061,0.7080703314228065,-0.2981519309323862,-0.25700665458159866
-0.011970755272329851,-45.043886285642046,0.016929445915457995,-134.92155574700269,-0.02409201202567752,90.0281011478557,45.007983702496304,0.34943961441342064,1.8821755425093694,-0.5340532243273435,-2.7209990107054107,0.5612256177622517,-0.7299904293610183,-0.16537845442705404,0.045624901792619174,0.31260197367333153,5.17195134713495,0.7099403982244389,-0.28449436449056253,-0.2636299772485178
-0.01207032670881774,-45.0437698339292,0.01692943764643066,-134.92167134778637,-0.024192955875681824,90.02810113860212,45.008071480712516,0.3511693995494067,1.870472624788244,-0.5400637306894157,-2.709426675396985,0.5606137561492305,-0.7303034567574304,-0.15457127300448834,0.13630248226564373,0.3020487466740563,5.160438537347877,0.7042611695807995,-0.30650476350628175,-0.2600611279351578
-0.012068875491063561,-45.044080552015245,0.01705145145048709,-134.9215542775354,-0.023973822862154222,90.02815150039967,45.00768981954795,0.3507715533900983,1.8851378051140126,-0.5252424605505528,-2.71896121231231,0.5608342891053929,-0.7307282087977799,-0.15710888402673812,0.02791504235813747,0.28929329144177907,5.133423966703987,0.7057848194037308,-0.2842283325857252,-0.25211649509394757
-0.01197075527222482,-45.043769893897206,0.016929437646419007,-134.92167928757075,-0.024032860975502484,90.02819416158381,45.007528693240104,0.35060122738530053,1.897113334570335,-0.5370739523562481,-2.7218258510310567,0.5599589092289131,-0.7295208556196591,-0.16060697584001415,0.10014095523332785,0.3158766135817307,5.141124808352324,0.7091583457262258,-0.29838756810178485,-0.2578644162711312
-0.012068875482555828,-45.04376983256685,0.016810274567508183,-134.92166871838782,-0.024157191901704143,90.02810113860211,45.0075880526114,0.3399586250724918,1.8812834239528573,-0.5362783491001234,-2.713137391079786,0.5591396117467216,-0.7306906612010875,-0.15878278161712786,0.05774145987309342,0.3218126770282966,5.1727098508601275,0.709745668607237,-0.2872313701379291,-0.2571757195494083
-0.012011447488385814,-45.04398242158756,0.016810330284270193,-134.92154740526087,-0.024035121667218065,90.02810113825939,45.00790652019225,0.34250219536105747,1.8695485162423175,-0.5474178394350604,-2.702459828986494,0.5600091666826046,-0.7296465061269863,-0.15489076710580146,0.07143176191096441,0.31502884713532175,5.165587711790787,0.7100246654536718,-0.2913505373124431,-0.25621600173897946
-0.011970755272329896,-45.0440049912123,0.01685103952601699,-134.92167344048508,-0.024261301846262875,90.02810113860211,45.00748520269835,0.3361261593648699,1.8890730235198867,-0.5478359938162572,-2.715831549554838,0.5580169877827745,-0.7298007610087532,-0.1628389130000233,0.058040701567034426,0.3215772129960412,5.1388828704295495,0.7099510725414307,-0.29021137592777146,-0.2602622360743385
-0.011970755272329867,-45.04403555874015,0.01681027446857197,-134.92156743175101,-0.02400993304457999,90.02819416158383,45.00784499913913,0.33741517292790024,1.899500610646099,-0.5534805554745291,-2.7277370155913987,0.5575688556460223,-0.7320609469338755,-0.16190003750292573,0.0335609812525183,0.33201169753107207,5.1239759843105475,0.7116238150045314,-0.2858847764620762,-0.2585543232735099
-0.01218334288205574,-45.04389050537269,0.01670813459599441,-134.9217598400014,-0.023988695824352656,90.0281941615965,45.00757830857731,0.34536281200248975,1.9005880158715849,-0.5347309016177428,-2.7257604134212623,0.5610179194655898,-0.7289029178987998,-0.15577502823085987,0.0965294412558433,0.298951567467828,5.176270618923189,0.7072549864707045,-0.293736883364868,-0.2544984002866265
-0.011966234144372166,-45.04388447098785,0.016712674298411036,-134.92177558004025,-0.02425460094031678,90.02810113860212,45.00780156385187,0.3334718381728434,1.8986056052212075,-0.5514390504374793,-2.722096215784411,0.5594500043253353,-0.7309893206756443,-0.16117858889343367,0.09406439373926159,0.34660278930368016,5.1618492783916725,0.714919750336724,-0.29657330467182924,-0.25896179498908045
-0.012195466835673886,-45.04392450930537,0.0168102744667208,-134.9216733841927,-0.02401670647741102,90.02819407830152,45.007528696324634,0.34083392766433385,1.8658369771678531,-0.5347111612496787,-2.705325273227491,0.5600761658609629,-0.7306176394163828,-0.1618631388957786,0.021538854794450692,0.3141481376259072,5.134690602185083,0.7077418928596976,-0.283333238241011,-0.2584884703800818
-0.011933074271207387,-45.04412076818658,0.016929437655241315,-134.9218960302287,-0.024218217524878204,90.02810113860212,45.00775815301706,0.34110292296602956,1.885986704067072,-0.5375311006221145,-2.7196234898270726,0.5597553808726374,-0.7328192339908922,-0.15339355125205387,0.05630172583668257,0.3035225705098224,5.158729334395941,0.7068136141665882,-0.2907323115121,-0.251952651743754
-0.012068373364490717,-45.04376983826858,0.0168147955624987,-134.92167344048536,-0.024217444398688174,90.0281507518872,45.00771083470249,0.3502709294426716,1.8731883822202782,-0.5333454742576488,-2.716427810841215,0.5602575881831111,-0.7311476615130649,-0.15810131657773355,0.023992347006387884,0.2986070562172754,5.161678840648745,0.7071618314447623,-0.28200241718081853,-0.25770044396515923
-0.011970755042597743,-45.04398243384862,0.016590479136442335,-134.92178867649557,-0.024124875094320743,90.02819415849929,45.00773816537502,0.34382663067589514,1.8962496490420007,-0.5359129794666154,-2.7212480392602094,0.5606035291204347,-0.7293607597831636,-0.15948594073057373,0.09036643056609166,0.3092502308946229,5.164656710614909,0.7083887013315748,-0.2939202521766736,-0.2574746721818122
-0.011970755272331003,-45.043885795857804,0.016708134595084162,-134.9217799651685,-0.02399246399901168,90.02815075085901,45.00749735820408,0.33577681155115163,1.8910890861759877,-0.5402885143081253,-2.723349546866287,0.5600939815465301,-0.7296743215414422,-0.1569354812456824,0.0699143243354921,0.31769638724037413,5.17369761448273,0.708793884137775,-0.28913479306092355,-0.2539040240053853
-0.012028183187413484,-45.04388452685198,0.016708134595994427,-134.92189474345588,-0.024130537161920044,90.02825487437644,45.00784472427282,0.34509464727537703,1.8918700620986597,-0.529010155437072,-2.724713234770857,0.5591198753030509,-0.731983729379104,-0.16098691103319063,0.07023631295232592,0.32031146219900325,5.148425445070829,0.7105653940300514,-0.2918504039089151,-0.25860277334962795
-0.012070381836105428,-45.04419948861068,0.016810295367725856,-134.92189379540758,-0.024200099942569542,90.0282375723086,45.00780156372499,0.336260730759207,1.868099417761999,-0.5465048979646165,-2.705982234200106,0.5594412683402367,-0.7301199012908207,-0.1599359590023023,0.02815521149345077,0.3342158789654265,5.1362901300322,0.7123711768504806,-0.2840857851042616,-0.25779809384364183
-0.01197075527232985,-45.043769850201514,0.0167141813647979,-134.92177558124678,-0.02416795095958337,90.02815075085903,45.00762172867882,0.33377469290721934,1.8809343647759134,-0.5496330221572563,-2.7128803504497863,0.559199582034932,-0.7295488579084604,-0.15706389064952458,0.05870498011895924,0.30094235896007243,5.157794643859014,0.706215075747148,-0.28827896893892707,-0.25480004271771894
-0.011872635028062855,-45.04381452348239,0.016810274465421618,-134.92173308206827,-0.02419558425796073,90.02805772787731,45.00753544527643,0.3429860115589493,1.8691299630677563,-0.5396000255610552,-2.7107359926390804,0.5596330762213064,-0.7289558450640398,-0.1545427369072617,0.024419067348009728,0.3081135106727715,5.152485104749069,0.7082890879925317,-0.2807105879039458,-0.253849778601024
-0.011970755502026947,-45.043982478805646,0.01682383775952458,-134.9216734404863,-0.02388726040387776,90.02815075085903,45.0074454519879,0.34099893718845925,1.875548815906807,-0.5409589354616979,-2.7220337005378967,0.5580468021919727,-0.7321333709903785,-0.15904486533417775,0.07312493937806527,0.30750396195401714,5.179582077256974,0.7089296711302772,-0.2894830951081011,-0.2551510258657499
-0.011970755272325863,-45.04398677832272,0.016810274541990203,-134.9218152059905,-0.024007909701917816,90.02810113860211,45.007684726045525,0.33836409686322083,1.8822503285830283,-0.5431749888249443,-2.7151280372723914,0.5591741120846739,-0.7280992675081267,-0.16299891215818227,0.0886223542169988,0.34528323661871385,5.151604718480648,0.7151355544319732,-0.2946607244955471,-0.26170816049547085
-0.012068875479720064,-45.04408071753884,0.01693395874349698,-134.9214521434468,-0.024034368146341824,90.02808089175099,45.007907963637756,0.3413692923037993,1.897205085477467,-0.534680947305919,-2.7161417452684367,0.5605298377818689,-0.7284019729295969,-0.15810614984393292,0.07221806682057288,0.31935544917119707,5.163913284287298,0.7105060557224984,-0.2913744538352438,-0.2587635443043807
-0.011970759429563743,-45.043883833498874,0.016708135285080996,-134.92166866030718,-0.024254763208884804,90.02815075085901,45.00762174708121,0.341144661656239,1.8857609203341683,-0.5359124072434949,-2.7201913206930284,0.5601183257184537,-0.7304668932565547,-0.15960849511611794,0.09420570193920189,0.32264455329503927,5.146820500806978,0.7101068904154026,-0.2962581124889614,-0.25776038937536677
-0.011970755272364856,-45.04377049405655,0.016810275154507722,-134.9216734402537,-0.024010712268220057,90.02815075085901,45.007758157131185,0.3455144152019646,1.902838706857125,-0.5403583956239288,-2.726387159701505,0.5592891323721487,-0.7322981284421473,-0.15985248885820064,0.07986545499713958,0.2981617600749129,5.132612398161706,0.7075340935258019,-0.2919584589405798,-0.2597570772672126
-0.01206887548224838,-45.04388430546432,0.01692943764641899,-134.92171238535963,-0.024197882137288972,90.02815075085901,45.00780378459881,0.3419011329577745,1.8897264281234116,-0.5413116458381242,-2.715505469066018,0.5605566839238744,-0.730546537261414,-0.15962342703161997,0.07857147808834841,0.31908940975185557,5.158575750263714,0.7085842600714528,-0.2932005619977234,-0.25500836462228516
-0.011930009304631223,-45.04375172722313,0.016929493462433595,-134.9216734404863,-0.024156103606264377,90.0280900380664,45.00794909797986,0.34351138852999263,1.8845251724437824,-0.5393887458659499,-2.7174173066568073,0.5601418924545569,-0.7285376906019335,-0.15735861064808707,0.06355454171049989,0.3218004000267701,5.163457022449921,0.7124382714267871,-0.28943347976691614,-0.2588722801793387
-0.011969247540270768,-45.04376585725089,0.016810274697952418,-134.9215937406205,-0.024122279787426204,90.02819416158336,45.00750481161337,0.34315274061095213,1.8839709658546653,-0.5432581455778186,-2.712539601933074,0.5583631604955318,-0.7310974325191129,-0.16613501559344723,0.05673174561567606,0.3095083508903172,5.136249447945612,0.7091933207589426,-0.28894352072756513,-0.2548782469393385
-0.01187263506210776,-45.04376983186047,0.016931447022897905,-134.92177558036303,-0.024138184284552645,90.02815049792761,45.007801813470266,0.3372475186992615,1.8761791373402987,-0.5507011589167121,-2.709590012104024,0.5576844881527014,-0.7293581264323996,-0.15961193803177934,0.08757762975040909,0.2936671954815952,5.13598225522623,0.7060518782320055,-0.2946087781573593,-0.25542788219166135
-0.01206887547404853,-45.04376983188569,0.016726219060869883,-134.92189474353577,-0.024179504168742306,90.0281507261701,45.007528705578224,0.3426410004238656,1.8901403726989596,-0.5396606672052647,-2.713565429189399,0.559169314346723,-0.7301172312651568,-0.16020414390118615,0.0839271360219625,0.3193598397967791,5.144077663092288,0.7094388369001884,-0.2951320086640026,-0.25861676909596726
-0.011966401593555782,-45.04398242794507,0.01681027446545615,-134.9216872832928,-0.024174472267774416,90.02805772787733,45.00776564750592,0.34506069512297904,1.8789238905198726,-0.5351214665522,-2.714426996861178,0.5603121791745637,-0.7302456360675049,-0.1620528555771752,0.04689043032155855,0.31216432276662737,5.153915081382476,0.7085827898168814,-0.28660250955736877,-0.25988936069263346
-0.011913325188201125,-45.04387095323325,0.01674882447000756,-134.92189474329584,-0.02415363069640778,90.02810112934853,45.00762247193199,0.34375090353125626,1.8957694969138954,-0.5395356230756151,-2.7219785335659634,0.5576273637680278,-0.7302927406553181,-0.1605276907177619,0.040145122450024294,0.31759757078903605,5.1721737592322645,0.7084063896725026,-0.2856130349658436,-0.25913025485856167
-0.012028185330971677,-45.04408054656968,0.016929437646419007,-134.92167187246483,-0.024128195287050007,90.0281507508971,45.007707183944014,0.34105629016757166,1.9004814486415924,-0.5383559716820242,-2.727824461796713,0.5582491487689213,-0.7322072903833017,-0.1547875122080013,0.08802165389563675,0.309296440751956,5.1748712700661015,0.706623170995592,-0.2953735184313074,-0.25346551237874126
-0.011970755246854198,-45.043884470991586,0.01670813459693966,-134.9215542773047,-0.024150400689738998,90.02819416158381,45.00757156271006,0.3420599676932724,1.8970785200272344,-0.5463023373632286,-2.727516522504619,0.5588912775782288,-0.7299052944500699,-0.1576868576255299,0.08096368156605215,0.3266905267803653,5.181578195639927,0.7119422611519596,-0.29099654782245105,-0.25756924436058437
-0.012068875482540268,-45.04398275679732,0.01681027446542114,-134.9217329067302,-0.024040447784303524,90.02819416158381,45.00757822529941,0.33970059683417503,1.8785782665783408,-0.5473403394714745,-2.706696692456877,0.5589344878138085,-0.7289889274509032,-0.15861726545720192,0.061397028401315015,0.331606191480717,5.133972020933493,0.7124907580315357,-0.29015236387016297,-0.25787292796783945
-0.011946798749311042,-45.04392452769781,0.016816302824903505,-134.92177558057756,-0.024149647173255698,90.02815083414131,45.007758153012354,0.34842279333755233,1.8911938564945339,-0.5327283888318961,-2.713753263030035,0.5600747202232643,-0.7287700367655525,-0.1558876355622056,0.08872477028120147,0.2949183963421382,5.1470380251598815,0.7059735717374542,-0.2945335166706601,-0.25521593176171486
-0.012192452977230088,-45.043995833309936,0.016930944755658,-134.92177565253274,-0.023988687518398433,90.0281507508167,45.00782180240142,0.344386086389216,1.8801059792249335,-0.5429736951544781,-2.712574718377764,0.5591551731066658,-0.7297258137179249,-0.16113690672499328,0.05463353703086139,0.32558372801206664,5.148796058524566,0.711540953050501,-0.2881616798923267,-0.26050530230690594
-0.01197075528062709,-45.043982928628324,0.016814789369222646,-134.92166871842687,-0.024174816472563088,90.0281011386148,45.007548247014405,0.3439145997196649,1.9001770876938917,-0.5348413335182457,-2.7181795336476084,0.5615024661150931,-0.7283225011527267,-0.15997199385206803,0.0749345847962642,0.3187372496991433,5.136081378797176,0.7104035783011933,-0.2937213572285519,-0.258160523392574
-0.012181841787857908,-45.04385004821036,0.01670813459595941,-134.92145359911345,-0.023903465288254686,90.02815075394355,45.00766736943758,0.34564879354147166,1.8952719799106137,-0.5421813386923392,-2.721828113542706,0.5595791730027097,-0.7284703584320412,-0.15715810654476978,0.087444815844667,0.3156338971151761,5.1691154652230615,0.7105192094158171,-0.2920219577607118,-0.2572954262668845
-0.012032708602733496,-45.04398242559879,0.016932344087460534,-134.92171290380148,-0.024190849249943313,90.02819191296187,45.00780156373763,0.34589903167796876,1.8859512788250856,-0.5406987417867446,-2.719614953548603,0.5593687318475149,-0.7299749479556252,-0.1611692892859284,0.06003927175919199,0.32058982281994447,5.165309346629847,0.7106877320476085,-0.28809560387031397,-0.2605182174201313
