BIOROB-Lab-192/Bilateral-Teleoperation-TouchHaptic-FR3/Data Collection/05132024Gear Ratio Estimation Attempt 2/GearRatioPose2.csv
q1(deg),q2(deg),q3(deg),q4(deg),q5(deg),q6(deg),q7(deg),tau_1 (Nm),tau_2 (Nm),tau_3 (Nm),tau_4 (Nm),tau_5(Nm),tau_6(Nm),tau_7(Nm),Fx (N),Fy (N),Fz (N),tau_x (Nm),tau_y (Nm),tau_z (Nm)
-0.9223949788235463,37.99978108004981,0.038286188758584395,-94.82841329567052,-0.09204644071524978,133.3074224628259,44.25836244722823,-0.20999003323246254,4.176319964846134,-0.1304985405525654,-1.3927686738703504,-0.08118796127502205,0.027612055168281458,-0.2665848754133666,4.724162515872212,0.7107463873318498,7.1042173974165985,0.2163323993369377,-0.33710750504713544,-0.26329542958804575
-0.9224962809687977,37.999758539717966,0.03816099711990336,-94.82839964758843,-0.09226885745193901,133.30742243507765,44.25844696645423,-0.17002110151315014,4.157000280289837,-0.10176272237605684,-1.3829976571959794,-0.08178107572328026,0.030960639008033707,-0.2683745788908314,4.746091704053143,0.6754663340258331,7.1349889622627005,0.20745191312172037,-0.3435630881369837,-0.26086395344247887
-0.92229537604305,38.0001056541918,0.038421887998050394,-94.82836974706545,-0.09208575013031382,133.30742240731692,44.25838261834327,-0.20381206323844922,4.142566550820267,-0.1263630252268755,-1.3771212445820595,-0.08025617869322356,0.028972391189114006,-0.26881806833591476,4.708618240054724,0.7543867869314229,7.039688833505042,0.2267435127080607,-0.34128910363015214,-0.26601338889636894
-0.9222953512308745,37.99982057760605,0.03820170634049485,-94.82850179174855,-0.0921265271542512,133.30737902423866,44.25821853227516,-0.23079223423330247,4.159929032174001,-0.14590965171621123,-1.3806439502174686,-0.08238866489583523,0.029428659748694103,-0.26410316984221216,4.724367230482852,0.7494873294958809,7.0723275793980855,0.21755108207901497,-0.3405877074160656,-0.2631219947181207
-0.9223939491562478,37.999972857467405,0.038280330114340434,-94.82829463777003,-0.09222624139058788,133.30746584580223,44.258549028170975,-0.19486176794900398,4.175093193634596,-0.1312023364812529,-1.3861754321643345,-0.08188312875610523,0.030310872167538083,-0.2716974892506716,4.722785225230273,0.789876827438211,7.067371267713437,0.22975854004482388,-0.34016878109065235,-0.26570958846077364
-0.9225051012967758,37.99954594592914,0.038182957411557805,-94.82816662821442,-0.09227367380861488,133.30742015833954,44.25863209154828,-0.25225819119625376,4.172532952954837,-0.16345940900607675,-1.3794041349804977,-0.08126968482213472,0.031528368842066806,-0.2654933080681365,4.775119429768878,0.8195742317647561,7.095025208768065,0.2348820775989071,-0.34792530978278524,-0.2640276699289538
-0.9223949787205357,37.999782604002895,0.03806334953180147,-94.82829463753012,-0.09204062334077862,133.3072681549696,44.25836465148531,-0.20343192974884278,4.1570970374613445,-0.1318734680151923,-1.3744846675023217,-0.08210107250524223,0.03213063029794021,-0.26874819329330735,4.724155092390213,0.736640812240231,7.117741372686107,0.21680187306140442,-0.33813034434181705,-0.2636218381189196
-0.9223089170092439,37.99987971165208,0.03832537905168048,-94.82817302431499,-0.0921367556862854,133.30737894107054,44.25845282086282,-0.21571852235245234,4.161948100428673,-0.13409298995245938,-1.3821778387151975,-0.08158711021956261,0.030424469220348662,-0.26686900049916057,4.734542924547898,0.7682892702115925,7.074897595495501,0.2276237194236953,-0.3422183381326705,-0.264921573915263
-0.9224622345676856,37.999892866771646,0.03793969684018801,-94.82812446673884,-0.09210884334246008,133.30733564138885,44.25872888155922,-0.1926747913009585,4.167032623026615,-0.12957713310723437,-1.3931252134585108,-0.08051004685988315,0.030513624168349813,-0.26574354851986753,4.69427933463674,0.7354602515695097,7.083046078191214,0.21432220619669182,-0.3330280616677762,-0.26089751389938254
-0.922510179372709,37.999781086200365,0.03842455372825041,-94.82829407396092,-0.09197887110097648,133.30746584565014,44.25842053068633,-0.19532337507617736,4.184218572783438,-0.125412864109616,-1.3898071117817892,-0.08185555732219782,0.028338814099650857,-0.2730914107076697,4.763996151960306,0.7503330703998861,7.109014997758001,0.22374123184275466,-0.347502936676704,-0.2689709037074699
-0.9223935272918282,37.99997783254628,0.03838235624260311,-94.82839947692527,-0.09231227131402649,133.30751697470453,44.258291168535706,-0.18655701048303344,4.1603590223151565,-0.11246004160243668,-1.3804986911164223,-0.08147675193161008,0.030529438908612656,-0.26486272620478046,4.738921891528367,0.7234217261598856,7.07242301347336,0.21857087759159588,-0.3432478569979319,-0.26242632541953803
-0.92233604780024,37.99978058958717,0.03844342518280283,-94.82841311473652,-0.09202210867373793,133.30737902435334,44.25876903295612,-0.17087270482333386,4.1803805832094145,-0.0942880847746891,-1.3945664358979288,-0.08350992030403674,0.028167991661703643,-0.27238468277414535,4.730261314531589,0.7109240426481187,7.101830530305745,0.22282812809008515,-0.3411095137460255,-0.2704264946765247
-0.9224343912865025,37.99966661291297,0.03829377964484994,-94.82816237345781,-0.09199893732643495,133.30737225061054,44.25853999833413,-0.21404020714102145,4.165727665488475,-0.13265130663532085,-1.3868128546193714,-0.08252404134841887,0.030267656273509334,-0.2643445900024449,4.72238905262292,0.7615637263108719,7.080814006488457,0.2243062561420112,-0.3393210543162382,-0.26277191386025306
-0.9224174401734904,37.99978108638919,0.03862007755794143,-94.82847182245214,-0.092269203037379,133.30750933980954,44.2586296762953,-0.16093182692822725,4.197397009251165,-0.09177769235949883,-1.3945953899015568,-0.08368875162067818,0.028807854250730045,-0.2657672660609421,4.777053700385272,0.6878318622860318,7.131957623473119,0.21183146533566366,-0.3477436610038073,-0.2633269145987044
-0.9223094201789148,37.99979523410704,0.03860651187696287,-94.82838844106618,-0.0921265274576625,133.30741793783378,44.2585205855913,-0.19811740583220566,4.200162098677306,-0.12965552404558994,-1.399094279401518,-0.0814061001136931,0.026791206905141363,-0.26857806999601813,4.731837202139671,0.8238399664259668,7.006789359257974,0.23752853995709877,-0.3453714186359604,-0.26588586650025575
-0.9223426068871484,37.999569991822554,0.03840381369592649,-94.82823793144696,-0.09198620281392772,133.30742235141457,44.25846324036585,-0.2283346121883988,4.219644339488509,-0.14454522090516594,-1.4194881497702214,-0.08308713776370903,0.02712023119757632,-0.26377473293637727,4.717237708708005,0.7811943955445708,7.1657436698768,0.22618032987713202,-0.33393934346842524,-0.26242970944470523
-0.9224961134897375,37.99978108550487,0.038167046284484654,-94.82841217930728,-0.09207531223108788,133.30755266725205,44.258612528570694,-0.19541894743395968,4.14229416802724,-0.11769327882979093,-1.3716095656646716,-0.08126725382781673,0.03177287826704457,-0.27116681467107684,4.729496459418193,0.7456609699274865,7.044159801208469,0.2270965855545013,-0.3424589293976962,-0.26856373562683244
-0.922295041613923,37.99997683003254,0.03816300675132722,-94.82810417940291,-0.0919991919835911,133.30738577021873,44.25854170966162,-0.21139490704629998,4.194583553766507,-0.1296415470099481,-1.3975474059346256,-0.08052790906341376,0.029720555646516978,-0.26811417333188686,4.718824428948406,0.767753279612911,7.063562062077401,0.2286155770936143,-0.33731696574885844,-0.26634857564347303
-0.9222953721715751,37.99954595217259,0.03840189288081234,-94.82812897270063,-0.09222770710060063,133.3073790150979,44.258514351063944,-0.16795061239778336,4.187274016263144,-0.10632291947338238,-1.3976447441232573,-0.08265601499259417,0.03004546198172057,-0.26511779906986743,4.710003536265555,0.7202384821456881,7.189411001163751,0.21416283735013028,-0.33265972086419066,-0.2636606373440928
-0.9222958598661267,37.99966661260543,0.03840675354407932,-94.82812308653925,-0.09202428194792331,133.30746584580245,44.25841252851237,-0.21659165289364204,4.189618297066528,-0.14185406902798514,-1.3975426983519137,-0.08262623682506069,0.029205335898533524,-0.26534802915853256,4.718734680403267,0.6946736847822823,7.1152938946914706,0.21038367740647543,-0.3384280589375739,-0.26259723648889793
-0.9224070927807262,37.999924740306604,0.038403764082095955,-94.82829447559327,-0.09241974184280302,133.307421685537,44.25850305165463,-0.16530280544574372,4.172577283140124,-0.10568647541356815,-1.3874532033703413,-0.08245175961973077,0.030042005421756272,-0.2667288721862661,4.724185593184223,0.7840748559217545,7.079166208486917,0.22673508615439955,-0.3402314935748513,-0.26330950879621556
-0.9224070390261356,37.999781080044166,0.03828910342001265,-94.8281872631124,-0.09217101205030448,133.30746575326657,44.25866958572754,-0.22458287357291148,4.173572311752721,-0.15328639167740554,-1.3856297694079902,-0.08183461545766693,0.03098945642924339,-0.26964176740782875,4.738743680619799,0.7452860617018215,7.089213076203571,0.2173489144005811,-0.34291079102798594,-0.2606478587598273
-0.9225344654048516,37.99990402958721,0.03829372390726132,-94.82828993509733,-0.09212615102798037,133.30742018645572,44.258338541653345,-0.18661032159728816,4.193063689641238,-0.1180598968616726,-1.3965074860166087,-0.08212087902080616,0.030437980983828827,-0.26680530012169434,4.755250329598185,0.7560888323641104,7.133177103288567,0.2192824920383385,-0.34083430348355453,-0.2592947981123807
-0.9224070369651562,37.99958692706416,0.038325601579337856,-94.82806344635428,-0.09222348028780848,133.30739926195042,44.25847623927065,-0.18835359260025394,4.180652469719521,-0.12352347285372807,-1.386389333110182,-0.08214053117040018,0.030613388254026427,-0.26519374287532327,4.734715002248446,0.7355110470057298,7.104352068601464,0.2146865987073205,-0.33956392369738264,-0.26226555417739683
-0.9224360368444585,37.999838986249316,0.03816167587130205,-94.82840750407799,-0.09184843441769536,133.30737876523972,44.25865290863052,-0.2082663552580579,4.154772325269622,-0.1336730716261339,-1.3750178022468664,-0.08012619647648182,0.03255934355934506,-0.26659037954375675,4.725434261004404,0.7149421260223892,7.138500152409156,0.2104273406030525,-0.33586467400776804,-0.26118613855134176
-0.9223375550543941,37.99958215277259,0.03828016313515334,-94.82829393819937,-0.09206867002242407,133.30726346982559,44.258674086166394,-0.1768307537480945,4.164213211680299,-0.11075090128901492,-1.3852487392708785,-0.08306145312489643,0.029836158907141832,-0.2612027327798089,4.713468464064866,0.7901343244537002,7.105944335776836,0.23305916232492488,-0.3348258609720669,-0.26740335079755606
-0.9224917963630606,37.99987920639616,0.03816272844164632,-94.8283522378803,-0.09200646447945467,133.3073271085529,44.25850536854693,-0.23798956433484753,4.173602113681116,-0.15974587700517973,-1.3867602551862441,-0.08167305645164548,0.029425799021744026,-0.2681517243242931,4.746135676194496,0.8040829416330999,7.092903564101454,0.22907368264247238,-0.3441524272312484,-0.2649184168094709
-0.9226137391758172,37.99996391919516,0.03841604398082264,-94.82853647035773,-0.09213703063531227,133.3074224340368,44.258543769912585,-0.23828774833184105,4.1695498421664965,-0.1532313002246008,-1.38753786133397,-0.08279440689043575,0.0300356251189712,-0.26236292174079595,4.7295509864350125,0.7937761432656778,7.086955895334814,0.2271349328000096,-0.34057054840478956,-0.26108299728617695
-0.9226332228494074,37.99978955593386,0.03816158216232653,-94.82805523680496,-0.09204749302107461,133.30763336790957,44.258356905787075,-0.21881924096869756,4.181366755192725,-0.13917817248162273,-1.386679450043689,-0.08133941091277297,0.028879023374550894,-0.2662555502439818,4.745099922596042,0.7249304225267666,7.054058845658801,0.2200181725474852,-0.34572548479497883,-0.2648073694706529
-0.92239341564889,37.999781086200365,0.03816119170243893,-94.82837114426177,-0.09208303263104917,133.3074246833569,44.25880015055801,-0.2510959988112026,4.172656388919095,-0.16481680518235733,-1.3912336303291624,-0.0830609646028641,0.03030850266606414,-0.26423275430748766,4.718862563958297,0.8152450523528848,7.092504613301543,0.23050134073747816,-0.33757575574026977,-0.2627251615682946
-0.9224936006685367,37.9997810858794,0.03828468147194688,-94.82837072946151,-0.09214686139390928,133.30742243473495,44.25865215909128,-0.2335196692726725,4.171876226242897,-0.15280454801015506,-1.3871692919543273,-0.08148093122208623,0.031163384538057042,-0.267321420327552,4.735491291891405,0.795577933655752,7.092801239184694,0.2294436506623359,-0.3401551399006881,-0.2647010607705639
-0.922398681100949,37.99978108618304,0.03844292277477315,-94.82822959984269,-0.09211815101756969,133.30737902435285,44.25834003850063,-0.17535859013405403,4.152097500544185,-0.10642186789571587,-1.3805037477037432,-0.08278412119411126,0.031294788155009315,-0.2674971444463074,4.714099043047959,0.7113203332211191,7.059557106880275,0.21538141530591748,-0.33840183163967036,-0.26435367843694124
-0.9225207617981058,37.99978108618308,0.03810408978301441,-94.82828829403795,-0.09225077594795433,133.30746584580245,44.25831357534242,-0.21628134912836358,4.177521199413631,-0.14778859022802238,-1.3814435158516487,-0.08007229797736812,0.029743729380822682,-0.2668395474605013,4.783606505877563,0.772513091933499,7.100449239510117,0.22153408282797657,-0.3510677094101577,-0.2622287705824839
-0.9226152071708772,37.999781086185926,0.038286214255568204,-94.82817832427945,-0.09222299009624862,133.30737902435285,44.25849660243979,-0.2428551960134106,4.176978941692843,-0.15086812901770674,-1.386653857957474,-0.08242133989771065,0.029659574218279496,-0.26776193501582,4.755583375043551,0.8080928033939848,7.0990722771320005,0.23657042980695572,-0.34527324155512434,-0.2670901745943762
-0.9222998760244393,37.99987937503995,0.038402232449845045,-94.828413640299,-0.09208984007409114,133.30746584579808,44.25840803126756,-0.14134734043943956,4.191401702891174,-0.08462279773629014,-1.4024244365185952,-0.08348500959209502,0.02971105756501247,-0.26644895767965227,4.741281021151553,0.7046856661696259,7.074235786228759,0.21463774984735473,-0.3434660520558213,-0.2602283669152768
-0.92239398007068,37.99978108618308,0.038415796441134686,-94.82829465501673,-0.09224851229556881,133.30724029635707,44.25820989544486,-0.1856641946007638,4.145190762179421,-0.11770231767736646,-1.3752604226631588,-0.08260081050127246,0.0327659338407021,-0.26586318005712034,4.717479338308096,0.7243184421301897,7.050527058456187,0.21470389444813343,-0.33848122603450187,-0.26240161319457744
-0.9221833945783316,37.999879207087325,0.03818109664001925,-94.82836600986204,-0.09209014740859622,133.30728370639642,44.258312683865675,-0.16468771142953523,4.140906060296676,-0.1008090747659462,-1.3711424637907792,-0.0828061810328422,0.03320133600412988,-0.2625005220264652,4.725609146999259,0.6888162619289169,7.0441506716992475,0.20711713484973265,-0.34031880780020124,-0.2591550567625577
-0.9225324929748188,37.99966661329601,0.03832137258962815,-94.82824690930101,-0.09226623430303557,133.3074224350396,44.25876186133836,-0.21454836680349249,4.192050876886968,-0.14266611939781593,-1.394343245552988,-0.08197473372642755,0.02836560100032527,-0.26789036351982887,4.730880681058363,0.7714728494197163,7.10515305493441,0.22433856428902213,-0.3420990594487756,-0.26274964408497437
-0.9224347324365313,37.99980865990132,0.038161166885028415,-94.82841380068534,-0.09205242397770151,133.30742242544312,44.258259581583935,-0.21972723445197812,4.1777752277611055,-0.14192705483913173,-1.3936463533720636,-0.08161861366160786,0.03159458890887764,-0.2692644434273613,4.718966552541454,0.7784727536646213,7.103166105964593,0.2277323124020351,-0.3353106056522062,-0.2662964833588128
-0.9223934714412535,37.99987921263948,0.038163033651718754,-94.82802251910677,-0.09233903222204055,133.30744267267522,44.258548285878355,-0.21930231055557536,4.141416313920167,-0.1410827213394072,-1.3736006734426998,-0.08061173061574357,0.0337715170403489,-0.26809153067323094,4.7273757844081015,0.7725673163638836,7.115324152995918,0.22547653609464183,-0.338562647753946,-0.2661813083833532
-0.9222953514354117,37.999781092428634,0.038443599444216055,-94.82835663034413,-0.0921033760569661,133.30742017720073,44.25878951140286,-0.2544680392843318,4.171967958965993,-0.16976374781690148,-1.391939705238016,-0.08188827959644257,0.030408730588639514,-0.2656051890562655,4.739181996939001,0.775061760689852,7.0781825582581055,0.22632890223650018,-0.34249563073494194,-0.26448960985894554
-0.9225341509400251,37.99998182488845,0.03828166735786379,-94.82806344632434,-0.09198537424169503,133.30737902435285,44.25836096541582,-0.17120291229371432,4.166014832204363,-0.11085689105769522,-1.3877413990736291,-0.08070454572916338,0.029159312774761893,-0.2631253041685625,4.746108480851941,0.7302566485863289,7.100330908244377,0.21742537124884176,-0.3423655936408924,-0.263990186945662
-0.9225155617645506,37.999740863949555,0.038287646948612496,-94.82815298730331,-0.09199993322456021,133.30735497641922,44.25868874421004,-0.23790516549835822,4.129433399897258,-0.14934734267805566,-1.357084197238446,-0.08036578602327729,0.03455231699843532,-0.26599799419065695,4.748996869888297,0.7158333973501254,7.10502443047441,0.21377651074894793,-0.34562817610711855,-0.2635269881783983
-0.9223362152502742,37.99976320941163,0.03832376232422926,-94.82851543549518,-0.09204868993476042,133.30742268488646,44.258502682989636,-0.19648854593010098,4.2199042775020645,-0.11661663082079196,-1.412195010162989,-0.0816450064265916,0.025614982829609077,-0.2666844380640185,4.706697380715095,0.7420116046147531,7.120632924181066,0.22445389339267813,-0.33509043249642834,-0.26413584557981307
-0.9224341190842699,37.99966611396517,0.03838684614978275,-94.82822790635691,-0.09204485985598633,133.30746584580245,44.258399629609904,-0.22844370672870062,4.226771078141693,-0.1430843347459562,-1.4251660338946437,-0.0816111194792159,0.025765269449425365,-0.27106376963439555,4.72108898255444,0.7393999318215234,7.055532652878005,0.22022943664615385,-0.3394875040553208,-0.2626983584319414
-0.9222954070569865,37.9998791880018,0.0381811523772424,-94.82817834877812,-0.09210349561630646,133.30746584580245,44.25872569719714,-0.20929996111109656,4.1564897416239495,-0.12978944087017502,-1.3800480433836737,-0.08161351619639763,0.03128938581527203,-0.2675354181026757,4.767047200873033,0.7789476975372387,7.105077672597882,0.2284304408944452,-0.3471619337039097,-0.2650738611842597
-0.9225157844081129,37.99966661259576,0.03829372413693809,-94.82829308090193,-0.0920837833494855,133.30735878675532,44.258515847764905,-0.16588939942218342,4.186889728576138,-0.09640687252179901,-1.3957881230272662,-0.08235861252080741,0.027700112354342145,-0.2725723722036779,4.74361442721571,0.7055499733224435,7.112105973396972,0.21940193221240523,-0.34351452999945126,-0.2692359016565548
-0.9223979932802464,37.99978108618304,0.0382806627193959,-94.82828990883978,-0.09229402134308971,133.30746584580245,44.25831979468199,-0.17298601918206152,4.206850654695359,-0.10667873612588388,-1.409466325404518,-0.08106576419028386,0.026477027949806824,-0.2681168675713459,4.733928894463416,0.7097941310198636,7.143369310768919,0.21567679468856502,-0.34000889010900726,-0.26422677088960755
-0.9224087137811311,37.999870320306016,0.038383807457024716,-94.82824724157692,-0.09205023699860393,133.30742243199313,44.258501691819205,-0.1777391177620521,4.177921535452092,-0.10735958514141537,-1.3878362722438482,-0.08022627793107426,0.03005458177437558,-0.2684026871296231,4.7273059477278885,0.6942594671890754,7.021227629836891,0.20971534591529978,-0.34224465328666287,-0.2601804512355292
-0.9224917591343795,37.9997810931233,0.03828814830567622,-94.82841379878253,-0.09210600737346382,133.30742234767845,44.258589361596016,-0.18947735794250156,4.170715295890638,-0.11573103798417961,-1.3849920377949119,-0.0811691019069514,0.030202202441171465,-0.2656946888218338,4.746243577773048,0.7292515727750682,7.089302163063957,0.21966410720008384,-0.3436325942338597,-0.26299818063630614
-0.9225155611490922,37.999781085956016,0.03816101571422515,-94.82829393075642,-0.09213576188723921,133.30742243507768,44.25825908726721,-0.1528441441724838,4.206172459514927,-0.09370501813870082,-1.408989868273062,-0.08335954639020894,0.02613315450049494,-0.2608218147808417,4.735735684665248,0.6694701904011383,7.14166312023024,0.20121198261459022,-0.3409607102049085,-0.25714383965315996
-0.9224477335007675,37.999666113990294,0.038504539763768046,-94.82829445632025,-0.09217073595146955,133.30737824705002,44.25847076105982,-0.23997247042941566,4.206373699563636,-0.15507843778462452,-1.4031507518624282,-0.08163267178976823,0.028194175608915722,-0.270438593177067,4.759029122878313,0.809490807139234,7.145836610210347,0.23508468543193056,-0.3433736933375789,-0.2681654337732827
-0.9224220192630834,37.999781085956016,0.038280218251712704,-94.82829311115172,-0.09213025193033178,133.30740219746744,44.25842315069972,-0.22917072240516323,4.17208719911832,-0.14232753024232864,-1.3878163163380643,-0.08252050111122243,0.029068280780999007,-0.2658318295024575,4.737580962580313,0.7854794662124165,7.089657719354015,0.23038125184121744,-0.3429246531096629,-0.264747300135828
-0.9225140733564478,38.00000220809598,0.03832381814451533,-94.82814820713854,-0.09211594140765776,133.30746584580245,44.258658485187595,-0.15350008604233434,4.212754221194049,-0.08769983208999838,-1.4114707300403704,-0.08178451374392985,0.02690278690389642,-0.266641766403669,4.740067394508805,0.6786225021476007,7.153999686009887,0.21141910269249428,-0.3399085631023007,-0.26339458121703824
-0.9226062409759119,37.99978108610738,0.03828172316932572,-94.8283503317766,-0.09209253492539979,133.30731831156024,44.25855725032988,-0.19075211359576588,4.189077312839539,-0.12301530903963984,-1.393149543666287,-0.0818164312213835,0.028664554596064176,-0.2679665014152364,4.749129921003514,0.77693459200154,7.0870882064627585,0.22384150097676686,-0.34510254410050545,-0.2651570063514802
-0.9225161193509673,37.999781085956016,0.038282244893843666,-94.82839964677919,-0.09198109449550419,133.30746584578975,44.258404848748256,-0.20349375335619105,4.1997092945894465,-0.1286426479299772,-1.396831922001988,-0.08164449771638753,0.027489356883520468,-0.26772426962460893,4.774272842797768,0.753263475564494,7.133659142137987,0.22314929230917155,-0.34836000168087927,-0.2647679881715647
-0.9223936410862917,37.999823585137904,0.038202211756333655,-94.82851385914107,-0.09208653158096847,133.3075294941248,44.258745894707985,-0.13988357983338573,4.176636573195391,-0.07464421066768175,-1.3888567759715496,-0.08121762666909824,0.02897758551343555,-0.26375207791462757,4.747381454728351,0.654276873347315,7.097090751964264,0.2077678192387307,-0.3443608169187608,-0.2609181459258481
-0.9224342240398403,37.99978108550191,0.03828618861490785,-94.82819041765147,-0.09204945545378966,133.30746582112621,44.25842451795336,-0.18738500480665088,4.209008616224519,-0.11387947119215666,-1.4129479386698514,-0.08238011221145917,0.026226759287487075,-0.26741179264225834,4.748959581645983,0.7912077434587144,7.144290793858979,0.2262219042605833,-0.3424820525451687,-0.2642186167578017
-0.9224070370209415,37.99977941248029,0.038298412689298816,-94.82839889515483,-0.09230957600296989,133.30750925652723,44.25843519507252,-0.20545583811167084,4.200303657137963,-0.1345252971153778,-1.4038263107393771,-0.08128536502595345,0.028173046196943607,-0.26796640715397985,4.734766219419737,0.7720349665948232,7.106783565988724,0.2209465125528444,-0.3420305016619927,-0.26204362633008543
-0.9224915917279387,37.99992018729288,0.03816116685793092,-94.82824375971006,-0.09218823261249438,133.30737669244866,44.25844687889385,-0.19854659249417256,4.184079897322364,-0.12714564165899087,-1.3928903801929948,-0.08164105320740798,0.029068887239561324,-0.27083318532760287,4.756135276636709,0.8206073521352382,7.126246294846967,0.23394434478703502,-0.3455855370952761,-0.2652935635072311
-0.9223934712116063,37.99986563345857,0.038297377639997694,-94.82840907588671,-0.09223226043757829,133.30737899659198,44.25882392761442,-0.20747425181062487,4.206433577914013,-0.12718230308775663,-1.4051139482672617,-0.0815807144015027,0.02744040550378487,-0.26511104073691155,4.7065494686872515,0.8298099488220558,7.108845361504488,0.2394413265334283,-0.33457066223450077,-0.2645221514261386
-0.9221967475747842,37.99978108641348,0.038176131898825204,-94.82818598584011,-0.09222780049070047,133.307509256413,44.258878672928745,-0.20282902488652238,4.1835963602584165,-0.13006803398334496,-1.393725312821936,-0.08278392564247493,0.027586486166077256,-0.2638602968088018,4.749830465665214,0.7164579427035586,7.118114534007776,0.2144080604082421,-0.3436176328605874,-0.2594515432950396
-0.9226151886387196,37.99997732660353,0.03840373919507967,-94.82805083389245,-0.09203987099905651,133.30746584565014,44.25863574475488,-0.18986913371581704,4.196518406833749,-0.11579475422337371,-1.399720109113917,-0.08235254763719525,0.027774669861042538,-0.2687945789651459,4.704100698322498,0.7100966658632148,7.129023241086362,0.21057501570846202,-0.33434231618092086,-0.26231576481488
-0.9225160662567287,37.99987920662465,0.03820119903676811,-94.82839417406447,-0.09207444997737685,133.30737902435283,44.258668589497084,-0.20129461171541632,4.148951193485991,-0.1348045614461212,-1.3723339733172126,-0.08125517669413268,0.03197083411088314,-0.265125597689751,4.690210053540286,0.7783971931649083,7.098579331208561,0.22542613618103166,-0.3341537043311342,-0.26096789474133436
-0.9225368285916563,37.99978108004413,0.03828172939411438,-94.82850126925626,-0.09219257164197632,133.3075114218669,44.25878723297178,-0.20284876378669148,4.192927655572872,-0.12269211156688845,-1.4080718461084052,-0.08163530728473095,0.029102713718770736,-0.263986023665574,4.737249169380737,0.7870932605615081,7.065240149757455,0.23037437215225756,-0.3436726930054041,-0.26638443887584945
-0.9224901046243698,37.999745417417415,0.0382801858722337,-94.82824982633456,-0.09215716980944172,133.3074224350776,44.25842685993768,-0.19703626669876081,4.172351666900093,-0.12781138893090535,-1.384661922270747,-0.08059889558323236,0.029414637961263694,-0.2641614188203949,4.720334539343393,0.7280553009774576,7.1157840492778615,0.2170808929743932,-0.33591017255866185,-0.26122789831062065
-0.9225459164270005,37.99987920616614,0.0382823643376861,-94.82814791747964,-0.09229195432353489,133.30736170994692,44.258475306031414,-0.2613571224260049,4.19029710723409,-0.17864016569431962,-1.3966460062400305,-0.08227030347209759,0.030212154384783956,-0.2649595071771862,4.74144925515789,0.8327052244284925,7.1221722001718755,0.23088582286484668,-0.33985774666373714,-0.2623502165231875
-0.9225292940635627,37.99974086604859,0.03828306971997822,-94.82819041853934,-0.09213017544292962,133.30742243496204,44.25860495886177,-0.17151351089709985,4.144360630115464,-0.10218468886749536,-1.375789798358736,-0.0825872611992729,0.03072930793336918,-0.2646639298452436,4.717289370148538,0.7012332396925409,7.045694770179513,0.21302252707362745,-0.3408606921444804,-0.26191833648390883
-0.9223934735087008,37.999878707804825,0.038215809661653895,-94.82841363874633,-0.09202459214872154,133.30731831144584,44.258675991343736,-0.19671487378917227,4.1876761930903355,-0.12351057450088833,-1.3978723310960262,-0.08137029736477844,0.027594457148203338,-0.262513694305967,4.7351157217306366,0.734908331808515,7.113207854836696,0.21723979668752472,-0.34184188052176184,-0.25985890800081674
-0.9224341741877363,37.99966661260448,0.03832103906660496,-94.82829459602408,-0.09209329428504148,133.30724021330326,44.258405022972255,-0.17657863770695867,4.1687531002028395,-0.10908022114480306,-1.3877426516474636,-0.08015408230053114,0.02933610970202985,-0.2648983600977284,4.729099512192653,0.7099896806708488,7.084340410126438,0.2148650338003901,-0.3413394346176935,-0.26128890162845225
-0.9221733909472782,37.99966677921619,0.03817523116674795,-94.82814503405393,-0.09225103321161317,133.30742243199313,44.25851593099837,-0.21471485179000965,4.214466799019244,-0.14125008977389591,-1.4155190649338212,-0.08239486084054055,0.025056208409741116,-0.2662175594899277,4.727297268923124,0.7670295745925486,7.153735025243554,0.22149001425847276,-0.33920208038178135,-0.2629803114960655
-0.922407092780865,37.999666116008555,0.03840279099718946,-94.82824224333247,-0.09191754831129656,133.30746584580245,44.258875666608056,-0.19794715303892704,4.218611865674232,-0.12962105095793902,-1.4073226428545247,-0.08404620921011782,0.02758399805697191,-0.2696025272011028,4.774891829498093,0.7487671056506053,7.165439785584646,0.21819500426348612,-0.34565196081655025,-0.26578634070180657
-0.9223799138574428,37.9995325384454,0.03832304867435999,-94.82829302460364,-0.09202503550279156,133.307362471813,44.25833910048718,-0.2445260448949269,4.191298716218727,-0.15827460636233745,-1.3985349113773988,-0.08134594756716183,0.029356835302386308,-0.26467032153933034,4.737068512403393,0.806744414676429,7.122316708631657,0.23171158622152324,-0.339695651582635,-0.26301799002456294
-0.922295855736285,37.99966661260448,0.0384037667577886,-94.82840224945784,-0.09204665203041328,133.30742243404944,44.258405080697784,-0.2148503104855868,4.180095001942139,-0.13432340436088053,-1.3891575196551789,-0.08155783643495303,0.029225943067097557,-0.2657088921179321,4.753408889732763,0.7656313486919033,7.103497197517639,0.22597757877418204,-0.34488359657688483,-0.2636828420171051
-0.9225051840455546,37.99972745654959,0.03829540454915391,-94.82851537511576,-0.09216470566975975,133.30746284763984,44.258500989473454,-0.21625743490750707,4.174465998288978,-0.14491437966778126,-1.3933648754820873,-0.08190996381719319,0.028265389855566203,-0.26586461973852576,4.71847050200986,0.7691687389171564,7.092059810368381,0.22056241099936683,-0.339582008087581,-0.2621526095201782
-0.9227287317989831,37.99978108615785,0.03862511788507661,-94.8283973780594,-0.09204188236758465,133.30746559595556,44.2582908478544,-0.1996899922376244,4.197694861793323,-0.1284455492051101,-1.4091250203831536,-0.08395757662255335,0.026858147869258678,-0.2643430117497874,4.7437059022616355,0.7175264532995116,7.0806086160349695,0.21228697164990934,-0.3441626026241762,-0.2600454035288195
-0.9224181362646271,37.99987924421735,0.03820174974229179,-94.82828002089217,-0.09222951234720136,133.3072402966998,44.25852191982043,-0.17810666938166678,4.164380453034155,-0.11692017649040559,-1.375112673617028,-0.08279037338605454,0.030389985547485013,-0.26770426298245414,4.727457770956852,0.7373385883260977,7.088741333489311,0.21867483986490935,-0.3402610567501299,-0.2629211350552315
-0.9224294814305046,37.999781086264,0.038382486224573666,-94.82828609030194,-0.09228908141398376,133.3074224350776,44.25847323132173,-0.22613560529901236,4.174917015232929,-0.14525880937575383,-1.3905899647059716,-0.08238321774086979,0.027493039930538442,-0.26426636319817176,4.742690051478795,0.7549683834692765,7.136367826410204,0.22049002231268613,-0.34272385185954857,-0.2624171382850563
-0.922496113720206,37.99987915121974,0.038326116395932947,-94.82828002735192,-0.09206030309704763,133.30746584578978,44.25870178705558,-0.2425855913893995,4.1990563495231,-0.1612983647161853,-1.4018549117783983,-0.0825608414283809,0.025420662207775706,-0.2676730995124892,4.728213153766865,0.7387174269112498,7.048117680459346,0.21982959166671157,-0.3416293157165729,-0.26323302339710136
-0.9226292562736217,37.99987771600005,0.03854327807272152,-94.82841361923218,-0.09207486941160631,133.30750925652583,44.25834076026798,-0.17753549596955842,4.200322014479315,-0.10528279559153875,-1.402862483035018,-0.08273230256620596,0.02668212747251681,-0.26267345805319675,4.729318949141826,0.7557145480708447,7.135971349367113,0.21932177752048848,-0.3388425385185159,-0.26116679538002263
-0.922400003683856,37.99987913275127,0.0382806633612648,-94.82839335112699,-0.09220594780396364,133.30746517029053,44.258513931914045,-0.1638927553990822,4.169503358769718,-0.10144886631685343,-1.384550718358816,-0.08164333093502106,0.02945912729997617,-0.26970918866946847,4.713175867891219,0.7626521848957364,7.050976493695767,0.2264817426159071,-0.3404797783371287,-0.26395808120573666
-0.9223934716456742,37.9997810861607,0.038382362180847715,-94.82816086339743,-0.09200831463262511,133.3073356125999,44.25831673377364,-0.21429171758922966,4.177867794146884,-0.13243062202576264,-1.3882595518749554,-0.08180326799235045,0.029529980098237565,-0.2648702952893446,4.730485687488662,0.7562161362104711,7.109538380335136,0.22223302789527238,-0.341026730838054,-0.26550037527193826
-0.9224915937274338,37.99978106779442,0.03828978769513858,-94.82807172181616,-0.09210363032361638,133.30728145880263,44.25856334137635,-0.2279403517041174,4.183023373360859,-0.14426089059653394,-1.3928180983709446,-0.08136922726987054,0.028992505810831605,-0.26683180233984216,4.715731189230811,0.705553764354633,7.069616461996192,0.21154926718247763,-0.3402375049026352,-0.2598575717469991
-0.9223496160574587,37.99966711854728,0.038163174691133964,-94.82828041492012,-0.09200198295426093,133.30731537603037,44.258040793732285,-0.22176623332146922,4.161822612615847,-0.14100428279350466,-1.3810692687263357,-0.08030710365763295,0.029353721557987086,-0.26743400985667354,4.725784920507765,0.7516725984911452,7.102932899319753,0.21919785901202793,-0.3378758119477253,-0.262298533032413
-0.9224072623860662,37.99978108618403,0.0383975940535495,-94.82828778271207,-0.09197861165516166,133.30742243507765,44.25814363443281,-0.19498597633887418,4.18705353850859,-0.11744912360110225,-1.3931785324582324,-0.08296804924676504,0.029232753320410605,-0.2609404089349426,4.7539553491164686,0.7857969923401362,7.089786426559389,0.22319261011427474,-0.3443738029782421,-0.25803982869809916
-0.9223059953285447,37.99967122227107,0.03832587721898132,-94.82841304066864,-0.0922864948406803,133.30737902435285,44.25850193328501,-0.1890879430031466,4.146809146388298,-0.11797662240417618,-1.367644083980708,-0.08069266195440637,0.03195965695928127,-0.26449478045305613,4.761969129582011,0.7276092414833885,7.052435170613732,0.21756898533921634,-0.3484516282252797,-0.2613563822941264
-0.9222958732613806,37.99956916721278,0.03829523709046567,-94.82816708260877,-0.09202760311988552,133.3074455804441,44.25827679261981,-0.19187874682379483,4.188658418737148,-0.11855853256955698,-1.3942469702226146,-0.08095019841152012,0.028418804146020063,-0.2641842836905874,4.731774693569808,0.7744133475219787,7.10245860363091,0.22291122130260718,-0.33963554313975647,-0.26297434832781835
-0.9223934922202421,37.99978108687709,0.038280167486809596,-94.82829411277255,-0.09213298058649357,133.30742242570983,44.25863510114462,-0.21086205541852424,4.165878808996339,-0.1359339869638725,-1.3807480754051413,-0.07915673673566574,0.02924695151330398,-0.26353182162715744,4.755541043310094,0.7578415127515603,7.0797658657331795,0.22264615960624207,-0.34742341817179884,-0.2604007483495835
-0.9226182051913876,37.99979469136167,0.038384309580664425,-94.82827885854921,-0.09226616537847643,133.3073271181489,44.25866725691691,-0.20997597092851433,4.158347483632967,-0.13752465880167578,-1.3841630408515784,-0.08106016522837386,0.028964177073984455,-0.26513086960557286,4.71780351230672,0.7586337371591827,7.066205877350152,0.22068336852640025,-0.34098771652177207,-0.26171470239254063
-0.922397993509361,37.99966041950806,0.03828166734949471,-94.82816715306183,-0.09204187958081779,133.30742243472224,44.25851215684211,-0.20925247949951084,4.172646811101235,-0.1389554345029317,-1.3860352696033709,-0.0814443095032949,0.02946466414816808,-0.2654660436963439,4.747630844685908,0.7588222010825925,7.091367692586454,0.21935319103280077,-0.3445667193879043,-0.26170129062199315
-0.922308935379496,37.99977679193977,0.03806538992458355,-94.82817811702562,-0.09207470840225544,133.30746284729713,44.258559590553155,-0.21871700102634706,4.173460744360727,-0.14451195211139312,-1.3850369801000366,-0.08061119982004952,0.029880031455159457,-0.2641698738913139,4.753845669728824,0.7703350323310498,7.093513910596149,0.22228522060869826,-0.34526266390969773,-0.26087671083936614
-0.9226267447005472,37.99978266021844,0.03841649036933695,-94.82817654354972,-0.09220589309345567,133.30742243511574,44.25831971761954,-0.19805526444536628,4.166588265641147,-0.12523614882945247,-1.3846209167117498,-0.08121719197488908,0.029708318213432283,-0.26690754694667823,4.737327601095708,0.7438978471835909,7.081479183421701,0.22100666433150254,-0.3429624278248368,-0.2637197840557901
-0.9225292961302548,37.99987915121598,0.03850487443611305,-94.82847346126843,-0.09204494805657591,133.30746584580103,44.258645416407894,-0.18997470658824392,4.179720241042901,-0.11809786471158808,-1.3886507073089969,-0.08085897126636242,0.030485336351169866,-0.26731527219779716,4.752635085697697,0.7329905668652068,7.104929296163579,0.2202656234820321,-0.34332217043322194,-0.26406419951657883
-0.9222953574337757,37.999838904471666,0.03820688697676737,-94.82851740234476,-0.09207305131072735,133.30760457345554,44.25848745078548,-0.15600054102739042,4.1867011181700065,-0.09380456724630515,-1.4005732422836161,-0.08094146590994512,0.02858259735662104,-0.26603560574639856,4.717469474153638,0.6819438160143956,7.112941646348758,0.20980050199540515,-0.33711841265569464,-0.2619849504862823
-0.9223511391780153,37.99976970245878,0.038161055018539794,-94.8283742967243,-0.09214713303186284,133.3074650962618,44.25867624775204,-0.20801657117923145,4.21298050174435,-0.13748638363338547,-1.4168499350284107,-0.08208182181939687,0.02542520498088502,-0.2664397271194821,4.715757591639633,0.7578941433609752,7.151713192670326,0.21950596046715506,-0.336584530160665,-0.2627609597811793
-0.9225049897880485,37.99978108551048,0.03819904136556478,-94.8281477465066,-0.09212533176873723,133.30742243515382,44.258545353039516,-0.17028717817299197,4.151377326368353,-0.10951016255437931,-1.37378488863673,-0.08191490929609883,0.030353853354864693,-0.26794022372113463,4.74791159072507,0.70665452114152,7.0571959473030486,0.21137395646178908,-0.3467064665906992,-0.2632451052948206
-0.9223003757224519,37.99987921474724,0.03828033463162749,-94.82817829191855,-0.09209209974124037,133.30742234973903,44.25859157592406,-0.21034273168050255,4.199747381867042,-0.14376606148549648,-1.4048246558097215,-0.08109061967435022,0.026722629405816767,-0.2639491609360819,4.735866018883552,0.7586707145957216,7.131998643477433,0.21632031717981615,-0.34129742671628893,-0.25955931101327945
-0.9226077647959962,37.99954145840151,0.03818061645950812,-94.82835715295226,-0.09219117220670903,133.30724028744197,44.25860749017933,-0.206617175330068,4.17720204430218,-0.1371379993679807,-1.3871955681305395,-0.08230651268041904,0.02920078925755261,-0.2674159142605761,4.75526193673766,0.7580879797924167,7.098640425256062,0.21949290335778168,-0.3457921988153596,-0.2635221564856907
-0.9226054163952866,37.99969582373647,0.038320850913194295,-94.82828922608978,-0.09221196705547015,133.30746587367747,44.25836622676999,-0.18949664256760315,4.1674761816177925,-0.11881428581537092,-1.3886137110833363,-0.08124770637148968,0.03148669495983796,-0.26774200263614395,4.7261346803738356,0.7306278150475214,7.129410890067379,0.21592876021844315,-0.3380413796809926,-0.2603851947763959
-0.9222973630043754,37.99987887203603,0.038546627642121786,-94.828145267883,-0.09218207303531264,133.30746584580058,44.25835839817789,-0.21542176830814833,4.129865636149152,-0.14294247005579275,-1.3670072224681713,-0.08057822759634757,0.02998130987997444,-0.2677127619651418,4.721043879770998,0.7709232240254187,7.020309512139153,0.22393876839417792,-0.34468350762557365,-0.26385306041909184
-0.922447903833913,37.99987722011342,0.03839586392790729,-94.82840890392248,-0.09212720327724169,133.307196885975,44.258494934270864,-0.18498662970800042,4.19337741329531,-0.12276766109259347,-1.398980836105308,-0.0822081051842932,0.02721727571709886,-0.26923579815999643,4.744353704508807,0.7163027113505391,7.080728342372897,0.2155110035559764,-0.34306383917464334,-0.26513433338544035
-0.9222968667778384,37.99996391919515,0.038456542793342034,-94.8282941324441,-0.0922051013197399,133.3074485437346,44.25838392339197,-0.16622107524483995,4.147133968848728,-0.10466548314082395,-1.3787959769338107,-0.08234146522565484,0.030206004965866347,-0.2630902987745866,4.744985738387274,0.7664619040423901,7.117228578100756,0.22550008949429975,-0.3408640225957792,-0.2637726527126936
-0.9223984964206351,37.99978103100855,0.03840229071028738,-94.82819036029505,-0.09203128848376047,133.30752656784867,44.258427288200316,-0.20165114917535054,4.182275173468007,-0.13347195184528537,-1.3914863795352306,-0.08257949400981582,0.026865162035237193,-0.26960077438505115,4.742534417316115,0.6670208932465707,7.090459216245932,0.20607613823909063,-0.3439238427716687,-0.2629195867677483
-0.9223940296927692,37.99987920647042,0.038219939994246284,-94.82827214855587,-0.09231719536799539,133.30737902435285,44.25848081980096,-0.19704766211845706,4.163371753287554,-0.1287297882347043,-1.3863080564414545,-0.08247768999954676,0.029714339450747012,-0.2683356371916963,4.766421759502642,0.7069725881232058,7.121437333653332,0.21004133067609465,-0.3455525716428502,-0.26192720471252806
-0.9223934964861152,37.999977326595115,0.03832153934025775,-94.82841381936856,-0.09204074890945808,133.30737902435285,44.25832281706768,-0.19970982877423263,4.157716340129063,-0.12416940515641757,-1.3781184869167575,-0.08206795761004589,0.030399113806738903,-0.26479675689593346,4.757132317108809,0.7155849999199131,7.152059751283311,0.21638075785120417,-0.3440671469363789,-0.2656641316503171
-0.9223995068380754,37.999879040868805,0.03832087226785261,-94.82828561747114,-0.09220161280337509,133.30742243507765,44.25852517502662,-0.22184950838590728,4.1758952264531715,-0.14230724703673583,-1.3892025426172379,-0.08285746052078592,0.030130129863207834,-0.2652425675957056,4.791930756401869,0.7455371095952853,7.163283376633151,0.2196914413954537,-0.3506585403380147,-0.2618484452072391
-0.9224080986413145,37.99978061459995,0.03821693197453846,-94.82815139828672,-0.09227673223229861,133.30745934978333,44.25827230528094,-0.23447122037135018,4.188276007733306,-0.15669366294247614,-1.4004951183245322,-0.08205320815916409,0.028133298823209252,-0.26609199865275956,4.759055044602841,0.7620024603561222,7.083541450594606,0.2247959085998813,-0.3461081682818852,-0.2642045628740124
-0.9225338513847803,37.99987920639331,0.03829685783552528,-94.82837129479992,-0.0920422234839277,133.30746584580245,44.25842090937655,-0.23605900886897715,4.159567261473785,-0.15526597445381682,-1.3755648888715026,-0.08213343104054008,0.030130061896961182,-0.26441695723525155,4.740577053853922,0.7705819759582331,7.089851866030019,0.22396917125294113,-0.3421966596147073,-0.2622084947625125
-0.9222953533236844,37.99978108618308,0.038279831618706184,-94.82816237957981,-0.09202903672004627,133.30737899657942,44.25863582258993,-0.21222525729191705,4.137819838420801,-0.13619059173348805,-1.3681833135578572,-0.07964238041013878,0.03248528085254895,-0.2677692475527495,4.806591425682919,0.7985601715367485,7.155848992880233,0.22834438146259292,-0.35303600972912136,-0.2648421318676338
-0.9225172422612037,37.9998806690386,0.038167201080816344,-94.82828142580136,-0.09198536482994625,133.30737894107057,44.25854381695106,-0.18177010133374422,4.184876339705045,-0.11618120457359751,-1.3927366847224822,-0.08263451628915189,0.029661067303853556,-0.26854186730223206,4.757554455801716,0.6909318898310091,7.0968903016792115,0.21320764050281726,-0.3457395375406107,-0.2635437063619503
-0.9222968461243511,37.99987920662465,0.03816300861455249,-94.82829290179374,-0.09209557702946695,133.3074655959175,44.25860297754214,-0.207752177024719,4.171971288925753,-0.13562755428347767,-1.386421581993221,-0.0826658466302146,0.030154232852188823,-0.2668726717145112,4.742289355711127,0.75816957846576,7.091319787043054,0.22032545550099084,-0.3427423652150755,-0.26354281098471594
-0.922418172794934,37.999666668820026,0.03828764617917132,-94.82819179832045,-0.09226717089508513,133.30742318461833,44.258331792753744,-0.16519206499781003,4.167213949743283,-0.09549792169329903,-1.37776098088708,-0.08302942839998376,0.03049096296019874,-0.2718258937945073,4.709931121207349,0.7092003809259881,7.026021237255081,0.21820165057495922,-0.33919559966931045,-0.26805489962256485
-0.9226744934973841,37.99964701212498,0.038101638657297154,-94.82825052350776,-0.09228648381526855,133.30742243507765,44.25866722652812,-0.1879194774055324,4.17770303561997,-0.12149897310367379,-1.3858146388591446,-0.08395120227129237,0.029212708463557106,-0.2658562101442777,4.764022202949715,0.7283062133735714,7.099577927017056,0.2129739735479466,-0.3475440610340251,-0.26226746695739667
-0.9223939740973355,37.99978060153924,0.03844344401530308,-94.8282847293232,-0.09220510430401548,133.30746584580245,44.2587893366268,-0.22106942650512837,4.188364965876344,-0.14251692180733583,-1.3874910184830678,-0.08236073474782678,0.030803966830794668,-0.267069680542372,4.781433636771333,0.7775935598870362,7.120364025367425,0.22597547661102502,-0.3477508950575281,-0.26452464882223414
-0.9224961135140775,37.99966514160388,0.03855114728831801,-94.82841364549174,-0.0920838669601337,133.30756116273076,44.25863584727181,-0.20451828977842793,4.175933659675779,-0.1341732667491117,-1.3894008266159386,-0.08400710048149064,0.030018815119210642,-0.26525584555899706,4.738920986219878,0.7509161444220813,7.097683981658318,0.21638569555921405,-0.34163980741395994,-0.2620367569463168
-0.9224492407798562,37.99977976508965,0.038415965193518135,-94.82824514309422,-0.09210756185798069,133.30742243507765,44.258496475499626,-0.20453918945502395,4.18262062450434,-0.1290213456062276,-1.4026866420643822,-0.08286266192347042,0.028656766821079344,-0.27294973155037355,4.694013462909352,0.7615447182722206,7.106021685702338,0.22674753241596554,-0.3327144627057023,-0.26979809070857347
-0.922398551530932,37.99966025398126,0.038280222345800724,-94.82827349417605,-0.09208387090614202,133.30746587356325,44.25849406070708,-0.1968810082855398,4.1726896289986195,-0.12581605834267773,-1.3872588607474354,-0.08323873704308964,0.030434189875517475,-0.26519961536356773,4.739776513295917,0.7394949700377713,7.09294138441135,0.21662037364723502,-0.3417875611614115,-0.2621899913196028
-0.9223934735345417,37.99975853964249,0.03806388153842733,-94.82827994018976,-0.09212531275185382,133.30728370742318,44.2586080977661,-0.21934155148326814,4.192277493953999,-0.13659985418246698,-1.4014784648775038,-0.08233184309529591,0.028572192498583573,-0.2645391384740775,4.727350530585052,0.7695235411064156,7.1224791429419385,0.22597790088023845,-0.33839397339065197,-0.263036340214822
-0.9225142772833719,37.999666972455934,0.03820821854599147,-94.82841205174695,-0.09203103591616618,133.3073114731585,44.258592418262936,-0.18613347893668106,4.167758255503338,-0.11318809711033442,-1.3863219133070595,-0.08234547860077708,0.028688888164227887,-0.2634201101531038,4.734666299213648,0.7205264716700672,7.081678729674451,0.21587504829545778,-0.34340560976943074,-0.26105039688955234
-0.9224115594831006,37.999666612602624,0.03811468284734669,-94.82829465687445,-0.09205163382350164,133.30746584576437,44.258363961455785,-0.17090156908149845,4.181587783426473,-0.11083102784376968,-1.3969625375075791,-0.0836909352543425,0.02853264813766892,-0.2665120978678582,4.720914552432385,0.704744200588135,7.104382271794671,0.208150067219743,-0.3387310949742589,-0.26208161690461307
-0.9223934714442519,37.99978108618308,0.03838231900285828,-94.828294648244,-0.09224315652281158,133.30737902423866,44.25864366770665,-0.1436910290970901,4.172037835245374,-0.08588455655801987,-1.388230696628843,-0.0815925080613477,0.03009059147882068,-0.2650848314773319,4.734975666006319,0.6631727660200633,7.091124308490501,0.20462790352178414,-0.3412303732851827,-0.2607240211285933
-0.922493062333744,37.999977328681844,0.03833594243916854,-94.82837125662783,-0.09216993796615047,133.30737893798604,44.25850562422439,-0.20152943719259664,4.150342648291365,-0.12913082667565326,-1.376072781786163,-0.08286342696274443,0.03255517497866258,-0.2685970346985539,4.724540020468454,0.763850700026523,7.115594833761662,0.22594147641665654,-0.33771807769657686,-0.26489887759639835
-0.9223501157470568,37.99978108619164,0.0382802356342148,-94.82816715304239,-0.09200002621909453,133.30746584477413,44.2587851438019,-0.2053625430173732,4.1802755886305105,-0.13331733519316494,-1.3916992486413324,-0.08076878762242964,0.02993207533102573,-0.2631813692692699,4.771790146140099,0.7332899838568274,7.108395335526235,0.2155304057421834,-0.34861743798134337,-0.26155731370156293
-0.9223934797294782,37.99987920639331,0.038203213391725284,-94.82828632351543,-0.09212155849292523,133.30737902435288,44.258503305003586,-0.2138222912262709,4.137930692079452,-0.13302550636911264,-1.3694730768056185,-0.08074989851529778,0.03120382927612011,-0.26612187170433943,4.723089939928142,0.7528767487368582,7.09227151265166,0.22241170641384975,-0.33851843297906925,-0.26225611917336944
-0.9225329857416462,37.99978108615785,0.03828017889533322,-94.828103590029,-0.09202978961487648,133.30737902435288,44.25844122842992,-0.12461096871792988,4.1839724423771445,-0.06919002772625699,-1.3940101558779754,-0.08290404466355099,0.029361095149728747,-0.2649730186331758,4.744205914471574,0.7467599073055585,7.134510767087188,0.21523825955762138,-0.34051824957085297,-0.26208484415438954
-0.9223919155523371,37.999620197282624,0.03828072144914093,-94.8282757462493,-0.09202224461483009,133.30746809442442,44.25832049108545,-0.23235404519386957,4.1958091875238726,-0.1554963054655859,-1.4040378969071705,-0.08128398872289921,0.029373245746044097,-0.26747827347312975,4.732206711844839,0.7432707838131764,7.099599219788712,0.21778569151039645,-0.3384009244683347,-0.262412807384346
-0.9223936391434893,37.999666612601665,0.03807691306758958,-94.82828049015552,-0.09199969395896945,133.30738582574025,44.258441717228564,-0.20839919056649547,4.187981242195039,-0.12781004212616753,-1.3981502631437503,-0.08164377833138554,0.02963234129453878,-0.2662091633998151,4.724683391516752,0.6692817322943805,7.048327235763987,0.20204795156721544,-0.34108529978117563,-0.2577280293027149
-0.9226482752560644,37.99987937503891,0.038202421615220285,-94.82828107577546,-0.09203973130147546,133.3074658170135,44.258478362238115,-0.2557295912141601,4.164452349756635,-0.1726063027107217,-1.3853231307603633,-0.08139905396436664,0.031220345065510323,-0.2703267079594158,4.70949249821146,0.7777639842980595,7.0707241939284735,0.23088285446703216,-0.3351953001996129,-0.26718465952956627
-0.9223934900494921,37.99966661260447,0.037953483162576546,-94.82829040254335,-0.09206096869023371,133.30750925652583,44.25858951263045,-0.17544481072986,4.165872666321767,-0.10791504383547713,-1.3877835352767518,-0.08206665336742108,0.02937132972863356,-0.2644831010170356,4.728290527149842,0.7570825970144626,7.05567593742515,0.22259940160167338,-0.3409206419190154,-0.26099773506032586
-0.9225155609969273,37.99978153694849,0.03806037073062696,-94.82829465504426,-0.09213854734628854,133.3074590999366,44.25867763437705,-0.22681231439848615,4.144759343099121,-0.1518955390148475,-1.3680247624710882,-0.08089887317525131,0.03364677909175142,-0.2651466975714369,4.77637667946912,0.8112002835780047,7.119324656152325,0.22820449653625025,-0.3470157069205028,-0.264625592997198
-0.9223527979499936,37.99987920639331,0.03823568561642797,-94.82839945965162,-0.0920514658759389,133.30733483632665,44.258628827183706,-0.17804656542702801,4.170473880729707,-0.1109030178638225,-1.3823852204699858,-0.08165166773543248,0.03059859152655448,-0.26695097188173705,4.7578092990391605,0.7509921928662201,7.137038988525193,0.2187219500329328,-0.3432728710276475,-0.26123703546308463
-0.9221733329779389,37.9996665572028,0.03832235822897112,-94.82839415441885,-0.09208679504716825,133.3073767726464,44.2585186784195,-0.19029996907380553,4.200286004519695,-0.11859704498525507,-1.4009933277882276,-0.08122774248482414,0.03026022161142022,-0.2654662255236689,4.748116553977441,0.7214978047531808,7.126367289305757,0.21429788883485185,-0.34182942887258483,-0.26414942569364636
-0.9222953698392958,37.99987937503995,0.03832554599514806,-94.82841363898744,-0.09207246842887135,133.30742243507765,44.258443057386465,-0.21070926648504518,4.176178423477731,-0.13473322849385702,-1.3866797822603611,-0.08187768492334824,0.030111448976241083,-0.2668903561614283,4.753815268896131,0.7082956548327998,7.0833289086590785,0.21420970872751052,-0.3456921641791465,-0.264271903688254
-0.9221897047072158,37.9998792002628,0.03840196850590268,-94.82819193401153,-0.09208381405105215,133.3073587864126,44.25832122740645,-0.18836007482650072,4.203611308407377,-0.12075964342872553,-1.4112248486426597,-0.0821612440230259,0.02657787312083355,-0.2633193147052527,4.739327255015404,0.7709580869603667,7.117945440442549,0.2248739361426393,-0.34194377407395493,-0.2610900974164423
-0.9224961134894961,37.99990402958909,0.03819466282945419,-94.82827995657387,-0.09223034546488067,133.30742243507768,44.25835697382904,-0.17127790904034676,4.179753744122184,-0.10499630571984184,-1.3912093015790445,-0.08318486865315917,0.02916762396520874,-0.2669076414927136,4.743203990797336,0.7051393182102268,7.102639843387292,0.21261558607962844,-0.34288066890554875,-0.26349477113814235
-0.922517068343516,37.99978108005257,0.03842758670806437,-94.82828049087638,-0.09206627990317713,133.30746584580183,44.25827079389835,-0.21230993707313117,4.1820959300521015,-0.13627882183932075,-1.391504793940975,-0.0819164907952491,0.030295201796666435,-0.2662026038616256,4.744969014247406,0.763324632768825,7.108534657897032,0.22316109655013552,-0.3416262230349489,-0.2634230529037777
-0.9223208093348643,37.99978108595322,0.0382877845614301,-94.82812460212659,-0.09208801142625632,133.30746584580245,44.25866955842012,-0.2017722079135878,4.185872954910407,-0.13236411327598677,-1.3878256477124333,-0.0815142424124982,0.029472030865520558,-0.2655289354681407,4.776117239663737,0.7483824403841608,7.113851405783252,0.21809336297870655,-0.34856192008289133,-0.2617955648785974
-0.9225562769252551,37.99978108618308,0.03830123532033901,-94.82840856629517,-0.0918392250610648,133.3073789965879,44.25836296520842,-0.2031973125483102,4.138812409232487,-0.1274156005097931,-1.3641340593669824,-0.0806937399158532,0.03205189032196635,-0.2657635547536619,4.756476220058344,0.7495782711340837,7.03915682429277,0.22284900363898758,-0.3483631405223315,-0.2630156229001851
-0.9225325033031233,37.99966214349406,0.03833899350933373,-94.82840732990886,-0.09197859201505636,133.3075409251332,44.258197274639755,-0.13209555193384265,4.183062459917561,-0.07508494377252757,-1.3971748158230666,-0.08142711800295847,0.02860520634377082,-0.26440607849534536,4.724752368657545,0.6449393352723225,7.106939308924443,0.20247537278403605,-0.3391509409491482,-0.26022675562774555
-0.9226196245452389,37.999767678119234,0.03828166759051418,-94.82829465711465,-0.09220745793480402,133.30746584580245,44.258787093031614,-0.16525114921725975,4.210338827645577,-0.09756142258403622,-1.4084554546790056,-0.0816001627127932,0.02691343835361377,-0.2693965774209839,4.748035340835778,0.7001680138252878,7.150090764244159,0.21627951602386503,-0.341914125051913,-0.26592091275151103
-0.9225415040612085,37.999865817042284,0.038161055690797904,-94.82837131470932,-0.09226842769085056,133.3073790243148,44.258482984125074,-0.2048911101135988,4.15851889662852,-0.1332967519274778,-1.381848053666742,-0.0819646193901811,0.03214310962991416,-0.2704525312616169,4.722898413152816,0.7595156640141854,7.071885263793185,0.22328934556106403,-0.3383494521832075,-0.26665799350201536
-0.922492096179427,38.000091798135784,0.03840448964871784,-94.828149990307,-0.0919631363187825,133.30727481755315,44.25856621890326,-0.18250686859154547,4.1970709264686175,-0.11197093665552904,-1.398610897082424,-0.08192480277405167,0.028195252260491608,-0.26802959738967247,4.735983663785772,0.7171646355864669,7.137162084529049,0.21300829039903027,-0.339009616950693,-0.26304110640376965
-0.9222048739820143,37.999781142398625,0.03816250657122752,-94.82815223375235,-0.09199855262028915,133.30723779823094,44.258459218770774,-0.20724008532779448,4.139634185261229,-0.13550336307228183,-1.3742664221169862,-0.08148059428409861,0.03261906419457756,-0.2687382218678763,4.741154125250604,0.754519348439112,7.047095750896627,0.22151551347605875,-0.3443479375993785,-0.2625571030251433
-0.9226679454087415,37.99997732660353,0.0383966164269847,-94.82838793862116,-0.09220536172097242,133.3074223980591,44.25838192131726,-0.18497537157744715,4.189699870777938,-0.11818759376378787,-1.399092894731864,-0.08245929781858004,0.03084502918287003,-0.26627723866680003,4.727751505046573,0.724281035066501,7.121927831196732,0.21439942727732256,-0.3362839640673948,-0.262559231002428
-0.9224900923975647,37.99965318681317,0.038549831873405244,-94.82824364935206,-0.09231063653649871,133.30737902435283,44.25868536013862,-0.21703827024823752,4.213362045493027,-0.14264641831721153,-1.409681847184409,-0.08120138565908583,0.027835304458426816,-0.2658471493438814,4.735700257028674,0.7192891743386697,7.091762551411435,0.21282471106689235,-0.34158628284630715,-0.2611266043364334
-0.9224870933580472,37.99976812340962,0.03820325690419378,-94.82825058478983,-0.09210337467918117,133.30750925652725,44.25864412242432,-0.2127083220854028,4.204488796716039,-0.13595385918085487,-1.4036376719515853,-0.0812702035237427,0.028796326329060862,-0.2710326429414279,4.743264169419587,0.713079758166691,7.113565855944064,0.2152010280349978,-0.3420760723400923,-0.26316291696858757
-0.9223936391717786,37.99992013443202,0.0382896057729449,-94.82818727054661,-0.09206783866405396,133.30737904286005,44.25876902488226,-0.16611142763215478,4.15244761889592,-0.10277071041922899,-1.3734896290418368,-0.0819451094881073,0.031742897758907734,-0.26886787420686104,4.751234505755241,0.7487864189577145,7.125009449217524,0.21698105978011056,-0.3427390450867786,-0.2609918262945633
-0.9223934714411356,37.99966711854537,0.03842450081973352,-94.82816643485761,-0.09213153307835092,133.30746609563664,44.25860972353537,-0.25601056397421657,4.163716283201429,-0.169692466078372,-1.3902537434031659,-0.08069772562487285,0.029299094120287476,-0.2663533277306929,4.717155273080492,0.7770888925906527,7.088754935285114,0.22423045343613401,-0.3385213554519204,-0.26410950967026986
-0.9222998545509499,37.99978108618308,0.03840743170270575,-94.82825196367949,-0.09200872509516361,133.3073790233247,44.25828005090246,-0.2582373163824286,4.18699131701917,-0.16886329530114016,-1.3938826156658373,-0.08173051452701184,0.02973768003579966,-0.26727825697131413,4.758356685431881,0.7626802368438061,7.109075743866318,0.2259679192277259,-0.3464322115437153,-0.2683579088480316
-0.9224174470906102,37.999662149024935,0.03816568807008956,-94.82839942087584,-0.09204923249167361,133.30750925652723,44.258569629764786,-0.1829582718835607,4.182150224637173,-0.11737526529848845,-1.3937825211316017,-0.08282689037897051,0.02946282959383364,-0.26944229136714803,4.7600530915417485,0.7727992108116444,7.054494582947629,0.22343322004821378,-0.34808773219595873,-0.26235665793496543
-0.9224922636454969,37.999662143666995,0.038498580371043735,-94.8283649669906,-0.09226886984512149,133.30742243507342,44.25852342944984,-0.19558719614277173,4.170978550453963,-0.12964281680413686,-1.3869129913652851,-0.08112392938024833,0.029551719437541764,-0.26430537171319646,4.701003203882378,0.7681423651378203,7.0588436846623015,0.2251552107868773,-0.3368373009175507,-0.26462150842293564
-0.9223981607549083,37.99978260400009,0.038167201374338613,-94.82812407192174,-0.09198790727415253,133.30742243507626,44.2585415152162,-0.22907294708815193,4.162432364468658,-0.154596416904742,-1.3829947254648904,-0.08429482151885202,0.03070296456784704,-0.2677176387757166,4.712239089583722,0.7330120711919728,7.089580942745278,0.21467499347270563,-0.33819246190733204,-0.2611255296307905
-0.92240703695855,37.99986579903682,0.03829830129253156,-94.82828046416367,-0.09202885894948035,133.30728373518534,44.25850543050644,-0.18901553273411392,4.203320969384443,-0.11885335213478866,-1.4084088059386977,-0.08195431951272264,0.027607413330652197,-0.2684324548949124,4.735202062196145,0.6985050798336803,7.1361199977889855,0.2123535592248762,-0.33963279566759247,-0.26292001116544966
-0.9224070387940281,37.99998188006297,0.0382938013248535,-94.82837371401416,-0.09202504627450932,133.30737902435288,44.25822752676342,-0.209889844629879,4.179431994107962,-0.13359075030652537,-1.3989900809879279,-0.08103222711113896,0.02834956810857319,-0.27176218046219325,4.704127187459015,0.7679661560922986,7.1003022426883735,0.22843848866810404,-0.3356484663234869,-0.2684443900675418
-0.9224072067297965,37.999879206393274,0.03828781347726247,-94.82819198952788,-0.09202880416477976,133.30760457242735,44.25850561749634,-0.19506370779782617,4.192551521518476,-0.13098626086213253,-1.4008341381216645,-0.082907294516249,0.028304094422336765,-0.27082538367574616,4.732285323003614,0.7468559951899867,7.122549577053564,0.21739496063352828,-0.3397487981154299,-0.266009440964691
-0.922491591728021,37.99994165170736,0.038182438210729266,-94.82805970890062,-0.09233742982528124,133.3074590999366,44.25832277483711,-0.17576682717568254,4.17706404540002,-0.11111035452431457,-1.3885464120951296,-0.0836632130238221,0.028542767009788902,-0.2643101699950229,4.7502821966192865,0.7080902642321736,7.097195613759958,0.2095833992474848,-0.34552117212207584,-0.2607985366626855
-0.9222910615596359,37.999776598655444,0.038293787925417766,-94.82827523754324,-0.09206866965917102,133.30746583654886,44.258561760491546,-0.20238724023174529,4.183934370298194,-0.13372206920913965,-1.3941836470188949,-0.08297388470992148,0.02948288534227659,-0.2702081969481882,4.738635324190329,0.7559614304510782,7.110164751819696,0.2202620729225585,-0.3409824331419155,-0.2661183811794425
-0.9226060714579356,37.999781142398625,0.03805891926751401,-94.82839942015582,-0.09210462909485144,133.30737902435146,44.258403359535116,-0.2126692618232442,4.169222636965461,-0.1428692807269197,-1.3837722655288989,-0.08167642543749695,0.03146446136623526,-0.2661869888276962,4.744838859542967,0.765052639188826,7.088955527816104,0.219806641831371,-0.34220301771085865,-0.26221588306147303
-0.9222697794339426,37.99978108588033,0.03833893572415438,-94.82824382424187,-0.09208802063483237,133.30733561362382,44.25873935467401,-0.20499477945750733,4.185729008776533,-0.132511774389122,-1.395107140109308,-0.08163269536441074,0.02862542726848606,-0.2705139388099528,4.7408907662361015,0.7598546847783976,7.111756102095985,0.2242168826811896,-0.3421331800414013,-0.26682625640955165
-0.9224915737429824,37.99975904543085,0.03820777901126954,-94.82828579883237,-0.09217663281747716,133.30737874674097,44.258675498893716,-0.2069370108824728,4.1738123423185565,-0.13288437905429074,-1.3859838218420402,-0.0802517416460998,0.03133483785833178,-0.26563832322422415,4.747131490883715,0.7551618982256407,7.096427196097618,0.22245391979302617,-0.34209495834998294,-0.2624227264572222
-0.9223934714382701,37.99982557652404,0.038382321142309696,-94.82841326762502,-0.09213669685694906,133.30735878675532,44.25854678937377,-0.16664895272185037,4.175466986662121,-0.10556884314476686,-1.3911452715997923,-0.08344579491729616,0.028650003803330736,-0.26654555775035926,4.732662835802652,0.6985105445141719,7.094469522335911,0.20856380576482772,-0.3419351809519186,-0.262364924455473
-0.9224176069605818,37.99987920639427,0.0381609998678899,-94.82839801930753,-0.09215854907363957,133.3075092653986,44.25836392335034,-0.19474611480780038,4.176638619838968,-0.1341672979799402,-1.3956172005594343,-0.08275637956402429,0.029627262524355737,-0.2657309533639169,4.745083315092816,0.6657699482954337,7.135488427614966,0.20035502202963637,-0.34113115539356925,-0.259609334806235
-0.9224915937199175,37.99987920636804,0.03816152429494785,-94.8282764652245,-0.09207219543941701,133.30742243507765,44.25872638305224,-0.20270775997949322,4.202954039944591,-0.1300796249025924,-1.4032825911671147,-0.08317176181501985,0.027388905589510938,-0.2643173961102693,4.71351410016125,0.6779621259940184,7.1146951362859,0.2071202082369634,-0.3353567975562476,-0.2610500845662817
-0.9223003754955779,37.999794746485726,0.038167081883635,-94.82837073770429,-0.09202425725646465,133.30742243510258,44.25850525759692,-0.21441868576506956,4.180763971444556,-0.14052418283218485,-1.3901329317599962,-0.08241402818772188,0.027733966477795836,-0.26547202466885267,4.753673798447857,0.7657243752568025,7.102135873189252,0.22115947334113534,-0.346615653674128,-0.2623910216891936
-0.9226060715092971,37.99956911188249,0.038427589396401146,-94.82836601835206,-0.09216985101142247,133.30737902538107,44.25874523076995,-0.174350570609476,4.156585614821347,-0.11990654429829185,-1.377932880722113,-0.08357916820984292,0.03079943966319349,-0.26816106399460704,4.740712164779706,0.7138363212758508,7.066593906342696,0.20681854356986037,-0.3439989928902807,-0.2624369360223862
-0.9221839029157529,37.9997274565496,0.03840675962511755,-94.8284131200036,-0.09204493429254182,133.3073790246956,44.25858842998729,-0.17627909190221935,4.1643261372796285,-0.11758040600531211,-1.388489155475575,-0.08254048795347095,0.0314751378088197,-0.26492312833299353,4.740910653464267,0.6946106249270823,7.137811362019187,0.20511113366248163,-0.3408174344199067,-0.25958134073434797
-0.9226467620800429,37.999977320467465,0.03833458220014119,-94.82804908571032,-0.09202224784716231,133.30742243507768,44.25825962415385,-0.2135135053545404,4.1855857456760885,-0.14126139156720352,-1.3963349584462679,-0.0829548501474165,0.02808278336773045,-0.26667543810868766,4.752473944592082,0.709712459956471,7.08450679898235,0.21210421191180526,-0.3451183231635357,-0.262564295316114
-0.9223091090608141,37.999692953619125,0.038223350112391974,-94.82812302009125,-0.09200647577710239,133.307372027612,44.258546030021016,-0.1991443712647206,4.163751761389976,-0.13629544073673877,-1.3836466256359956,-0.08268177542103547,0.02919351013984104,-0.26124833989455554,4.744468616829025,0.7269999357180192,7.1372488831268255,0.2179854757179625,-0.34191190443096803,-0.26631673220319585
-0.9223956493913851,37.99978108618308,0.03832135953904039,-94.82827162580277,-0.09202225702997512,133.3072402966998,44.25859216849801,-0.19234771069284085,4.173126723890438,-0.1313139093504784,-1.3906210165621782,-0.08162778268221278,0.03002117958669216,-0.26570288041941725,4.757399068360894,0.7857222438969294,7.09874672247721,0.2277379810595966,-0.3448277221394123,-0.26584442992748925
-0.9224477461413888,37.99966610922202,0.0381612211029523,-94.82825215824826,-0.09209328957813966,133.30742018645574,44.25831362159304,-0.2383170782974757,4.181034498920643,-0.1505489213797401,-1.3963797085912444,-0.08275890261724855,0.029397070230728288,-0.2667190702158018,4.719654402732585,0.7387760355280584,7.038507362871635,0.2214346181704038,-0.34078926023172645,-0.2655740009942606
-0.9222552366631427,37.9995684986152,0.038294284141994976,-94.82814809677289,-0.09236248861552034,133.3073790246956,44.258513424238785,-0.16867294294566101,4.1850205989882525,-0.10159010604611668,-1.3949695213177256,-0.08331716842678144,0.02953655713383627,-0.2698080551588911,4.754973862636544,0.727637952854268,7.116175566763956,0.22036813102472844,-0.3425076873163924,-0.2651396566221152
-0.9223984956293393,37.999660925447365,0.03828463206240114,-94.82828101624015,-0.0923123533041143,133.3074658427181,44.258442635161494,-0.20945572112688163,4.182154161902656,-0.13205656782388472,-1.3921015773487964,-0.0832752070870551,0.028870338785544306,-0.2687031364599523,4.736889683545785,0.7636138506447064,7.090806842302477,0.21901585892121905,-0.34146669024404397,-0.261896932256465
-0.922197752719238,37.999782603926896,0.038283237399828494,-94.82817782529666,-0.09207227021512314,133.30742243473495,44.25847788238016,-0.158830486352422,4.193678745851518,-0.1011693745924731,-1.4001598017742445,-0.08308942477074145,0.028842095283834912,-0.2633543692292503,4.771296953239674,0.746047274201318,7.0726361118581815,0.21644306841862154,-0.34883946324249343,-0.262603796138316
-0.9223939738934048,37.9996681304258,0.03828357153601562,-94.82827873954768,-0.09206080131717699,133.30737902423866,44.258260826349996,-0.188983004511657,4.179647980949052,-0.1252868255367228,-1.3874524742746186,-0.08276452060516251,0.028903958151382726,-0.2640195679175951,4.714568702636249,0.6817442930896713,7.093399685064581,0.19925710473991462,-0.3370445178411557,-0.25862402965867864
-0.9225796368670743,37.99966655742155,0.03854958448690138,-94.82827891468172,-0.09199921744199333,133.30746359718052,44.258334017385046,-0.18591558282721474,4.141292572541419,-0.11741005022777429,-1.3736626719213718,-0.08285516334355021,0.03153520724988385,-0.26819061829332846,4.71714579377707,0.7281817222422906,7.041936954832801,0.21680325293024685,-0.3403813264999105,-0.2646486912556706
-0.9223934907642136,37.999776597898595,0.03823518323763768,-94.82836990331434,-0.0919810945303427,133.3073787477734,44.258320460154145,-0.1736293772228272,4.170002031299752,-0.10810369736877223,-1.3973427433322636,-0.08213050719383219,0.030131247619941494,-0.2688255322159237,4.682716822638848,0.7111646224569129,7.08718680412146,0.2148192265110258,-0.3305387789999208,-0.2648746980912415
-0.9222955745429064,37.99977661774192,0.038280336350261665,-94.82839265827346,-0.09194231761880393,133.307421685537,44.25847252792396,-0.21233784558084448,4.185829279234519,-0.13976896941234082,-1.4011322850572503,-0.08212263369470915,0.02902353665924587,-0.2699170413710606,4.76203403383345,0.7294187905188578,7.056972316941238,0.21584701297280595,-0.3464814353896357,-0.26372580840279036
-0.9223954811469826,37.99957304380275,0.038415851591403205,-94.82819076837828,-0.0921706820685133,133.30742243507768,44.258722012544695,-0.2140652942021923,4.1693756391106565,-0.1440941062073182,-1.3883684499888793,-0.08194104890063468,0.03229851146529025,-0.26915737053649247,4.747284750642944,0.7338642135400059,7.105749161710527,0.2203824604686687,-0.34224513927639205,-0.2646596856162824
-0.9223949973547774,37.9998566786583,0.03841579598706063,-94.82841363906148,-0.09208603013538395,133.3073790233247,44.25838974746869,-0.2321486115051822,4.13652653064965,-0.1537530849213931,-1.371820462427379,-0.08252564039627182,0.032702183969414204,-0.26651499375365445,4.7093909303123676,0.7922486124018531,7.035897406006575,0.22632580585006193,-0.3381639643286141,-0.26373772364377496
-0.9223934735087357,37.99970759998662,0.03828308779125997,-94.82829393147901,-0.0920901558346528,133.30746584568843,44.25851442157216,-0.20216933546446816,4.156985801471794,-0.1400591716890278,-1.3747876022709056,-0.08309395659253356,0.03192429044324871,-0.2657133265929762,4.754588764446307,0.7501153261793787,7.06936260597112,0.2126263623186411,-0.3455723196031342,-0.2608534391154319
-0.9226543778265915,37.99952821499462,0.03850437201225986,-94.82804869710337,-0.09227136925878002,133.3073356125999,44.25867383245227,-0.17777443435526377,4.220461971270898,-0.11445374481448516,-1.4163886902154392,-0.0832437197936874,0.02541100738133581,-0.2654505430728689,4.739891874925585,0.7129608773729199,7.164459824762857,0.21029629052992801,-0.3405524095611279,-0.26147635744085634
-0.9223496387938077,38.000003667643846,0.03828169246319112,-94.828152993911,-0.09204866202483972,133.3074680944244,44.25828418779749,-0.22106061911648123,4.1885827208126,-0.14583635567821535,-1.389502571663207,-0.08205768355387293,0.02991874128595002,-0.2625906919239467,4.774007700620383,0.7711790877914286,7.1191422734084995,0.22054202110769797,-0.347234354541604,-0.2597972875237236
-0.9222973672162355,37.99974086395793,0.03829897096357708,-94.82813567692824,-0.09203104854776499,133.30746584580245,44.25858990199302,-0.20498162815144633,4.192392024071766,-0.13271138079995845,-1.4018829076835266,-0.08396685890525889,0.02855053313408951,-0.2690166313826605,4.725899720323919,0.7569249264273865,7.122603056957583,0.2207028301345728,-0.3381358640799092,-0.2657896761567278
-0.9222953533835997,37.99966661260448,0.038294400779478203,-94.82838683096759,-0.0922118923955484,133.30746584580245,44.258727883414075,-0.22415920386363128,4.1802388227925364,-0.14492364846926967,-1.3874165181906526,-0.08203964904334562,0.02816537359372047,-0.2668151943676354,4.764639979209201,0.7814730518346331,7.102124507232224,0.22677692770802174,-0.3484617485623989,-0.26429154361063273
-0.9224936574231196,37.99966659398602,0.03828016650027333,-94.82815141325567,-0.09202451569274721,133.3074657563497,44.2585616775477,-0.2212957665232305,4.1963762708168355,-0.1496911656001946,-1.3998007324454889,-0.08219534650254513,0.02804564859686454,-0.2717311839152293,4.748275056327105,0.7860860906488447,7.12873225464841,0.22598314346360787,-0.3428222171280862,-0.2674482503694447
-0.9223949787205121,37.999821570744615,0.03832238310452528,-94.82841312280824,-0.09208659731100227,133.30742243195508,44.25858684945006,-0.21466991853785172,4.142640425071898,-0.1397476092025769,-1.3711228878279358,-0.0825023826610342,0.03226341247148277,-0.26701703481565,4.73147817905021,0.768054175816697,7.04563852151182,0.22294259380707943,-0.34237088587147474,-0.2639881625636128
-0.9223936389169045,37.99979412821326,0.03828016235694892,-94.82827504977536,-0.09202911050368806,133.30737902435285,44.25865307828116,-0.20525444897662168,4.153913542498266,-0.13416571380824863,-1.384403576165037,-0.08298835486640685,0.030955022534799804,-0.26732650967947075,4.706823972691013,0.7459091764868859,7.086982619292763,0.21736809472663923,-0.3367003128919465,-0.26071611872672407
-0.9222943472819413,37.999822067329525,0.03829372405762533,-94.82825198311258,-0.09224954489801152,133.30746584580245,44.25868288907515,-0.16895838511428454,4.150734745718288,-0.09869754488455099,-1.3753760905013823,-0.08120707821934338,0.030794573425742214,-0.2656000172533074,4.737978313063302,0.7183985514223916,7.098216472496392,0.21422929783282224,-0.33903795822144606,-0.2626967197742995
-0.9223934921936764,37.99976767877471,0.037982059882399895,-94.82816713418765,-0.0922141470633255,133.3074224258241,44.25859144522035,-0.16896787579116607,4.1668708345580665,-0.10563203440411792,-1.380943815199763,-0.0830993469121702,0.03156498430800602,-0.26317893854008884,4.753194598563374,0.6966180789466014,7.085218271095037,0.20762100331605518,-0.34416010951579273,-0.25960997060834773
-0.9224915925961125,37.99978091861321,0.038280234749118444,-94.82841379852583,-0.0921467886998641,133.3074221852308,44.258608890542725,-0.158636760857535,4.213231188316487,-0.1031395949760379,-1.407900457630383,-0.08276446840920654,0.026648516571015714,-0.26677398237263455,4.764601013496941,0.7971850337175905,7.152297584939003,0.22892022889322036,-0.34323272183776815,-0.26748571828046136
-0.9223949787328066,37.99978157442522,0.038325932562549965,-94.82822423206933,-0.09229661326679377,133.3072402966998,44.25841259210712,-0.18904539706540985,4.17266822641257,-0.1204569980827881,-1.3975160187658466,-0.08401733031710266,0.029597610517311412,-0.26445408823716815,4.748869346928834,0.7373135327277426,7.12497584435843,0.21212971795536947,-0.34260601662740187,-0.2610270194852678
-0.9224915875452698,37.99978108641442,0.0381615016058219,-94.82815293475134,-0.09231039462452417,133.30746576252017,44.25851414634995,-0.20368492978413869,4.178714241239626,-0.1319310326349912,-1.3868524041975296,-0.08134678527047431,0.029324083879546187,-0.2622102267112082,4.7283138403929765,0.7703713383832075,7.04191016804447,0.2185568141197924,-0.34024307605904436,-0.2610886843206896
-0.9223084890454891,37.99997732660353,0.038620081621862846,-94.8281909408986,-0.09202227671151093,133.30733561349973,44.25850265512025,-0.16873499447856505,4.188584515637302,-0.11006141302482145,-1.3970377500153428,-0.08430859790820819,0.028987073108602525,-0.26602250685595247,4.739650957185715,0.788715593849983,7.079967335441503,0.2272012570741387,-0.34151853447746355,-0.26426615293035555
-0.9224060332376225,37.999781086414416,0.0381791440836967,-94.82817829197181,-0.0919854585474059,133.3074650962618,44.258494299205466,-0.20591400403282997,4.166375899686911,-0.1323379250083337,-1.386563658696886,-0.08339535235354792,0.03076585232983051,-0.26942402201578425,4.719654294727981,0.748161422628301,7.090680711963189,0.21710365639838394,-0.34035045795850577,-0.2628165960526474
-0.9223405696139313,37.999879200271366,0.03844366766510467,-94.82819094329874,-0.09209294141722787,133.30737877142147,44.25864312997034,-0.2175648780966853,4.155505050388539,-0.14089458495475693,-1.3738607713240492,-0.0810525071176922,0.03152020907906562,-0.27237856101841834,4.719476792116137,0.7682682220239594,7.086183973834095,0.2266484202064371,-0.33752509641717776,-0.26762027179402004
-0.9223936947443799,37.99966678064707,0.038545062924527404,-94.82841381174688,-0.09207984824611365,133.3074156892118,44.25859011385261,-0.16552012109764952,4.17130056875747,-0.10047184943224516,-1.391070811582182,-0.08288438131823261,0.02947743608780325,-0.2655267146812648,4.736774334305622,0.7633666506815899,7.073109205966358,0.22279633219639774,-0.3430958615007943,-0.263335932545091
-0.922515561310127,37.99982206732127,0.0381812587017696,-94.82847180872504,-0.09222272640674072,133.3075092287538,44.258340041566804,-0.22796082969849488,4.1587284932465485,-0.15167360364882118,-1.385223347446306,-0.08148996678345881,0.03160054762663293,-0.2651819404862878,4.727020388561208,0.7140553121309773,7.099773559965512,0.21261706314103626,-0.3394070285697526,-0.26439051037253725
-0.9225569834171811,37.99967977641214,0.03840088929734313,-94.8282930634956,-0.09193752663989575,133.30742242582266,44.258707605387784,-0.20216296853909854,4.171897380100779,-0.13204694306476927,-1.3811126363219943,-0.08135866057966724,0.029423011766595637,-0.269291879288575,4.750908332802704,0.7273834384457137,7.1573238068137615,0.2131089274700816,-0.34201776761158553,-0.2621270245283812
-0.9225052322916535,37.99990453552527,0.0380608756118665,-94.82827034890565,-0.09202225736180705,133.30750925648917,44.258041373482754,-0.19827124235591945,4.164221050710421,-0.13924565230279354,-1.3882163199352344,-0.0824822172182648,0.029837605441569378,-0.2667295305734576,4.744462152282101,0.664680485081484,7.129621436123396,0.19998366813862592,-0.3428292953297598,-0.26230375378994464
-0.9223940296936796,37.99966611580801,0.038181111989815816,-94.82836605520264,-0.09202302608979923,133.30741993660885,44.25867638399254,-0.22352841415964492,4.190022476807947,-0.14567492473784294,-1.3941996314316125,-0.08300600137209248,0.02863470646975949,-0.26423777324584335,4.757252452064172,0.7765147896904488,7.1191976234152525,0.22283936485613745,-0.344972438987576,-0.26186291432438047
-0.9223000405449852,37.99966659406303,0.038281686644450585,-94.8283030895517,-0.09216202551272148,133.3074224351919,44.25845228931058,-0.22648155382035787,4.194033819896301,-0.15313877678127327,-1.3962304189938919,-0.08245021446470552,0.030034553014458138,-0.26640877764548254,4.755196196917291,0.7851931461498445,7.128238638151037,0.22283693786789538,-0.34237003279639094,-0.2628450514507249
-0.9224627212821266,37.99966661260733,0.03833951937848539,-94.82826005701565,-0.09204062449042515,133.30724028744575,44.25832315271116,-0.20914760014831113,4.16951968208558,-0.1420979791751675,-1.386963371099126,-0.08197078971017295,0.03180143926699132,-0.27117737329083186,4.728910314336887,0.7678814914167886,7.089816073500433,0.2217218889186395,-0.3384227726172739,-0.26637444316180425
-0.9223939779785647,37.999879130783775,0.03828066482072486,-94.82851419082401,-0.0922510242419833,133.30744560821762,44.2585833710772,-0.20002056007746624,4.164996375520001,-0.13106006639504508,-1.3799106961895953,-0.0852369348076354,0.031128581931776908,-0.2681402334007564,4.753267369869655,0.7489913899977293,7.081405605444772,0.21648720233733268,-0.34497514636355636,-0.26470626131643316
-0.9224920879551548,37.99978108618306,0.03842466552576998,-94.82841819647773,-0.09232993510102651,133.3074209359964,44.2586430474681,-0.22383986069798262,4.190154374575501,-0.14980464051425282,-1.3918212044846863,-0.0828726629187405,0.02948294525495642,-0.26959864346097684,4.767576940598489,0.7862145774074376,7.12096835268313,0.2253083214094658,-0.34613724574568555,-0.26600006621413935
-0.9222953595022182,37.999782604028596,0.03839611384117944,-94.82806484530582,-0.09214916866386257,133.30736175096118,44.25816572513193,-0.19619371653238943,4.161416645905445,-0.12566738573888114,-1.382490318535938,-0.08519724199991663,0.03090328444019715,-0.2646155872854561,4.730880258348529,0.7372301368361256,7.074754773669446,0.21399559706379997,-0.34107433926073943,-0.2618816716178885
-0.9222955187063945,37.99956851320643,0.038458665987117474,-94.82829250015361,-0.09224929713463098,133.3074201864178,44.25836363043703,-0.19272838178947393,4.212091993304299,-0.12633980123455102,-1.4113774101914232,-0.0833801931563606,0.026028569223056793,-0.2656979378885606,4.73972153312447,0.7349486067260877,7.151510494720523,0.2137599307192643,-0.34105304755522153,-0.26191027756522656
-0.9222953514648108,37.99987769215922,0.03816754634485364,-94.82839439864206,-0.09208659772178891,133.30746584580245,44.25847778334611,-0.18250986806806485,4.1561644509148445,-0.11612291328660214,-1.3743814247363408,-0.08130639867720527,0.03270327111702139,-0.26503754506654276,4.753063354122835,0.719384103748856,7.0692208025298555,0.21399825498130925,-0.34438145263542225,-0.2612416454473399
-0.922532288804979,37.99978563964252,0.03855885157240444,-94.82829305717783,-0.09203208082866986,133.307196885975,44.258223461395296,-0.18635834429584855,4.203149730537443,-0.11975955313533117,-1.4071376829910907,-0.08561837543827885,0.02818769823579219,-0.2718333203479581,4.731051186394278,0.7345253632359626,7.140035950142184,0.2163342732213442,-0.3380451296687699,-0.2680283621838567
-0.9224887499602327,37.99978972673824,0.03829595720095662,-94.82816698536224,-0.0920933130501405,133.3073790243527,44.25819682097268,-0.1684312684244826,4.152698226954777,-0.10586996184331394,-1.3772501515894922,-0.08248667228076666,0.029752375100653147,-0.2686225907441698,4.735575543890176,0.7043912589746881,7.058264036113137,0.21225336846859802,-0.34459993928961813,-0.26433002439122244
-0.9223089176902494,37.99966661260448,0.038163015098079255,-94.82828082170904,-0.09215719771660863,133.30742243507768,44.25826994198488,-0.17008543235101556,4.153961264372388,-0.11395699469681556,-1.3738194661684995,-0.08392778570147191,0.032402636963291494,-0.266510597375474,4.750552391279245,0.7046990431382529,7.06499584253009,0.20564759038919206,-0.3445959237923341,-0.2614090973213714
-0.9223995014785807,37.99966661056004,0.03828235782669211,-94.82805083255072,-0.09211041707257389,133.30742243199313,44.25833887598919,-0.17404626941828796,4.198691643268585,-0.10840798743448292,-1.4038077293996194,-0.08295168378216863,0.027961233932172796,-0.27106872965166473,4.735950792387288,0.7158224431515638,7.132227062183482,0.21621762167489153,-0.3399402006163079,-0.26705205500340157
-0.9226560526099009,37.999865798984935,0.03816122061774659,-94.82817677471371,-0.09197870468258212,133.30746584568817,44.25829088886703,-0.2222647730166525,4.215125994814902,-0.144296700200961,-1.4062416565530451,-0.08332126933703571,0.027968015576212216,-0.26838776792724606,4.769100906811585,0.7811739749943016,7.160232496443693,0.22598341889355872,-0.3444933858395832,-0.2657364684484623
-0.9223934723855943,37.99974069851142,0.03828068125136333,-94.82828047118285,-0.09202225426049339,133.30742018645572,44.258471028964905,-0.17712543263587674,4.165707451877819,-0.11363085552374302,-1.3836304880645047,-0.08296351882614675,0.03194681188376301,-0.26885964416906855,4.789368598836934,0.7917203923340665,7.129887817500683,0.22731350668882613,-0.3503641862150742,-0.2651044414521556
-0.9224581622267437,37.99987920631762,0.03815346808811073,-94.82818622119164,-0.09224952625862201,133.30750925686996,44.25839962968467,-0.13267847945672157,4.155465056485763,-0.07931343951053114,-1.3743517594949604,-0.08382489964047897,0.03262666324446364,-0.2678365362622394,4.723685198297161,0.7388138013003527,7.076900396555009,0.2217698846034269,-0.33909759250321186,-0.26663730210254155
-0.9223360501826244,37.99978108687709,0.03829373033696029,-94.8282898670879,-0.09204987822999057,133.30748314775605,44.25851340396982,-0.1943641788317015,4.200410968147326,-0.12607372963837737,-1.4036670352208382,-0.08323598891502879,0.02719210789387507,-0.26995493272569304,4.750065402322683,0.7188001087587963,7.070031811050347,0.20545616786990883,-0.34491589928621547,-0.2583334062722689
-0.922610587748941,37.99985933831258,0.0385194453607503,-94.82817827328269,-0.09228952756507994,133.30742243507765,44.258425083242415,-0.17411272345984055,4.178088766426293,-0.11413774935509746,-1.388600047026792,-0.08270911503639725,0.02963654149482114,-0.2663998319287669,4.743988658518445,0.7311566975828682,7.119994494789067,0.20712038762202203,-0.3426030509522267,-0.26266625937609756
-0.9222184374800306,37.99978108618309,0.03845656906440485,-94.82812447977054,-0.09204234289112956,133.30742168553562,44.25867843811151,-0.1705791936561795,4.194662415757603,-0.11248232092987286,-1.4009460341316653,-0.08513151073890193,0.02898156535129338,-0.2640161562071248,4.71348567458392,0.7803266966495099,7.102893917235518,0.223326317258884,-0.3358481152898838,-0.2638855130345534
-0.9224930617806619,37.99978254883685,0.038462708966672,-94.82817811709678,-0.09197862302538491,133.30723796479413,44.25874389520146,-0.19699212774587346,4.150505082791811,-0.12612289947818284,-1.3747394144862775,-0.08216260377779269,0.03288731415901542,-0.2650364855599781,4.759947992300617,0.8013396633067309,7.113140164665664,0.22930970968862377,-0.34407928867359455,-0.2672166943246668
-0.9224916667514407,37.99966661192331,0.038298774245288034,-94.82823797168929,-0.0920656586835811,133.30760382391486,44.25841173157679,-0.19096834369460527,4.211404276639247,-0.12652668389324198,-1.4026457906833782,-0.08363938119454148,0.028783836086008794,-0.26568020641319584,4.719626862936962,0.7602519783533228,7.078398859626883,0.22099138318826753,-0.3365747209078895,-0.2654200843318882
-0.9225200849811654,37.99966661283582,0.038207716226798354,-94.82839959350287,-0.09208662419248505,133.30740219748012,44.25864563468454,-0.1789675716427986,4.166294060470744,-0.1149633212399683,-1.3780384658837508,-0.08131331990233655,0.03234526458826413,-0.268408151507417,4.758653065613341,0.701491028087764,7.195861109234003,0.20923312410471723,-0.34217707392631214,-0.26661523317198077
-0.9222729788566275,37.99990678026721,0.03840240811899897,-94.82829457728428,-0.09219700634355765,133.30742243473495,44.25860973848774,-0.1968886945938564,4.19600464168172,-0.12924909536436094,-1.3956103082560773,-0.08374253649563264,0.02835513483639287,-0.26482965160927197,4.778008782970991,0.7632167840235513,7.1023120442391745,0.2241472974740619,-0.3484114844414245,-0.26802106581579027
-0.9222960399822956,37.99978108618308,0.038284703087526774,-94.82828107025698,-0.09211351618210704,133.30750925652723,44.25856168339927,-0.22547203986137854,4.190181025783624,-0.15252313984518126,-1.3949312306923565,-0.08295549867501725,0.02929714915716838,-0.2695131077823512,4.756609638949462,0.6986890177557021,7.10089522377022,0.20566234864898544,-0.3473254320181624,-0.25794522593331526
-0.9223934783332131,37.99978108618309,0.03816256001136523,-94.82822423633239,-0.09202969620280795,133.3073356136279,44.25824743510316,-0.18271575791348016,4.172338047904586,-0.11597697682305706,-1.378364668935127,-0.08405874696119586,0.029889089064517295,-0.2686489578963957,4.784826463162729,0.7251943724332663,7.091973558527198,0.2149172960408958,-0.3518801199830474,-0.26500948453193934
-0.9224357310866342,37.999666612604166,0.038280167418781104,-94.82828969542652,-0.09225152626635247,133.30737902435285,44.25833408130323,-0.21060678906992342,4.1816814881118525,-0.1352220800510755,-1.3825068657803197,-0.08280261861056133,0.028549455456404384,-0.2667955551107955,4.7927815163815595,0.7623671512992187,7.105507160323565,0.22248737884404424,-0.35370444278236424,-0.26402502717043974
-0.922393471441101,37.999568542483104,0.03860809345746693,-94.82828834159001,-0.09227325383499584,133.30742243507774,44.258346704361244,-0.22668718904082844,4.201971896327419,-0.1517622378570958,-1.4047085059656228,-0.08304864333747246,0.027476370029958588,-0.27054408370654437,4.740607304933275,0.7913454524034664,7.137056870507988,0.22670479597605062,-0.3410494930221522,-0.2669805014497865
-0.9226202190296389,37.99978108618311,0.038241385137860615,-94.82840732309226,-0.09216923509342263,133.30740193837966,44.25845518328583,-0.1885371607992907,4.2005823830304445,-0.12261567357164507,-1.4051592029621343,-0.08314387555455179,0.027578987749288394,-0.26691377958235424,4.735101665689174,0.7307132135337694,7.134776216455344,0.21425966112752107,-0.33998537160656706,-0.2629961006065463
-0.9223375640111902,37.999781086183425,0.03832545340281084,-94.82828836025315,-0.09208315387429117,133.3074224340495,44.258643380862495,-0.1812990635042487,4.152683640019024,-0.11737371091229709,-1.380249156258013,-0.08177788078029961,0.03237704521219441,-0.2644756444013387,4.714527800719254,0.7165564419492818,7.062399901292463,0.21145200079090962,-0.3372258947200612,-0.2603801670677771
-0.9223944787313147,37.99966661260448,0.0383373231317814,-94.82802176292573,-0.09205217322675507,133.30742243496343,44.258295659399245,-0.1985291587034455,4.1732406201183965,-0.125670141843768,-1.3887278546519553,-0.08326674810265904,0.03043269426419094,-0.2664750789012077,4.733906968787428,0.7435219369716416,7.093788332454142,0.21886503031156374,-0.3404608403383261,-0.263641545396031
-0.922496169392226,37.99987915604836,0.03838687815930426,-94.82841364548743,-0.09206708210567444,133.30744560820492,44.25853597015762,-0.22129238435528403,4.220858697751618,-0.14283628054715108,-1.42084889987426,-0.08511962250496771,0.027357862826592513,-0.26628240631646766,4.713420837660988,0.775241661373486,7.1681234197888335,0.22263110058233862,-0.33272043399202184,-0.26421822310142934
-0.9222955189361316,37.99956848626344,0.038436612438422155,-94.8282066226018,-0.09197942977364183,133.30742243473495,44.258768492932624,-0.17076060093668394,4.173492593650235,-0.10899050751582787,-1.394115039386641,-0.08501939096449167,0.028942063768517517,-0.26259112052847566,4.7284988301976405,0.7694404540562537,7.113938152324933,0.22912484195790073,-0.3387227809189113,-0.2667056652419698
-0.9225760204132103,37.99982257325802,0.038457994070040934,-94.8281734345844,-0.09203845001502409,133.30737902434015,44.258386149745455,-0.21283797931387716,4.187626053243126,-0.13846463726598754,-1.3984056998414487,-0.08276622267414645,0.02822350096663301,-0.26649621880481955,4.794631538768724,0.8402142829559954,7.1201131370444655,0.2333369391764376,-0.3539860259618776,-0.2644342280044517
-0.9222968585415918,37.999626335201725,0.03828033006357601,-94.82851421057646,-0.09229411420705559,133.30746581804124,44.258505627626356,-0.17276935719906766,4.184357013433516,-0.1076643805673221,-1.3966177826557127,-0.0824763511501904,0.027994964856387954,-0.27081538822449175,4.731528018278154,0.7136394253841014,7.108237107215276,0.21598824290727392,-0.3410847852477408,-0.2666798135475604
-0.9223955457032522,37.99966661192331,0.03838238379897194,-94.8281671603395,-0.09231905442922253,133.30741567995824,44.25853766255939,-0.17749686496462047,4.188340607615873,-0.11833021958326068,-1.3901588501502713,-0.08230855361613737,0.02937238233799926,-0.27033661082398924,4.716213844827506,0.7469464971200765,7.086315493144333,0.22102758257324584,-0.3382071394093258,-0.26519161929840757
-0.9224961144094487,37.99966041950809,0.03828809485932102,-94.82824329740632,-0.09220761400458877,133.3074224350396,44.258164568380984,-0.21490414780671527,4.163011027120805,-0.1393703895175731,-1.382655495670123,-0.08330004451549651,0.030187254568145198,-0.2678717108284429,4.748917675047822,0.6992841566103373,7.072150690931046,0.2064042775520164,-0.34459264625218605,-0.2619590026130586
-0.9224131239660648,37.999660401810246,0.038325434114412596,-94.82824743510287,-0.09222524242914906,133.3073722784856,44.25870555943538,-0.19041337130620445,4.164022198553879,-0.12113175721628934,-1.3719809239878313,-0.08361074312957473,0.03161918076883522,-0.2682280383839888,4.7517549250708955,0.7078142013768398,7.082177689145534,0.21360277707920608,-0.3459098553299266,-0.26578847658025073
-0.9222429538967318,37.99966562875701,0.03828222560862573,-94.82819191484226,-0.09216248550771602,133.30741543900947,44.25860066117032,-0.17026688502832588,4.178469924941752,-0.1033927681180424,-1.3965057237847633,-0.08454531144493867,0.027758699023006386,-0.2640598918825938,4.765915238176677,0.7517588387331268,7.114484240450765,0.21502743446614653,-0.3460328283762028,-0.26171117812533595
-0.9225291314127175,37.99973937424597,0.03846252099610284,-94.8282930809998,-0.09210959761230365,133.30735878675532,44.25849572687479,-0.18859102805715275,4.201598104953485,-0.11526322108549157,-1.4041822580385916,-0.08359095498554539,0.027826281662465556,-0.2662366841314017,4.737772299669142,0.7489510675953037,7.122264839687606,0.21507172983128953,-0.3412336293612897,-0.2614433998394332
-0.9225322902628349,37.999879206624705,0.038203705660967716,-94.82851596017368,-0.09228651046167846,133.30742243511574,44.25844694782168,-0.20283701717586985,4.174207389165433,-0.13776439945990027,-1.3852532145278766,-0.08419805885187391,0.030826691035115393,-0.26627575606521925,4.731973158313366,0.728690315933181,7.073588734530536,0.21487797114633678,-0.34173261629631313,-0.2598562949948899
-0.9226060658968801,37.99966663758945,0.03828357134326822,-94.8283882875074,-0.09216923513685502,133.30736172365454,44.258366583581655,-0.17553651282158853,4.155134474041061,-0.10600670144533497,-1.3791382369372718,-0.08296410102849222,0.031212874515785277,-0.26705524487521753,4.724760317197186,0.7737940318926355,7.081924000834559,0.22449800038644138,-0.34073174112965426,-0.26392015437423316
-0.9222394355075418,37.99966661260438,0.038341921108319604,-94.82817671868287,-0.09223202935425578,133.30737902435285,44.25856159916937,-0.18913701362873633,4.169087682213668,-0.1211247841316037,-1.3840167841635345,-0.08274362874101013,0.029892631014873383,-0.2651588226000583,4.73097694148983,0.7473575058175782,7.129455530771572,0.21795995791026587,-0.3390558601724758,-0.2624481134958394
-0.9224403652681402,37.99997732660353,0.038280334711135316,-94.82837079003339,-0.09206766948288171,133.30751981272923,44.25851748363125,-0.17491527682069063,4.1700012976626075,-0.11257462948400722,-1.384853992109039,-0.08372744715070397,0.030728757776943134,-0.26709891529735724,4.733675755499396,0.8443177876313299,7.087140870083767,0.23478711753623666,-0.34139814634563587,-0.2695890663724109
-0.9221733906664623,37.99978110492156,0.038217447446156926,-94.82836968261923,-0.09208312238835557,133.30746584580197,44.25827096990265,-0.185182175080365,4.20071761839009,-0.12378130741635841,-1.4005347479005332,-0.08356729221653333,0.029067142391993955,-0.27200371856136657,4.7536011782823255,0.7426613648841981,7.1123983461060565,0.21645230662390197,-0.34497873791198336,-0.26473024649907617
-0.9223933102915316,37.999781067791574,0.03829830092646843,-94.82829447364738,-0.09210909525808814,133.30750917360038,44.25867611236409,-0.20097374255438988,4.18554074232614,-0.12984857767294822,-1.3953893021119046,-0.08293478363370684,0.028243511125595283,-0.2713113743331356,4.739853628433711,0.7551618679921624,7.110786016428278,0.22251600874849986,-0.34239123824617296,-0.2676026541784218
-0.9223018352527171,37.99984050406912,0.038384495867496225,-94.82828048360773,-0.09198545869784328,133.3074014479437,44.25873944069242,-0.1732687900268769,4.163871319544273,-0.11132960175344889,-1.37934233311646,-0.08060782862720454,0.031070263403361997,-0.2694635165069955,4.753626573807257,0.7135270069860329,7.079376413209491,0.21478774619250574,-0.3452151706499163,-0.2645648668286002
-0.9223934716807041,37.99956849239425,0.03816552475454026,-94.8281877757141,-0.09216956071960154,133.3074397371455,44.2584873367642,-0.20296716097473722,4.174373755300294,-0.13608327604730647,-1.3869873937422033,-0.08318294059605881,0.030215972329462448,-0.2661174552280528,4.746203284414658,0.7508425692743174,7.095493695845927,0.21569460673773289,-0.3431779271078461,-0.2620927639547019
-0.9222953574336703,37.99966661260448,0.038284905437859715,-94.82800809609599,-0.0920456362367344,133.30740219747872,44.25863214673929,-0.18797868330056383,4.178745265923521,-0.1205884385058606,-1.38784471654838,-0.08202144833892479,0.029465352346641147,-0.27102626397219315,4.756124578681343,0.736553294592798,7.101635807844981,0.21957946560970726,-0.345386010280101,-0.26683969319401857
-0.9224403645751602,37.999780758259014,0.038161687589139015,-94.82861920743785,-0.09204715501891367,133.30746559584134,44.25874382392284,-0.22880937091537748,4.182929044804649,-0.15183259892931777,-1.3908443832551465,-0.08486046666793473,0.02740397690078437,-0.2665721048210493,4.756605269708585,0.7878093459488935,7.105271988815517,0.223244194843468,-0.34731892860649055,-0.26397742165885846
-0.9223934880606333,37.99976920284164,0.03806088740184631,-94.82815299377985,-0.09198194419287871,133.30746584580245,44.25868221992267,-0.18764873442623514,4.1885377544722315,-0.1287501241844237,-1.3966408306417433,-0.08402174631817606,0.028105039239630945,-0.27270891142918124,4.742577069069153,0.7397437212522494,7.115597556039027,0.21423809081008235,-0.34274750554574446,-0.26712467490944225
-0.922201752935742,37.99978955593386,0.0383411711707125,-94.82839333745262,-0.09229333864226807,133.3074224361011,44.258514180010394,-0.20754854619336066,4.188062931587566,-0.13616258178657523,-1.401303365770238,-0.08374137365526549,0.029145115979647147,-0.2642076822280967,4.71531825042525,0.7532788472198928,7.1162340175634355,0.21658808216713304,-0.33591857511100853,-0.2611595902277897
-0.9223934714385941,37.99999098675481,0.03807266888994984,-94.82806495560551,-0.09203182998198539,133.3075070079053,44.25844086079554,-0.17972102201237547,4.174392213311078,-0.11115875943363572,-1.385711976557386,-0.08217669847917886,0.029508618393922145,-0.26895268559212243,4.754670484538059,0.7208044395951225,7.094387611708857,0.21749861931055223,-0.34565772632303043,-0.2654044431791927
-0.9225160644434917,37.99970758158575,0.03828032980795061,-94.82817185982591,-0.09221443540810104,133.307422351565,44.25854506514446,-0.22976596884549233,4.194814046548711,-0.15487161651329143,-1.4001239661091625,-0.08195324613027971,0.027197146756403234,-0.26944082907890654,4.743962049261881,0.7944634585205315,7.1246562513944385,0.2270894655427332,-0.3431293682072023,-0.2657249692618017
-0.9224075414753984,37.99983949010813,0.038284659423239324,-94.82823798976226,-0.0920654977363961,133.30742243507768,44.258237996646415,-0.18189401784361467,4.143402545222098,-0.12146800038739212,-1.370017087470626,-0.08233849777834491,0.031346764486697584,-0.2680971129470259,4.75594810357057,0.712411302131172,7.091401888381757,0.21276259469420877,-0.3457841870231118,-0.2614591387611466
-0.9223979891820026,37.999653205170915,0.038443004139461105,-94.82828474082022,-0.09227876634438721,133.30724032343238,44.25874393329555,-0.2063814221496073,4.16644368639771,-0.14173419669944978,-1.3856519756098176,-0.08230775057565418,0.029647554815397933,-0.2669995070660268,4.76547470191622,0.769491996523842,7.081929012238706,0.22101702736633533,-0.3499954007419572,-0.2618844065385612
-0.9226139053576798,37.99978108618307,0.03840225372583043,-94.82829448206938,-0.09229429829473175,133.3074225187013,44.25832115405527,-0.176291857685089,4.202245375169207,-0.11325069482924607,-1.405460379339919,-0.08188825779221502,0.026201396661202036,-0.2622291250386471,4.741662245428315,0.7060651225361961,7.135316157059882,0.20849603780986245,-0.3427037389345973,-0.2583245475127142
