BIOROB-Lab-192/Bilateral-Teleoperation-TouchHaptic-FR3/Data Collection/05132024Gear Ratio Estimation Attempt 2/GearRatioPose3.csv
q1(deg),q2(deg),q3(deg),q4(deg),q5(deg),q6(deg),q7(deg),tau_1 (Nm),tau_2 (Nm),tau_3 (Nm),tau_4 (Nm),tau_5(Nm),tau_6(Nm),tau_7(Nm),Fx (N),Fy (N),Fz (N),tau_x (Nm),tau_y (Nm),tau_z (Nm)
-65.74666485967505,-59.182278663300856,76.85981247685461,-113.082094544221,-61.35211649020525,158.4075313179308,83.81930520393145,-0.3941883024409947,-1.8499833303571331,3.0210647654587923,-1.718630500294089,-0.6604532479826257,0.8247461767817594,0.3001894972286995,-4.440344377706351,-8.42327370029875,0.8743241571537764,-2.3602028615981823,2.405203414586075,0.41522838024174197
-65.74677935747097,-59.18218054309094,76.85998021548166,-113.0818776440199,-61.352156963332206,158.40757470077634,83.81953007991241,-0.4041322170339751,-1.829156191515136,3.0003877782714787,-1.7242639244980769,-0.6601378660313113,0.8231685990496438,0.299140937163457,-4.4560811767192465,-8.372818737621893,0.8827373613906893,-2.340661813464361,2.4026653906275546,0.4124433377790879
-65.74697996465882,-59.18218054309348,76.8600546023914,-113.08201922915731,-61.35226402444232,158.40759275242291,83.8194807252575,-0.4128810530112717,-1.8330131941120322,3.0004252952064583,-1.727804125299378,-0.6616351592083787,0.8212162238739595,0.29944725828920005,-4.459004779390968,-8.38837988996477,0.9007593692252412,-2.348400277965086,2.4058159878061387,0.4131726632573932
-65.74656522781692,-59.182263487184755,76.85993136104126,-113.08224054417282,-61.35226402494207,158.407531290053,83.8195277740991,-0.4213955223785124,-1.828670865341953,3.0082862332364946,-1.729975980495018,-0.6601948024159213,0.8214364183965757,0.3012741813230975,-4.435812646268141,-8.405929748086502,0.9303068097034634,-2.346764411761226,2.4011359824768146,0.41437422710075367
-65.74656723283816,-59.18227866111598,76.86004109803315,-113.08188607882406,-61.35238252374767,158.40761811458566,83.81928721675762,-0.4109941496508588,-1.8351321067490247,3.00148086555001,-1.7237344619104762,-0.6593978890125524,0.8209793610830527,0.3017522646274268,-4.449791417119367,-8.394725405317256,0.9028841324035961,-2.3519052861888965,2.4051126382169516,0.41580001515338977
-65.74667642751423,-59.182180549336806,76.85988157169702,-113.08213835625939,-61.35199507078861,158.40761836134803,83.81952776381833,-0.3896607533263935,-1.845462036006402,3.0249444449225824,-1.7162933432569323,-0.6579214196081794,0.8255064132658668,0.3012273843124882,-4.42547818462156,-8.41920323099922,0.8687663766462033,-2.3537024515061384,2.398762296346455,0.41563141367080303
-65.74677883348468,-59.18240143805923,76.85999911388994,-113.08201486237434,-61.351977078715805,158.40757470078904,83.81931914619148,-0.4106491955687346,-1.8319752985672235,2.993366705009069,-1.7180377787834462,-0.658273807075243,0.8222219779791247,0.2981159945203753,-4.4386903679405485,-8.370402213398291,0.9078127854931042,-2.3449366134485063,2.4025736480051343,0.4127881227850379
-65.74691088380958,-59.182278663300856,76.85981222143644,-113.0821177755044,-61.35222058630434,158.40753129005154,83.81957192526569,-0.41074077634896167,-1.8358361076628746,3.0038223903131422,-1.7275542360956229,-0.6593815669415405,0.8236910308999018,0.30127376160277447,-4.463064317873659,-8.399132073058778,0.8990844526402276,-2.351750862319454,2.409389472476703,0.4158242038195349
-65.74666485967781,-59.18227410984046,76.85980057882885,-113.08190084902465,-61.352264024441226,158.40757471037267,83.81941744893682,-0.4315620860605283,-1.8325894421213724,3.001268356869028,-1.739017271995519,-0.6605353375164176,0.8179049376200144,0.30002656733907535,-4.459484642591569,-8.410863713588197,0.9339979918925284,-2.3537051032036063,2.404944900750014,0.414428823565316
-65.74677933942556,-59.18237947465038,76.86010789286838,-113.08224017690391,-61.35217745284436,158.40762036115177,83.81954850826591,-0.4254707415188812,-1.8309374542853492,3.007286287348911,-1.7450459981665516,-0.6636865636526473,0.8207023437995673,0.30100420250546794,-4.485300019698494,-8.41423637286934,0.9124384843451252,-2.351246564315581,2.4106000322624723,0.41423973080120763
-65.74677830880809,-59.18209602681185,76.85999996302769,-113.0821252559554,-61.352177091954374,158.40763834944568,83.81929865886832,-0.43337590234097506,-1.8192332061953052,2.9854606235169343,-1.7351891084109752,-0.6619160048727856,0.817157223545243,0.30064303236609374,-4.46352676080818,-8.371300492267647,0.9394234337597327,-2.341937983325465,2.4052619152998966,0.4131875910153949
-65.74666486583932,-59.18217908148635,76.8598827519154,-113.08213402290775,-61.352177201867704,158.40767882417953,83.8192990578122,-0.3812484322697563,-1.8579122095337048,3.0347505394405254,-1.7138669757779723,-0.6612961980283668,0.8268432537477607,0.29510992419356025,-4.419321756872517,-8.430298288741039,0.8513355035977157,-2.358794485450214,2.3977287740950746,0.41074199145425094
-65.74677928323476,-59.18226500299963,76.85981199182082,-113.08213841031954,-61.35226402410429,158.40780024987902,83.81943475135161,-0.39951593206371006,-1.8325522875289262,3.0039652082086286,-1.7136180738574558,-0.6618621819421796,0.824179539316469,0.30035336914433813,-4.453090115179097,-8.391105559126496,0.8514473818466421,-2.347200600562288,2.4010961161657454,0.4126022364679029
-65.74679653512872,-59.18219415349948,76.85999960669136,-113.08212378803887,-61.35217720402556,158.40753204267673,83.8198013726338,-0.39797161280186,-1.8353334221054276,3.020206770183171,-1.728847552247091,-0.659161433515991,0.8238497506453879,0.29855369390340103,-4.418802846818548,-8.437481501594624,0.8683371309295767,-2.3530164963723768,2.393173252492662,0.4136911945714007
-65.74656674563579,-59.182278663299904,76.85992424488208,-113.08213256390248,-61.3522033024008,158.40761811463645,83.8192983176581,-0.42625899002959394,-1.8204734888550953,2.9982673203137185,-1.740532376632895,-0.6621117724197355,0.8206490952901512,0.3000489363220485,-4.477296614037355,-8.34508649857849,0.9090067031677576,-2.3321088226821707,2.40580427186809,0.4128849485546343
-65.74658428480988,-59.182082422880704,76.86000095617224,-113.08213824799334,-61.35235259242498,158.40757472865135,83.81957118474581,-0.4183354735058994,-1.8313088962507067,3.0033932930590126,-1.733533273000939,-0.6615923353994785,0.8210864415739478,0.3007122099170504,-4.491948650489192,-8.374874879193806,0.8962462995898401,-2.3420434640857857,2.4085453253570646,0.4131130961104297
-65.74677934010222,-59.18226500292252,76.86001984474748,-113.08201922921975,-61.35230066143095,158.40761811150114,83.81976479152358,-0.398732136812842,-1.8351483979045962,2.998322466194471,-1.7274421781972338,-0.659227217471358,0.822453290764869,0.3010519485586132,-4.469214595894521,-8.384157349859505,0.8737950066030691,-2.348860873259219,2.405641494940032,0.4126214466193171
-65.74683647225429,-59.18205743103797,76.85992637885943,-113.08200461245733,-61.35217745284008,158.407581447671,83.81930526026127,-0.40303771878963723,-1.8378002146148567,3.0011700227973113,-1.736711191864785,-0.65920270964246,0.8221121657347841,0.30020008271729215,-4.482732668874975,-8.406877052006525,0.8525883538582951,-2.356141101639354,2.4097708171711147,0.4152419693131
-65.74677950182604,-59.182333304805645,76.85987700477789,-113.08201870587514,-61.35226108892152,158.40757470078066,83.8196512698145,-0.3844328777701733,-1.8388248500339608,3.008320607598064,-1.7116882322699287,-0.6599079391919874,0.8239646622439096,0.2990759106755337,-4.439036961738176,-8.375375391647445,0.8495128367678774,-2.3447978443409876,2.398963748400003,0.4125801224024982
-65.74677933942557,-59.18230348649664,76.85989476270993,-113.08213451347369,-61.352237915790575,158.40757470077682,83.81957126397498,-0.42080985020871475,-1.8307763340442054,2.9999447555347083,-1.7348219323986482,-0.6614848662275714,0.8223484894485679,0.30070822593955776,-4.473814947736753,-8.396673431232905,0.9139154322651727,-2.349481246101283,2.411065050911698,0.41462988905784
-65.74666488455978,-59.18227866399488,76.85992271030318,-113.08213792116268,-61.35232248861628,158.40759200284424,83.8193760931983,-0.4033215504762176,-1.8354181651556114,3.0113002641010103,-1.7251751360308891,-0.6598424837695411,0.8225855731707508,0.3004843372689985,-4.448036410661706,-8.383901812193768,0.9097058716759251,-2.3434725334107513,2.404782741681363,0.41518793811773613
-65.74677982662698,-59.182278663300856,76.85993323980196,-113.08191564551635,-61.35220106303245,158.4076181207547,83.8194104163776,-0.43124989600669134,-1.8239058633362482,2.9965804841609365,-1.7479776947173826,-0.6619938005364104,0.820408491678443,0.30128640096278153,-4.497454604157589,-8.395987535447453,0.9182428902216949,-2.34591509490347,2.4121275252992835,0.4145997190965186
-65.74677933934846,-59.18227868204795,76.85988110510802,-113.08213822927226,-61.35210374904146,158.4075769493983,83.8196355893179,-0.40089888810553015,-1.8350340072149267,3.0056692000395606,-1.7294556891053452,-0.6595729872942357,0.8218308311657804,0.3008815366101934,-4.472123248857799,-8.389668557038556,0.8634020103139082,-2.3474142492378167,2.4040913217195943,0.4146376666959174
-65.74666632748455,-59.182278101171036,76.85992183550947,-113.08213841039381,-61.352215358026825,158.40753129005154,83.81947807844404,-0.40293470141674614,-1.852964109195173,3.037221831472846,-1.7359197013623722,-0.6616938762030277,0.824727645422173,0.2996625101297233,-4.454283005435438,-8.461689659790162,0.8784603800571276,-2.3642304489338666,2.4050596078453492,0.4148863573650409
-65.74697557984634,-59.18227821357643,76.85987666768776,-113.082082532597,-61.352264024446555,158.40757470081442,83.81961362449886,-0.4003685850199557,-1.826100366512543,2.9771245678172944,-1.7195189138412608,-0.6581222392060541,0.8201438025498637,0.29787431704396766,-4.476816346340202,-8.327853488591476,0.8599130882125015,-2.336627388554403,2.40387161778209,0.41194294234343365
-65.74677928387833,-59.18227866538291,76.86000146604218,-113.08213839234564,-61.35234203930762,158.40753828885303,83.8195902610393,-0.4258775106022284,-1.817945772299967,2.9811027180820195,-1.7377949181447199,-0.6601374796268034,0.8190226404231509,0.3014412051660779,-4.491303570702016,-8.35810480752161,0.9098039176562347,-2.3389202618812006,2.4093984302177818,0.4143852144611729
-65.74656674563676,-59.18227967518073,76.85989538194151,-113.08223614711747,-61.352393032785955,158.4075821963521,83.8196145676837,-0.42000600189526305,-1.8280963188716148,2.9856728609690393,-1.7310626558169937,-0.6618622435376711,0.8195029577006822,0.2998729933356743,-4.460488443075303,-8.382540116302572,0.8474702776552916,-2.3501826414961515,2.406799182238016,0.41497382606962074
-65.74699585135501,-59.1822786635322,76.85976415921485,-113.08212525595448,-61.352177952423936,158.40761844497305,83.8193912569932,-0.4122849746798181,-1.8338186342825804,3.001276680396933,-1.7261196849793232,-0.6591038826836105,0.8217100764083576,0.3011736830489188,-4.454306912649667,-8.39333358757501,0.9029732614510498,-2.3500905078048535,2.4055813463169295,0.41536911211084104
-65.7466648678519,-59.1823946546993,76.8600472471771,-113.0821384083641,-61.35212759074053,158.40753129006424,83.81929182752103,-0.40239085315253426,-1.8262285185982794,2.9859114786000567,-1.7165601377550637,-0.6586049269035299,0.8211865868248653,0.30262837276177945,-4.454963598239566,-8.369079068596399,0.9230555050185492,-2.3378542611499427,2.402143140431021,0.4123658144627104
-65.74657993614659,-59.182278663300856,76.85999994200529,-113.08201924520695,-61.35217037385068,158.40758144668453,83.8194781617124,-0.3970724176743434,-1.838721691377195,3.013894640898146,-1.7270327832339725,-0.6606382868303899,0.8225410063319767,0.297862538776637,-4.4543260272169976,-8.396408045299424,0.8609967929133071,-2.346757253557946,2.399133270986405,0.41175124425880083
-65.74687746030686,-59.18204144174453,76.86001936136202,-113.0820188738553,-61.352219864183,158.40775683915422,83.8196580090101,-0.397909487762431,-1.8293070569263352,2.9931938061290224,-1.713102995354319,-0.65956371274831,0.8223924738986577,0.30039562769715256,-4.444229140869703,-8.356647566972331,0.8794887380429862,-2.34095952038729,2.402129962526668,0.41344981178260665
-65.74666487253022,-59.18239313896161,76.86003496274522,-113.08224055674073,-61.35226405222049,158.40763541356947,83.81948780472689,-0.43228407974983435,-1.8183688506505564,2.9850768358633815,-1.741342119881327,-0.662762392438947,0.8195544559823593,0.30203401818988107,-4.493316750695774,-8.372815056645546,0.9275897364154905,-2.342269423571135,2.4133222773593803,0.41454297107641797
-65.74666486585065,-59.18218037446968,76.86010360244425,-113.08212523783666,-61.35200616515527,158.40765576255228,83.81961485152021,-0.411340092309175,-1.837049228625995,3.0154397035144362,-1.7328115657031742,-0.660934572970471,0.8215108385359605,0.2964678778801169,-4.452922282823165,-8.340605366628761,0.8857132985836247,-2.3392650373358626,2.40293970223916,0.41372691758278185
-65.7467793394256,-59.1822786633018,76.85988035059778,-113.08220108694528,-61.35224759718561,158.40757478407187,83.81935032223733,-0.40431435073855965,-1.8373048613321772,3.009183056847336,-1.7211378638490054,-0.6602237672860826,0.822430839749173,0.3010275074661784,-4.468042731501871,-8.388843379762195,0.8981833144314912,-2.3467695093240195,2.4047862952643357,0.41368855885480116
-65.74677930749212,-59.182237700904345,76.85989602040996,-113.08213839234655,-61.35226410463209,158.4076181392619,83.81952777398635,-0.4109548044239791,-1.82712533399871,2.988752781269331,-1.7277796800423988,-0.6595493485575893,0.819484419815565,0.30250267908636913,-4.439843234710864,-8.377175625607956,0.8573403046290324,-2.343911042252848,2.396316374273524,0.4117823607783783
-65.74666486584601,-59.1823931931293,76.85988080393791,-113.08201924518312,-61.352134336606376,158.4075987487101,83.81941770502553,-0.40914605673791443,-1.8456869430519227,3.0219898646055334,-1.7355472659071676,-0.6588054302948716,0.82231113915628,0.30123642385134825,-4.452727345025721,-8.362715357451624,0.8856519953648477,-2.335577640616266,2.3957821349986683,0.41104925979190604
-65.74688456221003,-59.18218059957176,76.85989850561234,-113.08213841031834,-61.35222061372174,158.40762036013578,83.81925493540992,-0.4009438540372769,-1.8349338802478223,3.0062362009738273,-1.7261843899491431,-0.6593433015087196,0.8209492934067455,0.3006985796582809,-4.462266749860395,-8.398444886503471,0.8544442171931181,-2.3516984089405533,2.4026596233349635,0.4144228413978213
-65.74666486584789,-59.18218054309063,76.85989226098543,-113.08223908858473,-61.352243537004,158.4076361641378,83.81965734622196,-0.4198725511388512,-1.8276886089862057,3.0072902362119653,-1.7383806575256482,-0.6607433397301534,0.819710942587752,0.29699408406170413,-4.452626379430304,-8.394451621765704,0.904782755649684,-2.340958607235585,2.396509320574243,0.4103381018487344
-65.74656674563676,-59.18235181852825,76.85977320817928,-113.082019247212,-61.35222087286071,158.40784988989668,83.81941021776504,-0.4478833754350077,-1.8129921075647262,2.983662717350997,-1.7562095383916452,-0.66128436488873,0.8176137244251238,0.29851189793120014,-4.501685159223953,-8.374724424469848,0.9433275261116066,-2.336851997011159,2.4086562537885543,0.4117646408323723
-65.74666486584698,-59.18227871974807,76.86009611994668,-113.08223616545044,-61.35217037076523,158.40754867644253,83.81957110142883,-0.40457920516379636,-1.8289880236124993,3.0006399092115417,-1.7274636228775515,-0.6614390309778025,0.8213360107569069,0.3012660935169589,-4.479158001872037,-8.327482188237752,0.8907126904375123,-2.3290356325730497,2.4032705437513804,0.41068184523931694
-65.74666491998057,-59.18231964474443,76.85988174770112,-113.0821384103718,-61.35226402501825,158.40761813617738,83.81950363968153,-0.40247287473769655,-1.832344619084627,2.997190538620454,-1.7217170073878887,-0.6595947493879989,0.8223419846824883,0.2961290266882962,-4.443082999873843,-8.383258367616095,0.9061931062942439,-2.3434286048986235,2.4000408185531255,0.41167740207918346
-65.74677933942557,-59.18227714548103,76.85994173519963,-113.08191705231606,-61.352282016503075,158.4074879626094,83.81965800615168,-0.44021423242285945,-1.825672750010284,3.0033291893071135,-1.7469282402675248,-0.6611661156919553,0.8192387888524811,0.30084057618361354,-4.466310797813843,-8.415985878836421,0.9509656376956322,-2.349260220116917,2.4066362983735017,0.414470801247361
-65.74666502825603,-59.18218054316774,76.85993718234857,-113.08201924721281,-61.35230818471246,158.40761811150543,83.81954042114361,-0.38632887298583,-1.835503388635388,3.005598269613243,-1.7091773248552422,-0.6591991331099163,0.8237351813848449,0.29743110063127126,-4.425343527441315,-8.364909508919034,0.8581780338530609,-2.340003897321883,2.3947665613717,0.41087380886880825
-65.74666502824745,-59.18219437211562,76.85993719100838,-113.08214294558599,-61.35220034733573,158.40761811153922,83.81943475100014,-0.41170393244055636,-1.8269726056578242,2.999050028864783,-1.7195878636235435,-0.6580712598792472,0.8200265052090565,0.2984843951410614,-4.420280497262514,-8.372766459181216,0.9106351481128274,-2.33946434464748,2.3932645505834924,0.41180976661801955
-65.74679249386672,-59.182278719519246,76.85989521465761,-113.08202018909488,-61.3521771752409,158.40757495372046,83.81942826133208,-0.40773929649113,-1.839121887240656,3.0156874362019104,-1.7336898505597673,-0.6609825616546088,0.8207949398069393,0.3025953091613322,-4.464646855493236,-8.42067197148132,0.8825489098927803,-2.3552532145734624,2.4046748008311316,0.41616671987819154
-65.74687794770534,-59.18227259201598,76.85991822982248,-113.08201926595133,-61.3522648572742,158.40764617774857,83.81911847183868,-0.4073785313177488,-1.8193933823526554,2.9855513705005543,-1.7223620125218262,-0.6588293601064956,0.8189752125153471,0.30094794735416885,-4.456741394582577,-8.343465062449633,0.8839703347754748,-2.333829363359882,2.398640634371104,0.413090708935427
-65.74677933942587,-59.182352155744404,76.85988315409614,-113.08212266625725,-61.35226169459912,158.4075754503184,83.81931713729853,-0.40504813042794535,-1.8311270041653227,3.0097686035401767,-1.7303936325964728,-0.6588487698108338,0.8210505881362462,0.3001808272139205,-4.452482371151177,-8.392682291929152,0.876924135253921,-2.3429465955772923,2.397127842099353,0.4133981373368879
-65.74683665896193,-59.18218048695223,76.85992225297407,-113.08197832229322,-61.352264024447024,158.40768798915585,83.81968566420653,-0.41799157830889444,-1.8328263509228735,3.0131635040346234,-1.7410967531460204,-0.6590941953023435,0.8209624909870427,0.29908758032176114,-4.46202553019827,-8.413179986178992,0.8980659376135706,-2.3472121037869744,2.4000458514871803,0.41326116183738426
-65.74657118457458,-59.18239617460113,76.85994019936234,-113.0822600341059,-61.35239600623,158.4076354136832,83.81948758333482,-0.4216581615383948,-1.8287501417781051,3.005589454084733,-1.7343354368777197,-0.6598244468626956,0.819312851862453,0.2973297080540124,-4.440875614435341,-8.395238093357486,0.9163088014276886,-2.3429772441269554,2.3958468745922854,0.411020504743796
-65.74667802630113,-59.18239313687945,76.86024691454399,-113.08201919307932,-61.352220363875354,158.4076181145858,83.81959310843013,-0.3952135880163168,-1.836603522617122,3.0106332934917677,-1.7250960950545275,-0.6582021103602504,0.82199478816588,0.29648242957361076,-4.44669465402716,-8.383682551819575,0.8550461989164316,-2.3420146991118234,2.3939646917683413,0.4107520712747739
-65.74666486584789,-59.18242956424657,76.85970130500158,-113.08223892623367,-61.352264024447024,158.40755152764908,83.81943325000812,-0.40849042811030783,-1.8353603044952131,3.0168176874127,-1.7285468109141409,-0.6581993131087636,0.8221078405336992,0.29808995931757,-4.430031874117153,-8.408074394524192,0.8954815817182179,-2.3456332904876813,2.394133088713155,0.4122286846864086
-65.7467793394531,-59.182491259171734,76.85992740326026,-113.08224053846776,-61.352159897843656,158.40761812075473,83.81927332840348,-0.40742295467979767,-1.8367191935843579,3.017168921053481,-1.7288975832565652,-0.659677668216977,0.8220395518450813,0.3043752668363925,-4.448777136792032,-8.421748379747529,0.8943753388041913,-2.3538042642761403,2.403435421208696,0.41756938911034935
-65.7468818504662,-59.18232015037868,76.85992605178151,-113.08213841663988,-61.352257277552944,158.40759019196778,83.8195300510337,-0.3983842436156629,-1.8357188464084535,3.02050318813876,-1.7174854266394044,-0.65824824437077,0.8219829340413832,0.29765156313642416,-4.400717730026999,-8.4002998008664,0.8876534632913636,-2.3423108827700556,2.38671976442261,0.4109576676879742
-65.74670481636451,-59.18266884828,76.8601285579294,-113.0824826568493,-61.35215990093006,158.40757470078904,83.8196333320327,-0.4175492225613147,-1.8172053818298521,3.000229071884994,-1.7291652214856044,-0.6610712616095475,0.8201474299298146,0.29811710279024795,-4.433021782984011,-8.3673094290074,0.9144684247395684,-2.330553078524699,2.3928252393335763,0.40961275974207073
-65.74677933942914,-59.182394673515844,76.85994123225981,-113.08210041009661,-61.35226169254282,158.40757495063593,83.81926723525314,-0.42895906088042024,-1.8178375002313567,3.0080845452923053,-1.7366015873788345,-0.6614615374793672,0.8199912281526982,0.29911578949940965,-4.402734401184338,-8.395579310100386,0.8785072392573335,-2.3409572506840357,2.389919834597022,0.41073504109200426
-65.74677934544039,-59.18239313711173,76.85989242331144,-113.08206478178253,-61.35215992971714,158.4075769493983,83.81957809920709,-0.39178918093047416,-1.8329705177995632,3.0150755858716063,-1.7135874677019907,-0.6581591555066861,0.822056304943927,0.29598631053881663,-4.429451466726248,-8.394069100916973,0.8818120913997713,-2.337633438693775,2.392843227171875,0.41229831157357094
-65.74679254799746,-59.1823931368823,76.85979862339582,-113.08236349374451,-61.352220613722224,158.40777414225022,83.81936867308819,-0.40602390540085986,-1.8299900920787058,3.0131642273805026,-1.7223780092026635,-0.6615541152288729,0.8225016964264871,0.30104151069744567,-4.4349519404491975,-8.357144200437002,0.9151753369495917,-2.329046480694745,2.3953603545479885,0.4105869622433376
-65.74666486584708,-59.18243411804017,76.86005465937284,-113.08201924721281,-61.35215990091878,158.40775683915422,83.81963799704586,-0.40512415909479066,-1.8437840871585267,3.0318570579344684,-1.724359581820779,-0.6591918532551206,0.8228897847312403,0.29844248725212985,-4.436037484783695,-8.378316695327234,0.8689226720858025,-2.3370429619451265,2.393037394190338,0.4120871078288114
-65.74678367404043,-59.182278663300856,76.86014938714946,-113.08195803434495,-61.35212784365924,158.40753129009013,83.81925863292658,-0.4154868728809874,-1.8229667162130894,2.997051810884994,-1.7242988224478597,-0.6598053187278863,0.8199111743451195,0.29883480007677016,-4.419292824964232,-8.352215446709,0.9667290819520092,-2.329611679415939,2.3973488855300493,0.4137171063200703
-65.7467041607384,-59.182279175486975,76.86006090758028,-113.08197976555516,-61.352284262353486,158.40757470081448,83.81952761270021,-0.4296226909620644,-1.814174584649404,2.9968044274503685,-1.7330825174038624,-0.659972695490524,0.819170885271428,0.2959413324492949,-4.4251086062471545,-8.415886431813723,0.8793663899645764,-2.347195955915981,2.3916190847706273,0.4125492595124337
-65.74677950183437,-59.182182117126,76.8601615102012,-113.08216348498968,-61.352220641825234,158.40763834909916,83.81952803008814,-0.38635159605710545,-1.8478750918091758,3.0333591499940726,-1.7147703294155219,-0.6600568005339033,0.824095209268221,0.3002368328042884,-4.40916780747881,-8.42863229369761,0.8653561270942769,-2.3542837726491515,2.393137839217591,0.4138249258423642
-65.74678063024881,-59.18239313687975,76.86012037897395,-113.0821384666063,-61.35244615665588,158.4074909607717,83.81961384589096,-0.39778801707119804,-1.8422209161236904,3.029726886679259,-1.717680427669486,-0.6600536738856413,0.8231309449797155,0.3029222376160874,-4.407609486274478,-8.432680059634281,0.8944342513488653,-2.3545298405196626,2.3952834821645417,0.4158488280212145
-65.74687594181627,-59.18240679656377,76.85981416962841,-113.08228153348033,-61.352240852199685,158.4075312900517,83.8194347499715,-0.4131701705879366,-1.8196683871517478,3.0021468524367605,-1.7293367838200766,-0.6600353857034855,0.8204304682578856,0.2949253672348296,-4.422879230502883,-8.35591430257048,0.9031852163210001,-2.3294548675432276,2.3883282758915,0.4104762072617303
-65.74678326180742,-59.18218206091044,76.86005888359303,-113.08201908481244,-61.35226177582501,158.40761819482574,83.81934792955072,-0.41295122341746965,-1.8227177614091812,3.0021144970595883,-1.7218000195217777,-0.6600463719769486,0.8208094999917263,0.30072634615899946,-4.424101367175852,-8.377083088820562,0.9159748017424798,-2.337653996013918,2.3954344702444437,0.41265051258447655
-65.74678085518899,-59.18227358516295,76.85988329703841,-113.0821384104195,-61.352238574933295,158.40759493871803,83.81961384588737,-0.38643166664112044,-1.833799771165039,3.001745293126057,-1.7046767559212783,-0.6587325869132119,0.8231501856349713,0.29610052462453906,-4.412211687722374,-8.353544524841004,0.8637167245896717,-2.3370495042380393,2.3914132977442395,0.40954577050128316
-65.74689111099188,-59.1824067993659,76.86001987007892,-113.08213841037733,-61.352128423563464,158.40761811150554,83.81939134016143,-0.4207526796065877,-1.8194217865554145,2.996295460932372,-1.7327042585397932,-0.6607134961694691,0.8182419006292428,0.29969509357833324,-4.448767504674271,-8.371743305805536,0.9124749520098605,-2.3359660272245897,2.396432357475972,0.4116508782892178
-65.74668240517548,-59.18218515277419,76.85999911673572,-113.08201971791486,-61.35230744442117,158.40761811150117,83.81944166551322,-0.402556422322368,-1.8281401016207797,3.00596550229543,-1.7237408312002314,-0.6589476202360958,0.8216358837268338,0.29664833793833334,-4.433429801707275,-8.372311462387346,0.8796030712442897,-2.335610309999648,2.3918396588243844,0.40977752699682946
-65.74657997826796,-59.18249125708968,76.85981828816934,-113.08201924744701,-61.35212758148695,158.40766850117373,83.8194347509876,-0.3922755462461162,-1.8439294027478383,3.0341119188037173,-1.7286806707533642,-0.6579097649605304,0.8216945400046751,0.29865869300472336,-4.42611340411047,-8.42923844178738,0.8535845600767286,-2.3492091410687217,2.387651475145396,0.4125741134133485
-65.74667803832988,-59.18241101967293,76.8600609075546,-113.08206477787175,-61.352445909893326,158.40768107337274,83.81944397030804,-0.43123562517617553,-1.8063811675873311,2.99197630327761,-1.7300631262279276,-0.6607924940884985,0.818619132566273,0.29910178014933997,-4.4204164439401525,-8.35584612665123,0.9512088619376304,-2.324331968528324,2.390721690370474,0.40956795997592244
-65.74677934167806,-59.18218054309073,76.86006032673298,-113.0820192472128,-61.352382517601185,158.4075380359179,83.81914191649072,-0.41847732895186524,-1.8226447196994993,3.00049872984744,-1.7288609789019531,-0.6595414475625802,0.8192923014995724,0.30169046573413205,-4.43974453783459,-8.383347808360575,0.9166479144060574,-2.3402085374837176,2.3974312089361396,0.41391541413007216
-65.74678080681332,-59.182547416502395,76.86004050141702,-113.08226134778414,-61.35212529667969,158.40761811150114,83.81963850693568,-0.4305946698636357,-1.813606581126953,3.0009389715282997,-1.7385145011016725,-0.6583623260950983,0.8192036485735497,0.3005495023433916,-4.438047695741022,-8.382939367601427,0.9372603692200934,-2.332030423998337,2.393287976684216,0.4124061184194237
-65.74656679999303,-59.1824016631529,76.86005578992902,-113.08224055026326,-61.352200625971555,158.40760168458687,83.81961459578291,-0.4093124976050944,-1.8347727201041488,3.028472363107694,-1.7230220247648955,-0.6603063184494203,0.821403234237923,0.2951916880159586,-4.383652029771626,-8.4174965945225,0.9160474834622448,-2.341750563360427,2.382644988499047,0.4081993085470933
-65.74678518584294,-59.18239313688813,76.86005937087126,-113.08215205272754,-61.352220613721755,158.40759493803117,83.81921482515772,-0.3763127630650927,-1.844257469021656,3.0173444278750208,-1.7069563042936498,-0.6591151434260937,0.8230575509178365,0.300576481785068,-4.422732594262731,-8.389455492848606,0.8374166041700146,-2.3489752547364366,2.394217967575713,0.41390925278216395
-65.74666502824775,-59.1824067972838,76.85981658368122,-113.08213582069591,-61.35238545106044,158.40760393286183,83.81934569041802,-0.4253695329861981,-1.8221914476247854,2.9992714846794244,-1.725634651417783,-0.6590246804083931,0.8190403513738624,0.29735426687283667,-4.424193766128052,-8.420947908373883,0.9192065661000974,-2.351693365490412,2.3971368852831096,0.4158823804172713
-65.74677933942557,-59.182278888880234,76.85981424134353,-113.08214296377899,-61.35217717420849,158.4077568401965,83.81963341566912,-0.42014283235472905,-1.8145244439510702,2.9946736790543094,-1.7259014122004277,-0.6588698159724612,0.8189063346211323,0.2947898900589636,-4.432731258749547,-8.370056229512413,0.8872820687656429,-2.339739239548074,2.393712015647934,0.41012532344657243
-65.74677939425213,-59.18261425671028,76.85981880107232,-113.08224055237099,-61.35222061337954,158.40784990017895,83.81926966315204,-0.3912061231699616,-1.823525919836225,2.999023697196995,-1.7049922500015686,-0.6581726504628014,0.821254379375199,0.29707588659479933,-4.427906319499136,-8.406986494859064,0.9411593855259535,-2.345112157282487,2.3979443829055884,0.4131805242402674
-65.7466648596008,-59.18239319317211,76.85990059446723,-113.0820334135308,-61.35225727789995,158.40748862886898,83.81966500919923,-0.42008396269049,-1.8275311375598002,3.0079315155170736,-1.735469435842933,-0.6593612661317453,0.8203803171908425,0.30287333295924246,-4.453373655524,-8.406431057917423,0.9143781561025877,-2.3465280096603545,2.401663994057534,0.41578368359365325
-65.74666486584664,-59.18227916924933,76.85993794527775,-113.0821385811225,-61.352264024447024,158.40758144665918,83.81963342480556,-0.4095687026685882,-1.8329781052979672,3.0104101430794183,-1.720810583448633,-0.6582376187792972,0.8229164432494397,0.3001500290942959,-4.4218192929592,-8.41169602130972,0.885023005132554,-2.347089111920873,2.3951543387040366,0.41271664255555185
-65.74677950185355,-59.18227883194752,76.85981861345772,-113.08191710920266,-61.35226402547519,158.40761811150534,83.81961482379921,-0.4039189105422655,-1.819140483474414,2.991836938967016,-1.711456272277534,-0.6563007340911884,0.8203972540879367,0.298783165694141,-4.449399239483123,-8.38687698946465,0.8903341221362842,-2.3388316852277273,2.3968816848469547,0.41154498734803435
-65.74687794683724,-59.1822786633018,76.86001520233413,-113.08201924721281,-61.35222061371799,158.40764215979024,83.81929819699715,-0.4179909768728795,-1.8289111803730667,3.0196811407447535,-1.7348789677718923,-0.6597894261907744,0.8204887674270276,0.29732911744408413,-4.42153414657442,-8.411856213455671,0.914817354497283,-2.3406292095867767,2.389420753035806,0.41028867236398336
-65.74666492064979,-59.182278663533154,76.86005887757821,-113.08201924721281,-61.352199626584024,158.40750820021083,83.81961614147534,-0.4030640546120427,-1.8280436679220489,3.005238822772237,-1.7249869352181344,-0.6576762406788744,0.8214850315425298,0.3002973537201652,-4.446804491160908,-8.361765387367626,0.9268470598818339,-2.3378148256964253,2.401332026648623,0.4139915752823424
-65.7465662577157,-59.18218054309155,76.86001464156196,-113.08206022696265,-61.35212759074053,158.40759493940206,83.81939825478815,-0.39874553134413543,-1.8368631877838817,3.01928369771337,-1.7163280835205137,-0.659857281889376,0.8224139654344731,0.2968659060925754,-4.40821310498675,-8.385655025348887,0.9203085705777327,-2.3358649146804047,2.3899719030567397,0.4107666752210143
-65.74678374837194,-59.182270195556455,76.86015798805401,-113.08201486448195,-61.35222285347139,158.40757545340153,83.81947595314287,-0.399954823736748,-1.8351846235974607,2.9997286498790183,-1.7115888147755975,-0.6598622124257296,0.8207532164928127,0.2978574256177386,-4.422144666726959,-8.37092263749497,0.8892050779366368,-2.345023530778207,2.3964213872738824,0.4115671727549452
-65.74666502825019,-59.182278665617105,76.8600563479553,-113.08213841039381,-61.35248958485819,158.4075920031996,83.81918659197119,-0.4217975175433447,-1.8160520071019735,2.997188228153528,-1.7282543156746022,-0.6603306879670857,0.8193437763907949,0.2993976490281212,-4.429201898885378,-8.367911728326916,0.927043978302097,-2.3319896345241653,2.393419900736207,0.41092409581814865
-65.74689772937117,-59.18218053684541,76.85992791545526,-113.08214294580051,-61.35215671543877,158.40757470078904,83.81939133924718,-0.43189241514218646,-1.8222689848444382,3.000314036669108,-1.7361187810525924,-0.6614605267860839,0.8179059036007482,0.2991537339426951,-4.43971981851681,-8.392532241673782,0.9426416808825504,-2.3417349165838908,2.3977881443723534,0.4117210074837665
-65.74666492199377,-59.18239319309499,76.86005579204586,-113.08213846825169,-61.352281329599364,158.40749462530735,83.81933284903954,-0.3984029501158388,-1.8395864916035203,3.017074550388871,-1.723931700127867,-0.660026156422721,0.8213541111544174,0.2986811457518593,-4.435691957283537,-8.404271065861955,0.8719790690650624,-2.3485564206436,2.3953051413708373,0.4123830584755142
-65.74665639624317,-59.18239314520767,76.85998545981045,-113.0820199482702,-61.352136727802346,158.40772093320376,83.81929908557589,-0.4235833136390517,-1.8204659650183332,2.9942382900035733,-1.7314623662878288,-0.6574479550429113,0.8187756573916608,0.2984121308607089,-4.439862555335954,-8.370707249836745,0.9210575200435822,-2.335863916951413,2.3944305661430323,0.41172690432489634
-65.7466780202854,-59.18218054517555,76.86001975779293,-113.08213841047096,-61.35222061372221,158.40758145593392,83.81954854702816,-0.3935620781108387,-1.837819245802192,3.023446811440215,-1.7194608379769774,-0.6604303068758901,0.8245852614219079,0.2981739136626674,-4.420075428220617,-8.404415158519232,0.8743123903486304,-2.3440185117187133,2.3935627371805803,0.41129493991835897
-65.74666486852023,-59.182303486264374,76.85982537556478,-113.08201926602834,-61.35226424653737,158.40757694941104,83.81961459648612,-0.4073403764297077,-1.8371752374762411,3.020217034807327,-1.7288143870303114,-0.659400255136101,0.8214985130488637,0.30158696588032746,-4.442459661301172,-8.380857346360923,0.946608503227232,-2.3334759236688773,2.3965108646244633,0.4089156053837429
-65.74670481636359,-59.18239315561801,76.8599417256389,-113.08197978390618,-61.35208113652845,158.4076444080568,83.81933747485081,-0.4030267989995972,-1.8334542156649298,3.01702665248469,-1.7212933334064833,-0.6579524692592117,0.8233490656247104,0.2990428816017426,-4.416405166595792,-8.400629625844985,0.8950522597386684,-2.342783830535921,2.392669903049585,0.4125410256258104
-65.74666633346608,-59.182344461384574,76.86006090765807,-113.08191710734339,-61.35217711971512,158.4078723483992,83.81975779322374,-0.41338804469450097,-1.821569278798992,2.9936789010064593,-1.7201052301848818,-0.6597600939708993,0.8194426274894966,0.3018009623097207,-4.43263432447422,-8.365500292979899,0.9137459133235939,-2.338421776510497,2.397782039383043,0.41373763686978426
-65.74687745963578,-59.18228479079609,76.86005635409894,-113.08215207077215,-61.352088659695816,158.40749233158877,83.81953473520765,-0.41787764717722775,-1.8352023201643408,3.014375616330361,-1.730375687515692,-0.6594467314029399,0.8206513229330251,0.2982762424597978,-4.42763985339348,-8.414480756583124,0.9186498676427934,-2.349105630840186,2.396070068223904,0.41242821011966807
-65.74687746164349,-59.18228321892837,76.86014483369252,-113.08191710737195,-61.352263691330535,158.40757473779266,83.81934795800551,-0.44316778870135265,-1.8176554654686363,3.004085468408172,-1.7434120727335707,-0.6606773148416328,0.8182505676262518,0.29759662257694663,-4.430988377178641,-8.401172911983544,0.9669988772018546,-2.3376135911033984,2.394243783954053,0.4102455922678161
-65.74666503025252,-59.18240177743747,76.86006040079562,-113.08213835626889,-61.352240855432484,158.40763541358183,83.81947587726388,-0.42525199602609537,-1.829565083131346,3.006642126169547,-1.7417129510966676,-0.6606262750891321,0.8190522095235904,0.2967479363669599,-4.460560360500868,-8.371562714960818,0.9191243537176825,-2.339181283288974,2.4013855208345376,0.41065504545401854
-65.74677933942557,-59.18235215574443,76.85972044142696,-113.0820989471043,-61.35217720299743,158.40761811162807,83.81966105159131,-0.4108902542090012,-1.8381415002792203,3.0085803550285704,-1.7249337465307089,-0.6606558236195655,0.8204482016518495,0.2996050993257259,-4.439220895851013,-8.404887769211454,0.9033719293974443,-2.3526820427618422,2.4011420681504316,0.41367047948740837
-65.74666486593223,-59.182393136888024,76.8600608886913,-113.08201924664732,-61.35221836510026,158.40767882532197,83.81948798712494,-0.40991519248514907,-1.8324091354651975,3.009707528567601,-1.7243148649434066,-0.6604887674143141,0.8222275650186807,0.2999513160152049,-4.389696345781435,-8.375047089446117,0.9092471310589905,-2.3339133473741436,2.385750731072993,0.409605963658334
-65.74677999113233,-59.18227871974778,76.85993796425332,-113.08202007716069,-61.35237041415025,158.40757470111907,83.81947816172655,-0.3858978975956913,-1.8366265252913945,3.0143676651282196,-1.7131030165495618,-0.6601972815810185,0.8221929533319234,0.2981243964164278,-4.464874273958255,-8.342796293918154,0.9518917779346109,-2.3310094447810474,2.402240896131883,0.41040162573179345
-65.74687747768272,-59.182434118865864,76.85994174160135,-113.0819580823893,-61.35217720299318,158.4076203601231,83.8193905907223,-0.4043220449876634,-1.8279127561008366,3.0028018897208835,-1.7134147386547698,-0.6599231050881166,0.8211455456623421,0.2969649260540486,-4.440782100210764,-8.402439693796941,0.8652194280447174,-2.3464026331610777,2.397241931271761,0.4132090674685873
-65.74679249394649,-59.182401612980684,76.85981829444123,-113.08224056900174,-61.35222735958807,158.4076677330118,83.81972023676883,-0.3910414844172025,-1.8369127752892822,3.0124727309662025,-1.7134915706428353,-0.6605555166657039,0.8217157053286227,0.294193764105136,-4.460156537639831,-8.34787126440015,0.9590974017914407,-2.3256765098154646,2.398815039321436,0.40850984206792035
-65.7467043292447,-59.182278663300885,76.86005582951921,-113.0819176093478,-61.352127590727804,158.40767890757607,83.81961434557202,-0.417078148063188,-1.8332015102817716,3.016346903904278,-1.7340100919121435,-0.6592773181347841,0.8216572170802141,0.29420768489688875,-4.427048340296772,-8.406457386728643,0.910273310846066,-2.342045943495654,2.3915574720292336,0.40865608546914267
-65.74666504696057,-59.18227866569136,76.85994123783443,-113.08224212501833,-61.35222061338231,158.4075747008906,83.81956893608535,-0.41923835882881433,-1.8320485935979962,3.009291629530635,-1.7227590953624548,-0.6601056956672895,0.8201943229221936,0.30001690948867005,-4.421515330381885,-8.381085780394878,0.9127584259023971,-2.336452416575446,2.3916841784521465,0.40969943436044876
-65.74687751384354,-59.182221692949724,76.86004064482198,-113.08214269864939,-61.35217046642331,158.40757469460775,83.81969756772001,-0.41679271803438817,-1.833924812558372,3.0202647676699055,-1.7252853123156016,-0.6598871878319277,0.8216669081823803,0.29871984174790966,-4.449934378606754,-8.392834265753644,0.9234879954251027,-2.3402023660859816,2.397266597500548,0.4106750394354402
-65.74666486584603,-59.18218054309094,76.86005634795562,-113.08201924744446,-61.352426674768,158.40761844532847,83.81931738710735,-0.41954100131425526,-1.8232597349557522,3.009058427082906,-1.732331568590861,-0.6604134614622134,0.82091054063679,0.29644180865119757,-4.427545009714914,-8.38020372171411,0.9267736837518689,-2.3386797961584422,2.394427235698851,0.4116927593305268
-65.74666632675712,-59.18230348742104,76.8597986234415,-113.08200609277442,-61.35230743517464,158.4077576760899,83.819598061643,-0.40599210224543547,-1.831217117193704,3.0219198213037397,-1.7224987299968235,-0.6602685645576688,0.8231965153590919,0.2987594291842846,-4.464711148134633,-8.367863266708662,0.8735903151834833,-2.335898077341214,2.397247137779003,0.4121326849955645
-65.74677950182318,-59.18249277514119,76.85994157506337,-113.0821384103719,-61.3520668779479,158.40761819491053,83.81984495408679,-0.4069753921238204,-1.8277617342548602,3.014812258545753,-1.7240014531773524,-0.6598350321544827,0.820350772246547,0.2971805551545083,-4.409946529182116,-8.389568225289992,0.8982605096143723,-2.3365037483732993,2.386305948110201,0.40947754640302386
-65.74677933964834,-59.18218055982419,76.85994173812269,-113.08213819385982,-61.35222061372207,158.40775684989435,83.81968382592089,-0.415068152662014,-1.828131468093374,3.0073558399865212,-1.7204781626292796,-0.6582246521001331,0.8216278533045233,0.29545570657008985,-4.400890659072176,-8.384139041375908,0.925721955146808,-2.337764503330253,2.3890789126059255,0.4091940041467952
-65.74670451162048,-59.182283780997864,76.85983960453079,-113.08213858114821,-61.35217720299743,158.40761811165348,83.81950190052483,-0.42415352285029084,-1.8368931951156848,3.0203084448445705,-1.7365169002746763,-0.6612299839289965,0.8212371651333736,0.29862295840200787,-4.433585179127657,-8.43369519354479,0.9315083948458683,-2.3531063864539017,2.399529180734623,0.4127477400343636
-65.74677934209973,-59.182362143733485,76.85993719101212,-113.08213841047092,-61.35222061372221,158.4078002529636,83.81954954454726,-0.4249143236757847,-1.831307841406426,3.021986600839965,-1.7404760173660228,-0.6592215068636315,0.8180004629488632,0.3025172395681373,-4.432401780979237,-8.436475531249954,0.9254544677619229,-2.3504448017884574,2.3936172034316847,0.4153525489751735
-65.74678325601536,-59.18228034976732,76.85983959833602,-113.08213891633375,-61.35203847534712,158.40757478440136,83.81929807072565,-0.4240369155388762,-1.8267805442509237,3.0208015035780678,-1.7337753862789897,-0.6618853693257643,0.8199628677558221,0.29771080446753273,-4.408734980022551,-8.416927810336116,0.9376965073177002,-2.3409933457571026,2.389225176507202,0.4098380719188204
-65.74686381105577,-59.182394661032106,76.86003858630484,-113.08201925324478,-61.35203772576562,158.40771418110538,83.81961460491652,-0.39337666029019774,-1.8297028284642498,3.0109704748673205,-1.708156221089982,-0.6578977269785707,0.8207871998313275,0.2986811525066034,-4.389397698439948,-8.37292968675735,0.883975355991361,-2.336111035295239,2.383581104389825,0.41087037194249243
-65.7465667456377,-59.18225134254418,76.85978040963758,-113.08213828594204,-61.352287197536185,158.40763541391217,83.81938434620014,-0.3879085022088415,-1.8431359626560342,3.025942182936088,-1.7151209785395882,-0.6587434986043628,0.8242850301478454,0.29957836941664534,-4.414549902124105,-8.41171013587931,0.8650469757884109,-2.3490538417206803,2.392968769461987,0.41328725634177604
-65.74666502824745,-59.182393161865086,76.8601630475021,-113.08201925346756,-61.35226402444295,158.40759275242763,83.81955057251005,-0.3884086438221554,-1.8268672699239186,3.010985786715749,-1.705644429793792,-0.6609759468202395,0.8214670191674751,0.3004790629062201,-4.395011313321899,-8.366809187819179,0.8766899963453301,-2.334251977845328,2.3865559014498485,0.4110785878946196
-65.7466663337631,-59.182394829832944,76.85970299455516,-113.08201926618563,-61.352220613722224,158.40757495062323,83.81957221856395,-0.4291689996518985,-1.8281423538523534,3.011451980149338,-1.7362165042284352,-0.659728392741412,0.8201920150708055,0.29163042521564925,-4.414471680744969,-8.399749208009226,0.9392460441400733,-2.3379478671488867,2.3881769377423265,0.4060540666547323
-65.74677939358381,-59.182491257175464,76.85989469136908,-113.082102719283,-61.35222061337947,158.40758369629248,83.81961536371077,-0.41296680784541834,-1.8274410665924206,3.017241398377971,-1.7282400884210047,-0.658883120274863,0.820507502596938,0.2984237263707952,-4.410749910890969,-8.382247629533166,0.8524922331199074,-2.342142375606652,2.3890734629969104,0.41203603875553185
-65.74689967817687,-59.18240679728636,76.86006090138936,-113.08201925346852,-61.352222859254944,158.407514071266,83.81937429430079,-0.40219756908428467,-1.8334831676399492,3.022258217583734,-1.7248956759309158,-0.6588984446108964,0.8205476692477791,0.30195181878996097,-4.419369951774949,-8.413003403879433,0.8869988661492177,-2.345445725307114,2.3904390660546277,0.41429179851332487
-65.74681829680084,-59.18239313687945,76.86013769053432,-113.0821388982731,-61.35217720299728,158.40753356654858,83.81934589169704,-0.4353618554150854,-1.819082743690457,3.005429384048681,-1.742858310771647,-0.6611253969597547,0.8192444087442218,0.2956478457914869,-4.424059202922908,-8.414279879865653,0.9429919790348306,-2.3433485214008436,2.3928266440703236,0.40902761071789506
-65.74670440200848,-59.18251658630262,76.86006090763522,-113.0822405502719,-61.35215915241727,158.40763834875736,83.81957127323265,-0.39522039034928,-1.8285493088068168,3.013021829885012,-1.7052891069124545,-0.657675142986029,0.8216443337487334,0.29972819427094943,-4.393600700809586,-8.38819205732815,0.8884233295287263,-2.335419849203819,2.3836039576913484,0.4111230122945173
-65.74687892191676,-59.18223524082239,76.8597166049891,-113.0821384104195,-61.35219063920883,158.40753131782506,83.8194373119058,-0.38866299597251425,-1.832025074023719,3.0195377113723443,-1.7212171957430424,-0.6577418862051003,0.8207556314609802,0.2949482318925404,-4.385350683020896,-8.436998891017488,0.8571030864884539,-2.3541005569770324,2.386466098853319,0.4113786696463377
-65.74697705951952,-59.18227866957241,76.85993666608515,-113.0820603976885,-61.35217944236579,158.40759493837547,83.81967682616113,-0.4025494467805049,-1.8335972794018347,3.017328140612245,-1.7235676740081878,-0.6596268900880888,0.8202746206069762,0.29803212961787523,-4.390108589517833,-8.38010638616827,0.9113152121079746,-2.3264575717931426,2.3811526651529746,0.4104416983558627
-65.74656674563676,-59.182305250923626,76.85983954631321,-113.08201926595133,-61.35220136939346,158.40757495096594,83.81928722533773,-0.42957816008826694,-1.8068554364707277,2.997809265949023,-1.7305454331883063,-0.6606203979739008,0.8192818646987188,0.3000174641690464,-4.410692838656819,-8.376855975389617,0.902209561657775,-2.3284832502729556,2.3838571387954985,0.4077429156669906
-65.74667119946638,-59.18243463228275,76.86012206639278,-113.08212215638515,-61.35234410307721,158.40757470077634,83.81957118576068,-0.3854728430424055,-1.8267768842912242,3.0085984040626723,-1.7092220834419198,-0.6582291270395118,0.8237150390679995,0.29650151847990236,-4.441532642011995,-8.350117383296075,0.853711569386335,-2.3303545981232845,2.393456047530439,0.4125050587529194
-65.74666632747609,-59.1822923236792,76.86014938715232,-113.08191862585754,-61.35226327764833,158.40759493871667,83.81964218953819,-0.41988061421619377,-1.816096026330646,3.001770895909884,-1.7305108891074024,-0.6599849679353077,0.8188527964852597,0.2989031698493044,-4.44978662266959,-8.410526339460258,0.9226433467904351,-2.3409684583357393,2.3969908506080846,0.411479815057428
-65.74689778558388,-59.18239313687975,76.86001986953923,-113.08213992821362,-61.352243786849485,158.40761820403708,83.81929602334317,-0.40872990461289005,-1.8368543756982298,3.012192107158147,-1.7270845309959126,-0.65942910852445,0.8218322812406438,0.29848700857588994,-4.422976625635161,-8.38505273399248,0.9091632469120855,-2.33899956948883,2.3947950081358855,0.41103013687475565
-65.74666486592488,-59.18227883195612,76.86006090141497,-113.08224056835823,-61.35217719887201,158.40764584554603,83.81959729408796,-0.4063149180112505,-1.8231042420202133,2.995669907570306,-1.7105250676938633,-0.6592961554317719,0.8207565842642315,0.29869165468944187,-4.425891961777765,-8.385245158031008,0.875749878517341,-2.3381799055672303,2.391668919894179,0.41197323995046414
-65.74677934544044,-59.18241090101859,76.86006083201305,-113.08218090934896,-61.35226177617203,158.40757470089062,83.81930037160885,-0.41035815117721425,-1.822961557044027,3.002738540124961,-1.723149026665405,-0.6593137626909062,0.8194244671329886,0.2937774709934306,-4.411727422130613,-8.362074039535354,0.9007090674734639,-2.3296409355271797,2.384339480338218,0.4064806919262289
-65.74677933950012,-59.182398273349236,76.86016304753055,-113.08218468890165,-61.35222061387596,158.40772843757932,83.81951911402079,-0.4155920980034805,-1.824076983521289,3.003543040182711,-1.7301580211716159,-0.6610622002287815,0.819822153279261,0.30010355797267235,-4.44332857389041,-8.38399543638881,0.907322752590767,-2.3394257680660413,2.3972181359021305,0.41222225274372726
-65.74687762404122,-59.18240832202647,76.85983960245161,-113.08224206808347,-61.35224302770827,158.40757498150802,83.81968374695691,-0.4070941266320496,-1.8218691067925503,2.9986457264072994,-1.7139604348501072,-0.6584475693586979,0.8206245332529916,0.30140567238104976,-4.414076198059355,-8.379777277387396,0.9221827530799303,-2.339978213649348,2.39014749902442,0.4108527247218166
-65.74656674563767,-59.182516248931464,76.86006236926455,-113.08213841663999,-61.35222061383647,158.4076384148161,83.81952090883533,-0.402158126786525,-1.8404431854315637,3.0308799602095204,-1.7277673909509335,-0.6567280908517431,0.8221928045559772,0.30034754249994855,-4.415825189502301,-8.432989549535705,0.8859486997763758,-2.349963834167384,2.389626098113416,0.41435530735105863
-65.74677934009387,-59.18220994681291,76.86014769837246,-113.08217787648509,-61.35212542538818,158.40764509496452,83.8196145923471,-0.395929586489555,-1.8324911328451665,3.0085399874287795,-1.7101162679724373,-0.658205954697869,0.8207809384726538,0.30095691097819366,-4.405608806452893,-8.38102344873185,0.886787412820332,-2.3426874655401564,2.3906638881905784,0.4135493750515678
-65.7468776220362,-59.18243414531287,76.86006090141476,-113.08212216262827,-61.352128304553,158.40763641307092,83.81927807969622,-0.39156506985306166,-1.8358664168476395,3.013746739946401,-1.7225347271896552,-0.6585110281216943,0.8224709113894363,0.2960956395517535,-4.437080508330602,-8.3820560781703,0.8514829585920203,-2.3394875456421778,2.3910521577003805,0.409889384998311
-65.7465662577413,-59.18239769034176,76.86016302670998,-113.08201924744417,-61.352116487120696,158.4076789075718,83.81967682502021,-0.39914614199744075,-1.8504586437227921,3.035687473138526,-1.722046278549298,-0.6592491097564971,0.8231228204335163,0.2981633862638457,-4.405751059752032,-8.446021615708023,0.8899767264017874,-2.3583261524186923,2.3924447290953323,0.41306047406946833
-65.74666632767115,-59.18255723037467,76.86014223705483,-113.08214297033076,-61.3522206137604,158.40777707777994,83.8198012841844,-0.4112176352054857,-1.8314194725054975,3.0214084872127946,-1.7286625077538855,-0.6584836456971804,0.8201706454657872,0.2966957066652747,-4.406269902380993,-8.408472657119969,0.9051909965178182,-2.340265315316911,2.3846850535833894,0.40987779890798814
-65.74677934545143,-59.18240785287895,76.85993790733805,-113.08201924721281,-61.352213784574076,158.40757545031715,83.81961459269837,-0.4139900054508259,-1.8137875388007927,2.993006157117224,-1.7312232417302547,-0.6601799526222463,0.8192731129121981,0.2989739568204944,-4.452794291894194,-8.35046129015246,0.8938995357316352,-2.3270158096103843,2.3938710153457428,0.4102338764567639
-65.74681901994315,-59.182280262407964,76.85983952942529,-113.08213840972456,-61.35209918710879,158.40769545779028,83.81936856204358,-0.3981790759828671,-1.8356291916387908,3.0222359961880163,-1.7234422258052657,-0.6600908269027718,0.8211111850995697,0.3005139855738006,-4.422814405483056,-8.408961845504685,0.8772277321127173,-2.3455003449561818,2.3913376814914598,0.4129794064034069
-65.74678080102986,-59.182407742530856,76.859941725022,-113.08224073787973,-61.3521772029932,158.40768110068916,83.81952776273681,-0.4040264759856412,-1.8206086972384914,2.9948665181743737,-1.7128801711785104,-0.6578704038941431,0.8200860540243956,0.29929779848689875,-4.41188478012785,-8.349983469725585,0.8986001075356342,-2.3312954196440145,2.389365754270246,0.41127669397106603
-65.74677950249435,-59.18233330504556,76.86016254089385,-113.08214043484757,-61.352264024447024,158.40761811153922,83.81929831729525,-0.3922999628474609,-1.8281837371624035,3.0039881313537595,-1.712304647494493,-0.6580593672329035,0.8209869010134305,0.2985221345402508,-4.409516483478706,-8.387923752989817,0.9118597984857069,-2.3370158745971676,2.389999534745427,0.4120248398297172
-65.74678377837185,-59.18253047771149,76.85982591924778,-113.08213841039391,-61.35220331165439,158.4076421686928,83.81925490659535,-0.39794909092604364,-1.8368297909074598,3.0272361682632813,-1.7247673343574346,-0.6600636048339162,0.8225406569377893,0.29865294500184075,-4.417802126976789,-8.41438797269478,0.8780184795747357,-2.344258996169599,2.3897874589515005,0.411480706879673
-65.74656826137449,-59.182278663557895,76.85994174448024,-113.08206021027887,-61.352307460914304,158.40757470077634,83.81957810870418,-0.40217244611852265,-1.8226985736033223,3.014914258963073,-1.7209289987560386,-0.6602723261190122,0.8203574280907249,0.2964912204052204,-4.39983149417891,-8.375387699706144,0.8903858684780921,-2.328800980009839,2.3810825823777,0.4076537108926143
-65.74678080110588,-59.182319719698384,76.86001925193868,-113.082138410392,-61.35217644408895,158.40761819821068,83.81929828644867,-0.38973440565551726,-1.8385873763396492,3.0316213393844924,-1.7246162631509834,-0.6585844176847355,0.8198235585331901,0.29749438830039243,-4.4100485381166035,-8.411910770646221,0.8506918532377844,-2.3418125120871167,2.3802119965889728,0.41018781238953805
-65.74677934544043,-59.18212542777519,76.85994121980177,-113.08235927750214,-61.35236008167411,158.4075750350522,83.81947893000427,-0.3975623021603034,-1.8279285502746132,3.0094075791606576,-1.720351575643403,-0.6586471577687807,0.8210346052098861,0.29760191265730923,-4.422322467676342,-8.372774941447704,0.8725701080689134,-2.3344937192517525,2.3878556756358527,0.41009089565433493
-65.74677782360314,-59.18249581078088,76.85994174424023,-113.08224105620319,-61.35222061370811,158.40775684227728,83.81952879836724,-0.4089138960232581,-1.8283192147079812,3.016848810032334,-1.7226315488081128,-0.6591594562565616,0.8200673482488795,0.29955461444466136,-4.403033612022948,-8.399531633540734,0.9086945776488441,-2.339798221477704,2.386846005714537,0.41169728212782536
-65.74666486807469,-59.182182230251115,76.8598396046108,-113.08201924721281,-61.352177953452006,158.40757470077776,83.81975213887469,-0.4094579858429985,-1.8276956836997738,3.0230620798032666,-1.7323027522403571,-0.6602225532839485,0.8206020519341063,0.29821585279541113,-4.419050333640469,-8.407297340142712,0.8962901267871406,-2.33745984211693,2.3865388774358003,0.4101897454578575
-65.74682340431305,-59.18239769064766,76.86005635420179,-113.08204709264794,-61.3522408604591,158.40753132740883,83.81947815868007,-0.42194185437133513,-1.8274204578025748,3.01877065838437,-1.7367586272268467,-0.6603157669022823,0.8207098600451539,0.3018211481449016,-4.433106960394464,-8.42165143673108,0.9255819551703305,-2.3450550417416665,2.3961302150456762,0.4141516622451303
-65.74666436057535,-59.18232033799337,76.859839429718,-113.08201924744405,-61.35217720300166,158.40761812086896,83.81939526927196,-0.39120072340227885,-1.8328722077054986,3.017882199005232,-1.7143516447305769,-0.6592713584414266,0.8221676054199706,0.2997959228724105,-4.40875867651438,-8.38867462887829,0.8715285832070063,-2.3398067367034585,2.3883924607423026,0.4119391923246427
-65.74689722343123,-59.182783321833824,76.86006083270708,-113.08202380069797,-61.35215990092959,158.40753829537346,83.81952774623382,-0.431742521250348,-1.8204374003957884,3.0021713428301786,-1.7407205546725038,-0.6602774979985395,0.8182346664215069,0.2977303968938958,-4.443971138454188,-8.390526602313932,0.9341509239428918,-2.337551170297075,2.394811207892975,0.4105132980669197
-65.74677933947412,-59.18233330481519,76.8601493850698,-113.08236349367115,-61.35212750437235,158.40775909706926,83.81938904632894,-0.3933544209749906,-1.8390765213001288,3.019451166242047,-1.7209220290943472,-0.6594371672249141,0.8212951391422574,0.302143388997397,-4.41473360410212,-8.396413943917636,0.9194624665600726,-2.3400701749138335,2.3874657438105817,0.4110658423250218
-65.74687892124005,-59.182449296299275,76.85990070642423,-113.0822272334501,-61.35221986416417,158.40759500138807,83.81957803242604,-0.4208524714368683,-1.8253188397426654,3.0203252991424003,-1.7357160300985197,-0.6604723613949173,0.818572185406561,0.2994669364732609,-4.414876824121555,-8.393358997663833,0.8902086305976478,-2.346299417938318,2.391466126527494,0.4108507620000329
-65.74678080103075,-59.1823931452081,76.86016302254502,-113.08201975361575,-61.35218013852713,158.40763834909916,83.81939751613744,-0.38708179711970986,-1.837805922714129,3.0329359642005613,-1.7141327261498687,-0.6582913819315729,0.8236460818891019,0.3008931856967956,-4.431510731584297,-8.38073865414253,0.9088037644247545,-2.3347537936817737,2.3918268680047508,0.40975365405721154
-65.74677934544039,-59.182550454376944,76.86016287263774,-113.08213841062525,-61.352264021362494,158.40757470081442,83.81948507623711,-0.3899655745489468,-1.8345905896835575,3.0205189234697367,-1.7239281958987978,-0.6590892008345167,0.8221635927357799,0.29908196567132594,-4.410419881944538,-8.354069346357079,0.8826413222032392,-2.3256501537763064,2.385276794031926,0.4093801346437668
-65.74666486659046,-59.182506429144475,76.85994174424795,-113.08213891633403,-61.35226410772931,158.40757545065975,83.81919420326132,-0.42866101108038657,-1.822455685709121,3.004587135468506,-1.7380604593349571,-0.6609125247263112,0.8180067060330054,0.2975234656231931,-4.42729648807503,-8.342944388415079,0.865767777240587,-2.327005200832959,2.389414088383343,0.41053994015787093
-65.74687745960738,-59.182447204690426,76.86006090758318,-113.08246185331366,-61.35217720299743,158.4077568402346,83.81961519934485,-0.41949647809254315,-1.824553100113508,3.0018017073488483,-1.7356689613625427,-0.6591762279288297,0.8193150467375317,0.29746439620351156,-4.435752397176483,-8.361201559133615,0.8616486745612055,-2.333699669031678,2.3898344394472666,0.4115762152831885
-65.74666649052003,-59.18243480163473,76.8600608882287,-113.08202082127676,-61.35221986406733,158.40762569328732,83.81962150990601,-0.40487355848578205,-1.8272297557570016,2.9996875548164375,-1.720058509552432,-0.6592076181225937,0.8192330698215503,0.2993535397989222,-4.415310656685175,-8.384265012805097,0.8856698854734703,-2.3462815685075893,2.3953751736095272,0.4144407398377804
-65.74667850949204,-59.182280387578516,76.85994173822549,-113.08232419899882,-61.3522042265597,158.40768821154518,83.81939059182777,-0.4241323350090503,-1.8107260110871595,2.9904808967347267,-1.7281780206532142,-0.6574809621072695,0.8201653976902648,0.29474685485245267,-4.4249658521601125,-8.389687896888411,0.9196635276009669,-2.341441620548428,2.3936529999635336,0.41203101626728983
-65.74666502824745,-59.182180600235455,76.86006090765267,-113.0820193036597,-61.352081885003024,158.40780724549026,83.8194535616344,-0.4095928167486818,-1.8297788017033438,3.020137512070209,-1.7263520512361274,-0.6583490006920717,0.8218410081485097,0.3011952394993768,-4.410529562196537,-8.380017066439585,0.9451855122291901,-2.331271773399568,2.3882089454629005,0.4102935243520694
-65.74693719939438,-59.1826143902277,76.86016302879214,-113.08213841247682,-61.35218393960969,158.40757470077634,83.81970448397982,-0.4220266902420158,-1.8060750952214926,2.993040325286608,-1.7264913845088536,-0.6606163043525803,0.8200733492126396,0.30158656035084125,-4.409940307521845,-8.36026964595462,0.9497585250473736,-2.324917583788248,2.3870101694192405,0.4099219579606689
-65.74689794620309,-59.18239332635539,76.86006090766124,-113.08213842936466,-61.35222086358179,158.40767883667002,83.81970140797849,-0.42585621274980545,-1.818310615976959,3.011475095305049,-1.731179080656289,-0.6587267834084237,0.8189861729579591,0.3000776679238793,-4.404887894225371,-8.397295087024025,0.9426365526242229,-2.334539497532654,2.3866123237129115,0.41166177289964123
-65.7467793396398,-59.18264828800641,76.85993295899029,-113.08213841039762,-61.352264024447024,158.40757470081584,83.81966485470834,-0.40961240999971255,-1.8195707794722396,2.9963477013706648,-1.7175145044698528,-0.6590188133075152,0.8211264377846011,0.29663910826826134,-4.4135423346251486,-8.352219242271815,0.909021549172352,-2.3291485029581693,2.38973826107334,0.408894950310647
-65.74687745993312,-59.18222614041246,76.85994174448024,-113.082124769448,-61.35226378384105,158.4075769497425,83.81957129856482,-0.4165594997986961,-1.8197664096825463,3.000034853070159,-1.7308638451532505,-0.65992906392905,0.8191518218007345,0.2968562037052155,-4.382818123472881,-8.376413673402775,0.8807306961457851,-2.3341125947755597,2.3812983728925268,0.41169723140789144
-65.74689772937943,-59.18255723009285,76.85993719102079,-113.08201926564605,-61.35230068942005,158.4077568396112,83.81988785796038,-0.4335127042793976,-1.8210043540709928,2.997381716038436,-1.737981116542155,-0.6576307061514715,0.8187832904240201,0.29833357646470754,-4.407127915053295,-8.405880776664501,0.8519523268965524,-2.346410229358043,2.3881624642578547,0.41290370745941785
-65.74656820793442,-59.18233532950823,76.85994022642909,-113.08200659871439,-61.352222850116064,158.40763542282303,83.81934792955072,-0.4014809200953348,-1.831001994656732,3.022177385919369,-1.722290834651675,-0.6575906686996073,0.8235237828704264,0.29889734575882515,-4.397305938057673,-8.375685624097178,0.8838434975973042,-2.334537132393884,2.3884671743606134,0.41169017376994715
-65.74666486576996,-59.18231965347051,76.85994174448024,-113.08209748547402,-61.35223791579005,158.40759502269006,83.81948786085583,-0.4408206337098576,-1.811638074541418,2.9878287384606352,-1.741476372686008,-0.6589377435292715,0.8171728279331801,0.299612304659934,-4.414257508672642,-8.366531707624304,0.8940680283632946,-2.33278624607397,2.388469380938432,0.4110954746713935
-65.74666486651621,-59.182620459193764,76.86006090763554,-113.08230233701595,-61.352264024446875,158.40767882429847,83.81957810814443,-0.4087362203951121,-1.8199107980698779,3.003719666361545,-1.7200046059460323,-0.6573425064828947,0.8201932553281674,0.29658285937603046,-4.437055335781868,-8.382701481331559,0.930464759781463,-2.336794140083451,2.3938040754455088,0.4111991245806329
-65.74677934143875,-59.182407330344454,76.85994028079392,-113.08213841039381,-61.35222068066794,158.40761886104602,83.8196145923861,-0.42803380166384924,-1.8052500260102975,2.984215239074273,-1.7295842774966717,-0.6567203921636495,0.8191814480619263,0.2986957314645681,-4.442634800738227,-8.357776358608232,0.9564470436210649,-2.3295855446847105,2.393824061301273,0.41140650139189633
-65.74678536628862,-59.18253679194405,76.86006085143713,-113.08201892866089,-61.35217720299743,158.40755152764913,83.81934868823406,-0.4088611785058104,-1.8314735838252234,3.0099951455499956,-1.7267085115153584,-0.6580719770800507,0.820677483571795,0.2973148440618539,-4.423029761638865,-8.390158655995084,0.8679802590570238,-2.3442515647560684,2.3902889919110653,0.4102896167610797
-65.74666486584972,-59.182279396956176,76.86004724728289,-113.08213419423622,-61.35221986418173,158.40759425159743,83.81947816172503,-0.4168626990380151,-1.8221078948109017,2.9966809112685957,-1.7283555666472945,-0.6579858086756162,0.82046536103522,0.2990083160647698,-4.441750395238319,-8.370488727212761,0.9098041651856792,-2.3362071303532432,2.3962959941188196,0.41213170282629374
-65.74656838768611,-59.182237208630355,76.86016152971085,-113.08225421133855,-61.352264024447024,158.4076211961453,83.81952774611956,-0.429350437404276,-1.8148572338002986,2.98646103964396,-1.7199942674139415,-0.6582924888570887,0.818012493252276,0.30314150596108436,-4.40432685953956,-8.390809894624947,0.8902186267626905,-2.3417790084144103,2.3891888773783787,0.4087351672333553
-65.74699633745394,-59.18240179434854,76.86006073276832,-113.0822881648334,-61.35222061475181,158.4075516233076,83.81963776852076,-0.4271846616059973,-1.8176220831314618,2.9939392536757374,-1.7291504651940837,-0.6592980337109204,0.8183157852919609,0.2977603962993201,-4.426016592092644,-8.367989918093771,0.9373293755091362,-2.3336981440910547,2.392583825328445,0.41026888964585406
-65.74681880274076,-59.18244463661218,76.86006090766124,-113.08227501417721,-61.35220036683306,158.40761813960478,83.81929857339105,-0.43976265412433696,-1.8211362671636042,3.0018069953711497,-1.736523491782116,-0.6599006710753395,0.8171028105832852,0.29640457853981467,-4.416434228019928,-8.395651400015772,0.9652736739273173,-2.3393574612377246,2.391086421296847,0.4096054676950694
-65.74689935338458,-59.18219574204086,76.85971660699515,-113.08204005097978,-61.352220616794106,158.407642910046,83.81958309425903,-0.3910430359048454,-1.83543797220882,3.0140672991848776,-1.7116429788420062,-0.6566882356324879,0.820654819495921,0.2979263689234251,-4.3997327197928815,-8.38246839116941,0.8695666847156003,-2.3403680732897505,2.3841741670775085,0.41126587355940086
-65.74666493805005,-59.182185602801646,76.86006090766124,-113.08217939183824,-61.352127923882385,158.4076887112559,83.81965876519499,-0.4238733661203147,-1.8262353455749045,2.9992894014899263,-1.7326448022987677,-0.6581768296150531,0.8184912419799417,0.29713454879735723,-4.437582135100363,-8.384173521999644,0.9211639233000312,-2.340800422282094,2.394369822804031,0.41110739975162575
-65.74677933873926,-59.18261186718535,76.85993796425608,-113.08192145042108,-61.352257278580545,158.40754103419445,83.81957348029093,-0.40769386446801975,-1.8366191364492512,3.0079362013639526,-1.7206542288344862,-0.6583458904144484,0.8206361483926758,0.2969896936722388,-4.420814654857795,-8.392576275908946,0.89995394410659,-2.3466821659174384,2.3937982325495906,0.4114817729519411
-65.74679395541861,-59.18212509048222,76.85990125052093,-113.08213857904046,-61.35222061338089,158.4077340032689,83.81935032927701,-0.3916213595289074,-1.8292334041709923,3.0180534880822947,-1.704947535429813,-0.657475689142262,0.8205344543327747,0.29881280222101725,-4.365911699802849,-8.37998875580693,0.8894216717750133,-2.334424798337361,2.3771916514736704,0.41041549907954394
-65.74656822736503,-59.182435642809175,76.85994173823397,-113.08213998679496,-61.352177164954895,158.40757553394204,83.81953007913272,-0.41081347656527595,-1.8164973212944708,2.9970666963238917,-1.7187045261027778,-0.6576330554901241,0.8203504678008627,0.3028198191965912,-4.419471059455012,-8.362146390920094,0.9126626047678726,-2.3320431722457946,2.3924170078053395,0.4140883109274535
-65.74709396981652,-59.18249650411826,76.86006085141713,-113.08196662953642,-61.35223791579429,158.4078175797203,83.81947816172557,-0.43441574099350366,-1.8230994951708208,3.002420363582082,-1.7349005726220215,-0.6615401311343679,0.8182552373483867,0.29755566215448925,-4.426957871898068,-8.396022153212712,0.9540806074593833,-2.341573084029935,2.3956971441794472,0.4104174724137357
-65.74678326247587,-59.18253223830224,76.86016304753065,-113.08217944797667,-61.35221986418116,158.40757495062311,83.81934792854007,-0.42564029327606623,-1.8273078461608783,3.013825296793867,-1.7378379260626484,-0.6598321073697551,0.8191182274558955,0.29883779001323113,-4.43096792600707,-8.412420428086747,0.9283804062597776,-2.3433038510755932,2.393136228746542,0.4118686156239299
-65.74677935747005,-59.18238847733345,76.86025987030925,-113.0819129476241,-61.352264024448424,158.4076579090422,83.81979684498681,-0.3953770991376795,-1.8313982544205638,3.0101352044622676,-1.7155140692291853,-0.6577939377245353,0.8205222739032203,0.29581615290892793,-4.406489372336155,-8.372097618400263,0.8732279465126578,-2.33560955311326,2.384036039599895,0.40896170994201153
-65.74677934766842,-59.18245625040415,76.86006090766124,-113.08215207077215,-61.35222058596144,158.40758144702738,83.81959080359098,-0.42675404320200655,-1.8234545919931278,3.0006795696459476,-1.7345259138897373,-0.6575684773974706,0.8190362462649522,0.2978019000975663,-4.435239926074182,-8.386833094544572,0.928815547665251,-2.3388907907704755,2.393784100387192,0.41153534613560094
-65.74666486592122,-59.18230822965369,76.86005635420206,-113.08201924721281,-61.35222286131176,158.40769908965214,83.8198861161892,-0.41905079308038157,-1.8200224484420473,3.0052946548464816,-1.7217651779700391,-0.6596476175929096,0.8207709568034472,0.2937779833738845,-4.391345165356161,-8.370304906821836,0.9351337289670967,-2.328760587046501,2.3839078645697276,0.406234468180228
-65.74679273515032,-59.18245283848659,76.85994171949555,-113.08213992829072,-61.352221363262885,158.40772843658877,83.81939751508341,-0.4165818200421665,-1.8286778956264211,3.003954406420949,-1.7206234738017914,-0.660306676190352,0.8185357159247885,0.29798638345584116,-4.40863003662216,-8.386075452917524,0.9258050599275559,-2.3425514709390693,2.3914605060679013,0.41086583814146777
-65.746890616082,-59.18230354296861,76.8598396046108,-113.08201975971028,-61.35230743512104,158.40761811458574,83.81972214115514,-0.3998154182954272,-1.8461743594545659,3.0212719556812404,-1.712033266035116,-0.6573063792676508,0.8217896748571637,0.2980829231194891,-4.40080440449278,-8.403002211033154,0.8369844574197852,-2.3476833007441273,2.386868721061588,0.4125768913368325
-65.7467968789026,-59.18212494266756,76.86016152323333,-113.08201924723852,-61.35212758045861,158.40775684840787,83.8196145955487,-0.39535940144664394,-1.850467429012393,3.0415419332301865,-1.7284859096630534,-0.6607094268757205,0.8229079843593045,0.2954014911913943,-4.405177686735411,-8.39913233917799,0.8952063941203989,-2.3437696475864636,2.386027075490396,0.4099022115219265
-65.74687794686564,-59.182408203392235,76.86026057703108,-113.08202430662108,-61.351945205943025,158.40764759343335,83.81953692622558,-0.4202528151180052,-1.8235474042442472,3.0084020223414867,-1.730136486391077,-0.6591010386477052,0.8176767177093569,0.29500736053073284,-4.4676522831495316,-8.418783326322357,0.9038121606968066,-2.3443472635467932,2.3986105653225986,0.4131762722035384
-65.74682075355416,-59.18240685371424,76.86014224399584,-113.08201930350538,-61.352177452844316,158.4075312931361,83.81961243252482,-0.3974024666816581,-1.8339110683190516,3.0191340181296122,-1.7102396378783447,-0.658926681651905,0.8226044703461259,0.2990265392534807,-4.423818624561624,-8.393840564230644,0.9498925644857396,-2.3371343202492296,2.393179053660347,0.40994905329861653
-65.74658377894784,-59.1824478436682,76.86016302879214,-113.08214315340044,-61.35222294562647,158.4077635850201,83.81968015525378,-0.4236431410601856,-1.819509274006557,2.9985631927316394,-1.7262372782540838,-0.6595756828631044,0.8176848862952464,0.29634871328089246,-4.423600212340025,-8.395456175804831,0.9064969600625343,-2.341334991284739,2.392376551316598,0.4112052743818091
-65.74688200684908,-59.18255762450136,76.86006090763554,-113.08218439682045,-61.352307435133724,158.40767882532197,83.81939134026287,-0.42672706133282584,-1.8233135982708513,3.0025792044667527,-1.7362362995541198,-0.6590825283534497,0.8184777939480012,0.2993000079107673,-4.417725156460423,-8.378416085028856,0.8607436255700114,-2.338144551593712,2.3870657705037934,0.4100274781222747
-65.74687762203637,-59.182398203228566,76.8599417442489,-113.08213694701593,-61.35217736864795,158.40775708911957,83.81966500619124,-0.4345623949619328,-1.8239205706681365,2.9992490904715856,-1.7366317110696536,-0.6603848974478538,0.8192158836834706,0.2979895733143229,-4.415810787898998,-8.36054884972338,0.8810622843100214,-2.3311971048938456,2.3858152805738553,0.4107879959129911
-65.7467847354385,-59.18233804798124,76.85994174448024,-113.08192166081139,-61.352220613756536,158.4078009994197,83.81929627932604,-0.3937613455478127,-1.8216798462224735,3.006362448920917,-1.7145980603227222,-0.6605743249532574,0.8198162496412779,0.2980574319468262,-4.41044469248026,-8.413243113927589,0.9085604587386196,-2.3428092364866075,2.3886450138508337,0.4110726357290965
-65.74666925066069,-59.182557137067946,76.85983954836924,-113.08226135380204,-61.35226401507914,158.4075312903985,83.8196811792838,-0.44557002506950727,-1.8263975043143328,3.010523182473556,-1.75417583797355,-0.6597193152064267,0.8171689937004096,0.2929971359962538,-4.444790993358463,-8.418375808428182,0.952073171957226,-2.342344669968511,2.3920120136496115,0.40777862706962764
-65.74666941308779,-59.182292499497805,76.8599280958999,-113.08212266625887,-61.3522648295092,158.4078002498792,83.81957144091648,-0.39236973971188505,-1.828244460785192,3.0050289568190074,-1.7031494071137214,-0.6580922121082693,0.8217268801361757,0.29534567377649346,-4.381021345132273,-8.354091460926714,0.886797482469156,-2.331343370105631,2.3821614589925266,0.40792174082337734
-65.74703531289661,-59.18245438271688,76.86006088892242,-113.08224107494455,-61.352489573549676,158.40763549697039,83.81966492454315,-0.4225870768280551,-1.8275093954422992,3.0109233943906197,-1.7326239862900112,-0.6587436602765889,0.8180477976180415,0.30059258685489215,-4.424344749097185,-8.407697155795939,0.9259483980407417,-2.3444956162638215,2.392082104628283,0.41345787867949296
-65.7466062109572,-59.18240368761038,76.86006085144474,-113.08202386337716,-61.352218365443,158.4076249533345,83.81953467924092,-0.399843823713742,-1.8372308933429389,3.018647567994225,-1.7175527158665,-0.6585038111070096,0.8218893487642249,0.29552933765777667,-4.400382616557747,-8.397229054101553,0.889563143903535,-2.3424823507251813,2.3865777823484726,0.40943049301278295
-65.74697723924572,-59.18252974902666,76.86006090766124,-113.08228153165255,-61.35222286308039,158.40757728252748,83.81954849924799,-0.4110770616406475,-1.82075244735282,2.9982841478404696,-1.7224653940586507,-0.6594540824095347,0.8194096828296655,0.2960902822153413,-4.420117447657754,-8.3577149790557,0.9027442808537084,-2.330283798589342,2.388154273155558,0.40837265576235293
-65.74689920902361,-59.18241136948435,76.86016302879214,-113.08224071891846,-61.35212685045345,158.40753129428006,83.81925499193336,-0.43478823854539794,-1.8176864263595642,2.999791658020568,-1.7368239972881934,-0.6594772002120624,0.8163485590037456,0.2931654962665004,-4.414567065050914,-8.376232228442818,0.9459829437895027,-2.3306969804050635,2.384201153355334,0.4061234592686507
-65.74666492599532,-59.18242185150366,76.86017620196903,-113.0823733780639,-61.35226402341884,158.40749462865793,83.81952103093508,-0.4180699154932602,-1.8343618604347653,3.0234187352105892,-1.7345569997372245,-0.6597855321168855,0.8212613795238624,0.2965378399545848,-4.419398099498185,-8.42367696828706,0.9176406991044651,-2.345544874843985,2.3910155075455326,0.41037915727216384
-65.74677982663525,-59.18227868921475,76.86006090765838,-113.08213403461181,-61.35216214955202,158.40757495376013,83.8193915991918,-0.40599036746060674,-1.8331730502698018,3.011389726719743,-1.7295441481547449,-0.6593806349934499,0.8209541180115971,0.29937635909030375,-4.446768855126655,-8.397120196948105,0.8819227832426796,-2.344683516770369,2.3967134486274158,0.4128087394872467
-65.74678471940184,-59.18240673098741,76.86006090832956,-113.0822406064785,-61.35222061372237,158.4075814501837,83.81943937191753,-0.39412210793176256,-1.8349809964999215,3.0176173016641634,-1.712471118640635,-0.6581432006028477,0.8209171897763051,0.2966497768060607,-4.391009254116743,-8.387619905743186,0.880520356820874,-2.339497388174031,2.382748505610273,0.4096945938873712
-65.7466648665153,-59.18239977135105,76.85994173823407,-113.08213841039667,-61.35222061384493,158.40767524693803,83.81955618753301,-0.3921762723250325,-1.831835721682673,3.0123216491250697,-1.7053168335164197,-0.6576808895215628,0.8225815467107418,0.2984207341570005,-4.385092208683988,-8.375996327241907,0.8882159493516744,-2.3376442787153207,2.385527191206365,0.41107502173154414
-65.74656723283908,-59.18232436687912,76.8598396046108,-113.082138597779,-61.35224085135377,158.40771667678587,83.81960759960339,-0.40735891123712015,-1.8211525412305036,3.0047173094093558,-1.7175807052974683,-0.6572314799300626,0.8206149789712399,0.2929948661624404,-4.389931402371613,-8.356741360122932,0.9043659686290277,-2.3250780932769692,2.3788581452144797,0.40575323542473657
-65.74698873695772,-59.18266544023009,76.8599415563925,-113.08224055088299,-61.352382514513515,158.40753129005154,83.81959195671206,-0.40647415480051025,-1.8526836147904067,3.036096649441973,-1.7276645501907293,-0.6594166704454484,0.8222260002774522,0.2969194801352705,-4.383831223702784,-8.386766918652059,0.9272303440098303,-2.3368458497797184,2.382300283960331,0.409094502282122
-65.7467793414342,-59.182335574566494,76.85994222543549,-113.08201924613324,-61.352177204025594,158.40763767190288,83.81954073368071,-0.41124172574389484,-1.8158829789601931,3.0035765008330753,-1.7156996484430855,-0.6581895778601992,0.820413297509835,0.2983420498992329,-4.387559794525814,-8.361483455263828,0.9231460930507827,-2.326347983358262,2.3826790399529907,0.4094856136105923
-65.74677933941713,-59.18220100772227,76.85993796425608,-113.08224011905459,-61.35217045724582,158.4077590878923,83.81961690025229,-0.41346452496371316,-1.8287666431684575,3.002009967641283,-1.7227782751179177,-0.658599750356138,0.8198968317202386,0.2954672126386738,-4.418332577062805,-8.37604687718524,0.910298507424218,-2.338690812826879,2.3907650504391214,0.4093037615554421
-65.74666535304743,-59.182412887592704,76.86006090766125,-113.08224056903602,-61.35226402443291,158.40784989023948,83.81961459542785,-0.37406591813871237,-1.8460231945104613,3.0302447132786465,-1.7104028896776948,-0.6583458602265388,0.8229842219203496,0.30111101312048194,-4.411967145616033,-8.409552669922904,0.831819395154603,-2.349307929315381,2.3885258282090507,0.4141307782977744
-65.74677934143327,-59.18225300687766,76.85994174447167,-113.08213841248474,-61.35221833733951,158.40768796238802,83.81943258779475,-0.421868674557753,-1.8223159809517697,3.00973170667326,-1.7376465262437435,-0.6594115763942608,0.8200992079376479,0.2979577385049824,-4.415228983890766,-8.354505678771298,0.8885639165463391,-2.323836474273574,2.382924096965537,0.4087202513067686
-65.74687746766287,-59.18254643234197,76.85994174447993,-113.08213846730338,-61.35217945161923,158.40757470184266,83.81903279928875,-0.41614794097161073,-1.8204000881144355,3.0025108383616717,-1.7194210128085978,-0.6576502278316861,0.8199304847582083,0.29828637265743807,-4.411295060798145,-8.39137412223754,0.9304853121246291,-2.339382465919671,2.389349280935447,0.4119278190397758
-65.74679265693275,-59.182324273650345,76.85981880107232,-113.08215207077225,-61.35224087896728,158.40762036012308,83.81970833139368,-0.4031452055178677,-1.8471075744045107,3.023763856518159,-1.7181668603285087,-0.6602564728488819,0.8217164916596137,0.29978898972857887,-4.400097484158767,-8.39215463312824,0.9039349119868932,-2.337937160362271,2.382932951374736,0.40806664434553913
-65.74667785772795,-59.182338596359784,76.85995536738154,-113.0823657847273,-61.35217953761809,158.40757695042655,83.81917841269004,-0.39065835558625167,-1.8316580693585451,3.012739352377183,-1.7112923497079522,-0.657474131786151,0.8216996476744165,0.29678153069891217,-4.411966420893489,-8.37559344597641,0.9196559058913168,-2.331618544625542,2.383428769995983,0.4099119435237185
-65.74646862550934,-59.18234605095439,76.85994174447929,-113.08214296380756,-61.35217720299883,158.40761812109764,83.81965800686756,-0.40827867420211755,-1.8297723996924833,3.013513522827018,-1.7113858851442818,-0.6590808679359573,0.8208339152832226,0.29788174398824663,-4.41319843383879,-8.37152438629577,0.9044126233511707,-2.331959241851097,2.3889753986423927,0.4125945411177163
-65.74669877723048,-59.18253488438545,76.85994174447738,-113.08213848557922,-61.352264024435755,158.40753205002773,83.81975562898039,-0.4285683595877889,-1.811227125993329,2.999694637843869,-1.7276468423642644,-0.6597146674570299,0.8175953398465676,0.29426990006292425,-4.398067697066455,-8.384987501914507,0.9368351583053585,-2.330134109213209,2.3832758722560783,0.4101888738743207
-65.74666681465295,-59.18232395806349,76.86016304753065,-113.08224055026345,-61.35222052118634,158.40761811458566,83.81939210854924,-0.4064744060740327,-1.8288577316999324,3.0183463104222596,-1.7281198429783993,-0.6589256315866349,0.8191110365360577,0.2976146822113397,-4.393880250937878,-8.3693105081148,0.9682459136860807,-2.327374974153355,2.384418071309384,0.40936718906478653
-65.74678520389537,-59.18239979626182,76.86005938984144,-113.08226185981688,-61.35222064159718,158.40786172253658,83.81952777386779,-0.408777409183316,-1.834850970214168,3.0222055620566395,-1.7280435892165216,-0.6585037544798921,0.8216256982062009,0.3005125003753745,-4.378209393754132,-8.393507325037135,0.8509394912939467,-2.340608098720415,2.3795750332172414,0.410236399050427
-65.74666535307345,-59.18243481862386,76.85994174648518,-113.08224071891004,-61.35226378492141,158.40772918609275,83.81925342626573,-0.4256768025714684,-1.812766707433745,2.996711660854005,-1.7340206365381117,-0.6594203738325949,0.8178249383107862,0.29874087680717915,-4.416260491181795,-8.392545384633825,0.9300335422807662,-2.3269508687454685,2.3850087905435124,0.40868646469698233
-65.74678764085292,-59.182563814563565,76.8600199258322,-113.08201924721378,-61.352177212251014,158.4078093276505,83.81955387772234,-0.42145308013711336,-1.8204624030681622,3.010599543865789,-1.7294165339493681,-0.6584547211021766,0.8173774774454257,0.2998909620617309,-4.378838067235281,-8.370522091645014,0.9043365579790765,-2.3307515671702452,2.3786688765050656,0.40668080414772845
-65.74693784429323,-59.1824079119824,76.86006090695855,-113.08240069666172,-61.35228426512909,158.40785885662373,83.81921150570696,-0.40605526590678837,-1.813645344196363,3.001544648685032,-1.7226930003223033,-0.6590703694998548,0.8190900671326649,0.2953833263964272,-4.409494409333018,-8.345371896068084,0.8895972672796504,-2.3196491718712293,2.3795074152703823,0.4062584589374367
-65.7468359277164,-59.182449418030096,76.86026518736583,-113.08224056902746,-61.35226401519814,158.40764224306034,83.8196285098224,-0.4020117164265918,-1.8155178649980293,3.0113844783300943,-1.7178786174928518,-0.6597889909452598,0.8193257111893468,0.2957447261353457,-4.384636572721756,-8.35754551865022,0.8934139634354027,-2.3201992482972607,2.374399157643233,0.40589372872293056
-65.746687253315,-59.18257299852769,76.8600623692655,-113.08213858598477,-61.35225502995969,158.40766776077257,83.8195942340214,-0.39780343810998053,-1.8353555007027234,3.0235039037379043,-1.711276370807015,-0.6571010792096553,0.8209389058394955,0.294160636861099,-4.364361098296653,-8.395124457363634,0.8971256797262204,-2.3375281844092193,2.375660420771703,0.4075889345019374
-65.74677939557347,-59.18245458981447,76.86006090766124,-113.0821257806339,-61.35226396892548,158.4075312931418,83.8196146807959,-0.4258816741219204,-1.8069522474834117,3.005586654861308,-1.7343319406465796,-0.6604779877890856,0.8167353779992909,0.29837534047332775,-4.407365067468717,-8.3693496148315,0.9323935584939635,-2.321204297656103,2.379789952747204,0.4080042537020149
-65.74689829677317,-59.182563891604744,76.86006090832954,-113.08228153165848,-61.35230740741112,158.4076409431884,83.81957118466873,-0.3933184542128191,-1.811216367421138,3.002556079816461,-1.7134051407138438,-0.6556197096289386,0.8198767209939349,0.29608387334248687,-4.389705354614648,-8.329927734027818,0.8689804339287491,-2.312792588800616,2.3716362807949256,0.40658236402469783
-65.74699587365178,-59.18245852494899,76.8599280841019,-113.08228153142397,-61.35220419537168,158.40763569119403,83.81929832677827,-0.4129326758994603,-1.8112194360732365,2.9980354597467453,-1.7245621925273498,-0.6581047329877481,0.819759158833036,0.2982267962074271,-4.416568894720506,-8.35004043690967,0.9073055778239703,-2.321968873523602,2.384813144909154,0.4091869536982331
-65.74677935754443,-59.18245443985778,76.86007406209869,-113.0819171073691,-61.352317963613025,158.40781763842796,83.8196169013103,-0.3929237239377401,-1.8265666241274476,3.0192164614140666,-1.7122474014844653,-0.65811354032353,0.8195898276046796,0.2969160398500064,-4.376283959708311,-8.376577343630728,0.8787972901232329,-2.329866791420613,2.3742725338713204,0.4082294091529664
-65.74677935769557,-59.182577383340266,76.8600608514457,-113.0821429788877,-61.352220613717975,158.40763937628566,83.81936202207163,-0.40359080242973716,-1.8270013304374433,3.006998544982993,-1.7219580116947184,-0.6564806552920647,0.8193385008198973,0.2990087247749662,-4.418866203641147,-8.376989645506407,0.884554578570744,-2.3363514353629444,2.3865477327440683,0.4118753347006185
-65.74687940844433,-59.18246300137328,76.8599412384631,-113.08215679519073,-61.35222266493429,158.40767522019414,83.81939109089701,-0.3869162958558567,-1.8318769216143433,3.0277508220205362,-1.7121762765951583,-0.6579999829580446,0.8216101953227326,0.29872514199757166,-4.432075914760382,-8.391224308373268,0.8644822701700129,-2.3439954329268,2.392438305408745,0.4120211340965536
-65.74682342294616,-59.182530328806926,76.86016304753065,-113.08224071898985,-61.35203847535704,158.40753129005319,83.81934568093007,-0.38187335971669467,-1.829463092676638,3.020021846652629,-1.7183666349524662,-0.6588186019924631,0.8218280388135086,0.29944053321774683,-4.422468777642292,-8.377167601331191,0.8356944625058532,-2.3324553205999736,2.3839539783323045,0.4107700951309857
-65.74670435324721,-59.18253201730684,76.85994176252379,-113.08214011583013,-61.35221835596093,158.40753212321724,83.81965801563055,-0.39781689628953953,-1.8188400724378706,3.0033069904919727,-1.7198113731286155,-0.6589510635335264,0.819839473256565,0.2963597341062518,-4.412308140124695,-8.414366782011284,0.8932108878281908,-2.3400934887893006,2.38443215963904,0.41041602743474315
-65.74691887197957,-59.182563666745544,76.85994174448024,-113.08224518145293,-61.35222511062339,158.40753811923784,83.81975102917714,-0.4057083221356804,-1.822151841022577,2.993264092733045,-1.7094388060307497,-0.6573975075389096,0.8192631904919885,0.29801844289544055,-4.436372880849736,-8.36263271391095,0.8795392758890898,-2.3294926233106685,2.3897113540981274,0.4100566905869718
-65.74678524228186,-59.18245852494899,76.86006073900603,-113.08213857904056,-61.35212304821007,158.4075315434442,83.81957143591792,-0.4115235814862642,-1.8214415725314488,3.0097723049443244,-1.7265691810989285,-0.6584465979977996,0.819765653931017,0.29720549751295666,-4.415777683485423,-8.38807756117433,0.8338051667687633,-2.3401207788328646,2.385845965357541,0.4111571818219447
-65.7467839106983,-59.18242209657835,76.86006085144567,-113.0820209379205,-61.35222061406495,158.40767957383443,83.81925252945679,-0.3681808160694035,-1.843917682183936,3.0272904778255834,-1.7026239956761196,-0.6570608164498684,0.82409104702434,0.30005228270813933,-4.400295456416298,-8.3784954559898,0.8921929346480792,-2.334390596917534,2.38320206743254,0.4092538335606784
-65.74679843322882,-59.182458505516465,76.85983943596416,-113.08213893507225,-61.352220614750394,158.40766997239274,83.81952821231098,-0.3517606120871139,-1.8459146358870722,3.030363088778329,-1.69033301151686,-0.6559328284410454,0.8261122627251013,0.30000180137895854,-4.414158703776228,-8.37275361669844,0.8645345895852439,-2.330500086710079,2.384216653782543,0.4109400499022836
-65.7468285925063,-59.182577551986725,76.8599416882647,-113.08213992821649,-61.35220331062622,158.4075989985696,83.81966510965546,-0.39619224383300616,-1.8329249092877509,3.0223435164515924,-1.71526628118381,-0.6582340947227852,0.8218461909636772,0.2996015001765163,-4.393452264379044,-8.399902612035836,0.8876689913101843,-2.3404041797171606,2.3848893829103006,0.41194253882488696
-65.74679689751038,-59.182675615981715,76.85971664223494,-113.08201486240098,-61.35223792504408,158.40759518822077,83.81958032771023,-0.42011276710717294,-1.8204870504610353,3.0053154680943726,-1.7360655442265505,-0.6582790969195903,0.819379627082272,0.2987554484345245,-4.390437453322461,-8.382040915342753,0.8721796956976753,-2.3352465921906282,2.3829206617609233,0.41124849181377443
-65.74666682077599,-59.182671116424416,76.85984399073453,-113.08213841247587,-61.35236817572521,158.40777710451303,83.81911847285973,-0.41738768196696846,-1.8217399011923339,3.000153532958125,-1.7202582189493987,-0.6590485253930524,0.8199627088576257,0.29573014941882547,-4.406026710954361,-8.393892143424011,0.8848029104250782,-2.340325016168207,2.387476622022632,0.41230852292746223
-65.74681880883,-59.18257755406898,76.86006090832956,-113.08201977396507,-61.35228799218339,158.4075747007892,83.81938917701785,-0.40741146932116734,-1.810623999336703,3.0018162013590044,-1.7166720302220426,-0.658307504786909,0.8207352917186015,0.2965715569557257,-4.414527298051399,-8.387923889987889,0.886238713328933,-2.334452311448856,2.3853931948698888,0.41057073679649386
-65.74670435322457,-59.18278992091272,76.85994173823407,-113.08214302078852,-61.35226402478975,158.4076429090137,83.8196169002564,-0.3708863669478849,-1.830496624535777,3.0160996760075593,-1.6990968387079357,-0.6565771749688701,0.8225260984283829,0.2968134079036891,-4.378629739711344,-8.353058785685672,0.8351134195919628,-2.327436334523029,2.3751281913025144,0.4084925163622201
-65.74677950383119,-59.18246307840812,76.86016302879214,-113.08215409687958,-61.352281326516255,158.4077569502354,83.81934794044165,-0.3802037210881998,-1.8328433949942882,3.0231896986186317,-1.703449318391973,-0.6562363481530169,0.822010227717772,0.29619300668176796,-4.365554980308312,-8.375594318076702,0.859244658654784,-2.3313929958407704,2.3730304898854206,0.4084277865260437
-65.74677934039102,-59.18246302219289,76.86006090557919,-113.08191727599004,-61.35228107667218,158.40757473162634,83.8196580061564,-0.3907985067426556,-1.8360169832533801,3.025638404953615,-1.7200440639010748,-0.6579480944801523,0.8215789598271694,0.29961823966778856,-4.41104456055323,-8.404392419872575,0.8622700658157447,-2.341817875501074,2.3853555029954627,0.41225376540308745
-65.7467968868752,-59.182351297819565,76.85994174376052,-113.08236349436326,-61.35222060446863,158.40753130341943,83.81944192160584,-0.405242789041675,-1.8307730978513292,3.02717413147516,-1.7246213047151944,-0.658000402235849,0.8211017412500706,0.2984406577548475,-4.393971913641994,-8.41230719871329,0.9001691244007121,-2.3388828676493203,2.3820050665898815,0.41087170558822267
-65.74677934566348,-59.18236495820678,76.85994174445453,-113.08215207077532,-61.35222136330095,158.40761811153928,83.8192983172953,-0.4023758529016668,-1.8370194785941028,3.0328689937845454,-1.7276536048768512,-0.6583200805406848,0.8217342783747917,0.2967737673613331,-4.401325012020748,-8.423909544177544,0.8877341654784693,-2.342761535817933,2.382873455282534,0.41010211269394825
-65.74666946719387,-59.18236495819822,76.86016304753065,-113.08215207077242,-61.35222061368413,158.4078567006652,83.81929857342604,-0.4103179580925171,-1.8201182920798977,3.0095805957532162,-1.7198365579830124,-0.6580033609137232,0.8193506078560185,0.2973521064645175,-4.389579178468355,-8.373833391473084,0.9133629552741555,-2.329150661716837,2.380134495948663,0.4089690671609919
-65.74683396022012,-59.18246251625285,76.86002576916067,-113.08213841039698,-61.35230742901513,158.40758147440303,83.81953928693585,-0.43528957490728737,-1.8127372494050213,3.000580972430909,-1.7357969410046419,-0.6575042421227274,0.8190182064048769,0.2954314453375287,-4.410849259030571,-8.375437184769606,0.9547586692392269,-2.326920686226728,2.3853932992106697,0.4080580745071645
-65.7466663824842,-59.1825774957972,76.85994174448024,-113.08201924798365,-61.352220613723674,158.40753354176275,83.81939134028852,-0.3971357898255766,-1.828126844416047,3.020497145302216,-1.7265620698091764,-0.6586273587300312,0.8206361972155488,0.29796447432219153,-4.419702341534356,-8.390062555518746,0.8661794295243229,-2.3338276045197315,2.3833229081489864,0.4099327756141336
-65.7467969717174,-59.18267499829581,76.86006090766135,-113.08201924723853,-61.352281316918535,158.40784986214018,83.81925516277917,-0.40702930238832996,-1.8213454116670988,3.0004248098745134,-1.7122450694830789,-0.6584254986456907,0.8199410977058698,0.29602821471470525,-4.389522386937528,-8.355399177839237,0.9117286045943003,-2.3292327567880675,2.383178308222382,0.40815332461317333
-65.74670449223129,-59.18246240384756,76.86006090765838,-113.08229569180486,-61.35222611034096,158.40767990696924,83.8194535740496,-0.3902592666934038,-1.825549796876551,3.0131853913435487,-1.7119326371735666,-0.6584408074868081,0.8220569630824741,0.2979379553697977,-4.397872066987301,-8.366315847987401,0.8706079203056475,-2.3296143188603704,2.3823334236923586,0.4094354342094819
-65.74683195598854,-59.18257805792698,76.86010030851472,-113.08224055257665,-61.352264024561244,158.4075316263842,83.81966510969498,-0.44197386071761846,-1.805816990763459,2.9903322108876247,-1.7347245434742398,-0.6583979076307183,0.8173904547195278,0.296064361157637,-4.396618189678244,-8.402115556419389,0.8957272916011095,-2.34174979481528,2.384386014458032,0.4119061315866723
-65.746689685546,-59.18246308395774,76.8598396046108,-113.08206022904186,-61.35222058599954,158.40757496034712,83.81972908442913,-0.4315091118069676,-1.8038436275436993,2.9880935747778015,-1.7290022518161832,-0.6590066228202948,0.816502571835894,0.29263672770705573,-4.413351487510983,-8.375356400965762,0.9199401293868591,-2.3280183349114205,2.385733759490975,0.4105380666990647
-65.74688254843467,-59.18256254240982,76.85994174448024,-113.08213840972562,-61.352264024447074,158.4076354135737,83.81959201326588,-0.41000925610993716,-1.8225482020698587,3.013920729379629,-1.734275099139804,-0.6591057664820432,0.8191676376828478,0.2993956788644686,-4.431938468968374,-8.356640924522372,0.9411391423725091,-2.3230138899972657,2.3860669236736425,0.4112060646270933
-65.74678376334049,-59.18226228452953,76.86016306556657,-113.08224055260237,-61.35222069803285,158.40773888205212,83.81959190048305,-0.40330819451227556,-1.8227975569519324,3.0069786224518125,-1.7151457812519786,-0.6571455172973918,0.8182169070526669,0.2977885151518294,-4.407758066426886,-8.376998405649317,0.8661019216146717,-2.334679452874966,2.383993530425532,0.4111073835693343
-65.74683604486985,-59.182463084654614,76.86006090766124,-113.082242574717,-61.35222061383647,158.40777862090255,83.81943322532884,-0.4190455660562672,-1.82071318407506,3.0071359566675735,-1.727483388154228,-0.6596213764030331,0.8202319551099513,0.29698443928866536,-4.390213187830467,-8.381826648969065,0.9006844592673708,-2.3321381524665794,2.3788797743494716,0.40756694954286216
-65.74678082516652,-59.182790145775876,76.86014224399503,-113.0821520707988,-61.35228124323119,158.4076183614623,83.81963533886785,-0.41648296647772265,-1.822341153574012,3.0158378569698603,-1.731339172718399,-0.6581897709700771,0.8190122854211602,0.29994359877810867,-4.39870334643655,-8.349252826664115,0.8690211008405414,-2.3246959548842328,2.3772264469211186,0.4062633937950735
-65.74692132807272,-59.18271715996624,76.86006090765235,-113.08213841039301,-61.35227302815027,158.4075949415769,83.8193915953009,-0.41364314064689783,-1.818802163732802,3.009613376922034,-1.7314852509255378,-0.657677795235611,0.8184426000677604,0.298004103809329,-4.418414797524617,-8.378771987080086,0.9001893394534268,-2.329161583782309,2.3825415735470985,0.4097503447650135
-65.7467941729303,-59.182675653450175,76.85985275904922,-113.0821831740663,-61.352217625841284,158.4075949477417,83.8194789290932,-0.4336616392683558,-1.8122372696540832,2.9954025160707243,-1.7390790938345966,-0.6580548136285514,0.8169680520713078,0.29963016381551555,-4.437960576738281,-8.374216801440417,0.9390891724191149,-2.3309853331463986,2.3910857153800706,0.4115986519038327
-65.74695248472622,-59.18246155434246,76.85982594423257,-113.08190085726815,-61.35222061577856,158.4077397342391,83.81959000463348,-0.42249208240393715,-1.8263291963539552,3.009342450227799,-1.738256036449696,-0.6597241843362088,0.8184728814016576,0.29598006125811666,-4.371513440448589,-8.360189043132502,0.8814639018568189,-2.3301191238139403,2.3768739765660887,0.4091463116821089
-65.7468838476879,-59.182536568769954,76.86010037097645,-113.08213841109648,-61.352220370048634,158.40759275548209,83.81941208486685,-0.4094011256554433,-1.8127376781176836,3.0026326954595914,-1.7201785251424706,-0.659199460342939,0.8207613931571731,0.2959297129312741,-4.4112606968721195,-8.37268863336699,0.8950355152586543,-2.337255746929988,2.387988456159456,0.4112731732813255
-65.74709906706225,-59.182675728181465,76.86017777953,-113.08201924721571,-61.35240275221433,158.4076383891976,83.81931705702289,-0.3956031762608594,-1.826119914556764,3.012730379267451,-1.7185719026240749,-0.6568564408773153,0.8215992697501071,0.2958001078051794,-4.4049975050053325,-8.36906717047977,0.8718611393179059,-2.3291327638412804,2.3810201589034685,0.40838922170903885
-65.74652758284655,-59.18241754381429,76.85994174440313,-113.08224071961342,-61.352258028223375,158.40786396393148,83.81965800619543,-0.39527583215607626,-1.831641753614791,3.0141353578801247,-1.7112509712068682,-0.656966253252519,0.821151845094278,0.3002894018274454,-4.3950535524056065,-8.385986306596259,0.8862680292463291,-2.339896925151153,2.385809212966848,0.41285713475837843
-65.7468994452701,-59.18246307840843,76.85983960461905,-113.08214010541984,-61.3522002928424,158.40763624947644,83.8193548440618,-0.40139762183650957,-1.816698989327717,2.997508439991823,-1.717197672346927,-0.6583524594736496,0.8206684616296451,0.3005856382957639,-4.4234302710913305,-8.348763048739292,0.8859503477632003,-2.3272938025672407,2.3894332629649098,0.41160307264997203
-65.74672194150726,-59.18246307840843,76.86016302879489,-113.08214236554052,-61.352263995657914,158.40757478714318,83.81939792200997,-0.43209170585145734,-1.8087344430194936,2.9966816655806445,-1.7359696383533503,-0.6601481427213238,0.8175357413503808,0.2974750730549339,-4.423932078860034,-8.36452262561821,0.9426256563958746,-2.3248373755599476,2.38729645694493,0.4084769562235972
-65.74669120677974,-59.18236495819822,76.86006138862474,-113.08203442541101,-61.35224379609885,158.40767001771732,83.81923582795886,-0.38844102120569496,-1.8260286715836564,3.0052133255901716,-1.713527129962158,-0.6592277582285163,0.8210013365133291,0.2996941431329004,-4.4243551835570285,-8.35746473852938,0.8558444029250429,-2.332478706577783,2.3887264062589386,0.41116388197273873
-65.74699633910997,-59.18253808866322,76.85994223168166,-113.08224071891306,-61.35233441867327,158.40755177852483,83.81957348954528,-0.3958791067212932,-1.832305574732479,3.0206537678001557,-1.7213984363933925,-0.6576170063046022,0.820515227178349,0.2979874431543484,-4.408091436531565,-8.39408961524978,0.8710196140588036,-2.337890561037999,2.3828889176035597,0.41066074916975587
-65.74681904537337,-59.18257755198704,76.86015852946619,-113.08213995528035,-61.35211649363206,158.40766772375946,83.81967042162239,-0.38203402411720494,-1.8263805012193328,3.018307534046895,-1.7132508975582237,-0.65787204071404,0.8203618006460603,0.29822410396732807,-4.39895062109469,-8.366740821859906,0.843235163086491,-2.3277490610236256,2.3764771050954603,0.4091766725296714
-65.74683701769513,-59.18267567219719,76.86016304753065,-113.08224072538835,-61.35222061368837,158.4076181392633,83.81980128867586,-0.3644884837505682,-1.841142156552235,3.0368433534824932,-1.705622289484086,-0.6580892083701021,0.8238863800329268,0.29695751989912555,-4.3833299305451465,-8.392992864992541,0.8161211560592108,-2.3359289672060237,2.3753115036310097,0.40897490876186987
-65.74679754902222,-59.18257771438751,76.86016304767632,-113.08214347812152,-61.35230972911698,158.40767474724424,83.81930499251125,-0.41166870613885603,-1.818007624921614,3.011588029250637,-1.7246326578559463,-0.6576526275961838,0.8197359800001924,0.29681393601029565,-4.395272756795632,-8.374918589510008,0.9101445096130913,-2.326246839114672,2.379045454393896,0.40835718633133017
