BIOROB-Lab-192/Bilateral-Teleoperation-TouchHaptic-FR3/Data Collection/05042024_PnP_EMG/FR3_PnP_EMG_Run1_Stiff.csv
q1(deg),q2(deg),q3(deg),q4(deg),q5(deg),q6(deg),q7(deg),tau_1 (Nm),tau_2 (Nm),tau_3 (Nm),tau_4 (Nm),tau_5(Nm),tau_6(Nm),tau_7(Nm),Fx (N),Fy (N),Fz (N),tau_x (Nm),tau_y (Nm),tau_z (Nm)
-0.9219964351175326,38.08113552373319,0.03480349176570331,-94.8375724882784,-0.10818632881128179,133.31220832545745,44.250659351894896,-0.17827611876180077,1.3911674537311982,0.16331068542101135,-1.2263049307360456,0.13608116295746484,0.06874339709651811,-0.10512356831723475,-2.380833351822774,0.35202728486084767,2.413296645576095,0.4149560470031009,0.7865770574465849,-0.1327002239532055
-0.9222747197163766,38.08131486252604,0.03503835810736064,-94.83757103468707,-0.10827290735197918,133.3121649133622,44.251195090474276,-0.19512905085179663,1.4069162640201414,0.1552013810917217,-1.2404023376541768,0.13288834960344567,0.06545009803319729,-0.10035240084891496,-2.4001373214712776,0.3670874245635236,2.433949253889687,0.4149436496374831,0.7891245567097638,-0.13005531178827018
-0.9225816390124005,38.081212215948476,0.03492556139530601,-94.83775263914328,-0.10804637955762418,133.31212175282658,44.25107820551428,-0.1928839979212692,1.4171489859265975,0.17140545756969736,-1.2351575181876804,0.13301967656371386,0.06552502390579981,-0.10261485536573908,-2.345081036528525,0.36542333238389074,2.4518430993355818,0.42493281708193426,0.779330181057808,-0.13471698422808737
-0.9223733423794785,38.0813151572533,0.03492265494670117,-94.83773560439349,-0.10817660298639868,133.31216491374303,44.250865295041926,-0.21334022475523592,1.3589519063087954,0.16182060421091554,-1.1985942586614506,0.13198759037053176,0.06916430394197018,-0.10603748114126212,-2.3507963127965765,0.39475966358806425,2.404995439925586,0.4250416292153416,0.7773591948392259,-0.13569246947591115
-0.9222062528445848,38.08141292618561,0.034681422068055676,-94.83785834090665,-0.10820361500923444,133.3121282581372,44.25074052761057,-0.164846937500482,1.3755253139040045,0.17944587423017355,-1.2136378843323186,0.12924570441762254,0.06429472206495605,-0.10446542017514035,-2.326554941388959,0.3669871771615715,2.3780726898325053,0.41412724884164764,0.7700554914090418,-0.13492974958017756
-0.9222159100384888,38.08141758871017,0.035065490918427464,-94.83774861234384,-0.10809924550250141,133.3121649137045,44.250963394555285,-0.24097461401351578,1.3556976664133515,0.08891704603961623,-1.1957098615246795,0.1286033189040454,0.06690946144563831,-0.1004993545476992,-2.3252891931643602,0.39225928967129303,2.2132188965180153,0.40063002335514597,0.761582476915357,-0.12607171680727314
-0.9217333813617025,38.08146880790151,0.03540757705308288,-94.83796972237955,-0.10800296917359414,133.31220840771158,44.251288414251036,-0.2171172205148938,1.3009357438409035,0.1059976073531455,-1.1613783543085012,0.12873146705683441,0.06963100915747877,-0.10381799394334945,-2.2674372733560992,0.43261103910220405,2.32194081610292,0.40838714464046444,0.7546005378211452,-0.1294058821335366
-0.921767469856605,38.081413097330056,0.03553134216730534,-94.83800999572095,-0.10801254855577551,133.31239046314985,44.251154676992655,-0.3021382148921362,1.3819516023489793,0.026062343690678884,-1.2064925620728013,0.12418728747585459,0.06461926683824476,-0.10004023464766454,-2.213932546160159,0.529663107340449,2.2976668377108433,0.4055552532101311,0.7442122959920726,-0.12734936942996297
-0.9211188723044694,38.0815413379241,0.03583360978025949,-94.8382174125999,-0.1079183708126455,133.3121215029797,44.2510179838191,-0.30041104006394354,1.3059865672664723,0.020259508179060425,-1.1418052122041766,0.1276548325791797,0.07099599381662607,-0.10335666513579538,-2.222187394920219,0.5696290691708144,2.282011672778618,0.4122294601572885,0.7439004120173568,-0.12337831335422861
-0.9213412923357022,38.08131480605393,0.035833609780259484,-94.83787348116428,-0.10815171765126862,133.3121822157723,44.25110942282454,-0.3223269500489646,1.303301973440323,0.0025580186208472426,-1.13282317341536,0.12804131346810502,0.07286543605913103,-0.10161696533061443,-2.145661396280331,0.5939742753729177,2.26655131217002,0.410109118671305,0.7285085450581511,-0.11926892648841489
-0.9211045159078791,38.08147018205609,0.036054912371297196,-94.83813378368924,-0.10809917040355664,133.31207809225492,44.25088595889401,-0.3082227709865949,1.3184043959152847,0.010946583793270475,-1.1479077633808987,0.12763911806067255,0.0727214658182251,-0.1028290459485815,-2.1956993957745605,0.5818801120307359,2.32088356937446,0.4125893059049479,0.7395035013244852,-0.12131728152668797
-0.9210611234704764,38.0817507394111,0.03589505977598817,-94.83813378638696,-0.10820361807567747,133.31216492295806,44.251245086781566,-0.2823646199109801,1.3376013373841533,0.043546227692940455,-1.1447946124520185,0.12711952855087258,0.06962547370344295,-0.10110800071229072,-2.2176017941546147,0.6156822914051212,2.250425942680849,0.4162548706796259,0.7387549662343661,-0.12328645255501136
-0.9210865796655283,38.081527418378485,0.03593580546767309,-94.83779380668854,-0.10825389429084183,133.3121649137045,44.25092351538103,-0.30698402168838795,1.328116025960183,0.03396722811623045,-1.167533315446197,0.12753685014538987,0.06675840599142104,-0.10010330052133934,-2.2636904245431353,0.5626146776071486,2.3191825594857245,0.4134614439408597,0.7499516490364793,-0.12981441521346854
-0.9210970572723852,38.08141756334974,0.03583813095968405,-94.83801566109427,-0.10809924585135203,133.3121646734539,44.25099794310252,-0.31886210201409837,1.3223686717008694,0.02404600241551957,-1.1549272245674616,0.12699682288123393,0.06993745448474786,-0.1014718829089557,-2.23112444318008,0.5238397051729891,2.281055400681986,0.4127323048597444,0.7437444858773198,-0.1253179733295094
-0.9209861564795095,38.08158671389171,0.035714446599261644,-94.83823184813158,-0.1081000086932145,133.3121649137045,44.251201674918754,-0.329827449710068,1.3488349185023247,0.014498588975782389,-1.1696741666422994,0.1256238863479051,0.06590241746281816,-0.10036949526634546,-2.2134163141511527,0.5695105532273157,2.3401690191483233,0.420120742602125,0.7415420286618013,-0.12672348565519453
-0.9212191965016324,38.08148176544821,0.03583360978025949,-94.83801144402811,-0.10814266690822237,133.3121215029797,44.25125572194018,-0.31552438397331006,1.311254749160691,0.012265268478529044,-1.1618856233153587,0.12680325163998335,0.06751855170472734,-0.10254877397452175,-2.2836968599867085,0.5540847977996696,2.279096138656201,0.41174330672797954,0.7524991626301232,-0.1258285445591731
-0.9212657753638154,38.08166720212161,0.035533093162153424,-94.83786757984515,-0.10820642190693651,133.3121649137045,44.25099924057245,-0.2800244370997014,1.3148552706582985,0.06151468914327413,-1.184529509785289,0.12540134015527749,0.06453958974515317,-0.10273355114789584,-2.3797024198675927,0.49751032646315585,2.278834898405274,0.41457066607007553,0.7698943139249038,-0.12963603099331544
-0.9211948921975007,38.0812167041438,0.035325669672328586,-94.83739654541003,-0.10801243370039978,133.3121851794182,44.25120376802859,-0.3143037947316032,1.317260239550693,0.05033212361746964,-1.1936181090523277,0.12562669553055156,0.062380628088358744,-0.10224172308877842,-2.4144701978553282,0.54276035472843,2.278855856089162,0.4313142444214182,0.7751527651327271,-0.13254932040201559
-0.9213173353202257,38.08139902157822,0.035706825801780376,-94.83797439033019,-0.108054337479711,133.31209832985246,44.25126548362058,-0.30337880167941733,1.3580218348306148,0.04894585469559845,-1.2008116434647453,0.1232273366897866,0.06418908950068607,-0.10091788781964861,-2.339269473338616,0.5274018353559657,2.3510405129425562,0.4198924336199238,0.7673821747943936,-0.1297296955599757
-0.9212766222360413,38.081531597526094,0.03571242860951944,-94.8375140825804,-0.1080816309100548,133.31225793668636,44.25120461403171,-0.29923562474430554,1.3347211596563817,0.0609071627728889,-1.1943921169661043,0.1230096279060459,0.06186290663960354,-0.10293471224937999,-2.3676297075918016,0.5225191653316108,2.307770820108439,0.425472776045451,0.7673036197477325,-0.13313748938604253
-0.9213308823030026,38.081189156695984,0.03555115986489991,-94.83795669069171,-0.10801243370034729,133.31216491374255,44.250926429929784,-0.316418878532861,1.3114530852481776,0.04874253411127881,-1.1672801063016174,0.12353756084295225,0.0664679803651095,-0.10242009652906836,-2.3077858160776996,0.5472292503048475,2.2773071983766924,0.4303997019742831,0.7566341894272376,-0.13308066813838942
-0.9211739780429093,38.08141143576575,0.03561213920512435,-94.83795669069171,-0.10809925424878276,133.3121215029797,44.250923519658336,-0.3294098535012035,1.3464139345998496,0.04178560182081668,-1.1830511459976174,0.12430916838902933,0.06617661786301884,-0.09803510486791522,-2.2878028555875507,0.5588737596317433,2.335602890675769,0.43227139220060923,0.7572632589483936,-0.12976643418320233
-0.921303751197537,38.08139943837126,0.0353102275813806,-94.83783752750244,-0.10791617632540774,133.3121649137045,44.251145234678646,-0.27690045300242005,1.3236744811810017,0.07897641756619028,-1.1725550140036884,0.12418108798614634,0.06770190359505851,-0.0985231658400906,-2.2619422202729,0.5663052212866148,2.339346503900305,0.4266086811844738,0.7519881540156598,-0.13267632646257202
-0.9212978667549264,38.08115342388833,0.035598573230395926,-94.83783297203904,-0.10805584442513677,133.31225868623955,44.25099995309734,-0.2747227483763402,1.3166106988597606,0.06291907883510578,-1.1571004486481913,0.12131820514192862,0.06928588509162284,-0.10383099476846847,-2.2475213672010916,0.4932448654726913,2.291353074784931,0.40935627453077295,0.7478767836275185,-0.13068496450346612
-0.9213367646266477,38.081333808802746,0.03593572890047627,-94.83773538763577,-0.1082846142077063,133.3121649137045,44.250992450802805,-0.2828479484243812,1.346870318086226,0.07290081956886652,-1.1791727541657548,0.1232624981843602,0.06687130805497511,-0.1006541252813791,-2.267617714522055,0.49692773274463564,2.3376902401956676,0.41967454555128936,0.7538973114894891,-0.1306298650442967
-0.9215370428204709,38.081407966049554,0.03549314346334309,-94.8376162226947,-0.10814266587473133,133.31216491370455,44.25090130845194,-0.32170791406450155,1.3285574412144856,0.03316784805391213,-1.1645566680964559,0.12401355475976732,0.06734048899658433,-0.10127209615441937,-2.2325529445250214,0.4462536553988143,2.2235207220523385,0.4171291613827227,0.7418602217300398,-0.13233726472627488
-0.9213625412966256,38.08141447117925,0.03535073139278738,-94.83783752549782,-0.10806265410421168,133.31220835219003,44.25098355891607,-0.30105738101937907,1.3295838049858995,0.06970756735882436,-1.1739077673764315,0.12286038320374244,0.06426581312719881,-0.09963962956939336,-2.2850167431146406,0.5709622127660323,2.2457068235579576,0.4431600993402294,0.7504269436555657,-0.1337013468787241
-0.9214973324370828,38.08128305284989,0.03531003911719585,-94.8379579816444,-0.10814266587047754,133.31217165957034,44.25115155782235,-0.3075648593741082,1.3211858536025158,0.06999982886895854,-1.1665557253076586,0.12271386057479808,0.0646632754124476,-0.103618709908196,-2.2572561681129697,0.5371809767373165,2.327117881532486,0.43827191573102775,0.7476362931520752,-0.13789481002759726
-0.9215978765667375,38.08141126957973,0.03530551802011828,-94.83785379364296,-0.10801235067713545,133.3122083244293,44.25101952773721,-0.2999209068939009,1.3219072773025364,0.07620546137676834,-1.1675832586269927,0.1246796906567449,0.06687066190149613,-0.10488017266181428,-2.3037017829041613,0.5125804314443936,2.335948456315485,0.43306344882006603,0.7573716115277825,-0.13721305399052283
-0.9214202010097519,38.081301379367396,0.035310039117195845,-94.83773543976159,-0.10805584453852206,133.312080340877,44.25078943898158,-0.27673881213251283,1.3235228098198353,0.08963439446082087,-1.179271252732314,0.12499961863041772,0.06550779315847576,-0.10037502258508943,-2.4061442338842407,0.5339854783919724,2.3270063971481814,0.43692154465334054,0.776605652289369,-0.1375127633811033
-0.9215450421063788,38.081372703228375,0.03531003911716084,-94.83761638484754,-0.10809928305845161,133.3121282498737,44.251065892169116,-0.2732755291042088,1.3042644653228705,0.10134498018548574,-1.1958667345399978,0.12114725265900468,0.06347274550446591,-0.10446659209837456,-2.4814715298019956,0.47491101095807914,2.3662966844928475,0.4282591844745197,0.7928949897576542,-0.1369114512754517
-0.9213180055637861,38.08121219752085,0.03531003904063067,-94.83759658310217,-0.10815426280741393,133.31225793702893,44.25096422931073,-0.29301877275054866,1.3295340921346517,0.08871601790672581,-1.2347976093242523,0.12135923824887536,0.060661694724162454,-0.1050956092762522,-2.5810604329953777,0.4706746694655548,2.3972336850392297,0.42085052853834737,0.8138031925584163,-0.13672460046461013
-0.921373330368307,38.08121204143285,0.03530853205931489,-94.83759725628299,-0.10806187265208633,133.31220832785647,44.25092830898903,-0.2649381469504913,1.374969435302298,0.11148869763691097,-1.2595606525287586,0.11990161387420005,0.05801465868803379,-0.10332180607220723,-2.585909753490893,0.48974876156466773,2.3586374416132916,0.4360637404177765,0.8135899559909157,-0.1383765234360975
-0.9215392778098643,38.081301205735265,0.03553128428434737,-94.83733017374416,-0.10807778150093002,133.3121649137045,44.25106534721681,-0.2622310791271779,1.341607444196717,0.1043121564147762,-1.239532649264442,0.12094323748319466,0.06316211385153883,-0.10636111993740992,-2.576627083499741,0.468424553502914,2.318775854658277,0.4256161305432934,0.8137006874195433,-0.13867449485044106
-0.9215442031210936,38.080922726384806,0.035310039117195845,-94.83710836441963,-0.108053676876574,133.31247144084523,44.250921565814394,-0.2635749185096946,1.4055466466489452,0.08387441353508157,-1.2744172493477068,0.11829505310422507,0.0563712961587841,-0.1017390562973585,-2.587854217063597,0.5164637284650726,2.5175605731859294,0.4307159628413215,0.8272069676801154,-0.13818451294056022
-0.9214016331346021,38.08063862097432,0.03577408223460418,-94.83685033969537,-0.10805587267820066,133.3122083247593,44.250946724457364,-0.3319022448912332,1.428679801103642,0.027378102942774186,-1.30041348975773,0.11755935869890928,0.05785839420328673,-0.1023523308529281,-2.6262068996704415,0.5654673434539682,2.4552111529616134,0.42227301894303026,0.8305206115464852,-0.13248378219453277
-0.921261403082026,38.080557457976646,0.03565050534861828,-94.83692400552762,-0.10801243059940117,133.31230134741145,44.2512037692069,-0.27404603991247933,1.4077796287340147,0.07192809328154645,-1.304313609321993,0.11902674665536676,0.05895341353494903,-0.10170546005282405,-2.705822379383877,0.48032391908901806,2.420960722166543,0.4089335602470215,0.8454087763136221,-0.13066421664898928
-0.9214155143506404,38.080374954878806,0.03570475881980971,-94.8369193937705,-0.10841259715831263,133.3122579366862,44.251025019973724,-0.30364710490220875,1.4715022688967223,0.02886225642996356,-1.3405836565162166,0.11828381031102905,0.053156738951183224,-0.10453600115812313,-2.6960038883444257,0.5311068905192348,2.518125380703589,0.4060248453019504,0.8459145675122676,-0.13013244441205296
-0.9214171654348531,38.08023900458739,0.03544276765668615,-94.83629693643216,-0.10809928305845161,133.31230810287315,44.25106315400258,-0.33571841014593684,1.4393416299693165,0.007791437435190846,-1.35632804729082,0.11831112276666458,0.04435866559286595,-0.10253033813322474,-2.8470663057999164,0.5713884677402408,2.4477539332065614,0.4139248209704731,0.862699492285991,-0.12952781397715069
-0.9214169441957774,38.08020659876486,0.035705325947665206,-94.83673955294297,-0.10806489608640937,133.31226504344204,44.25108483024121,-0.2988326446627874,1.4727966918208175,0.04205486360814447,-1.3555617569435527,0.12022070426848057,0.04293307708834477,-0.09710118182232436,-2.7447731143120966,0.5104086816289936,2.5025394488748223,0.40583757851177876,0.844636204743264,-0.1247441064005061
-0.9214521140555251,38.08043731583002,0.03542920230134474,-94.8365182332362,-0.10801246195341124,133.31232233455341,44.250931901514235,-0.28354289699817076,1.4099032411155878,0.05801306984324541,-1.3170750869861978,0.11980760318967178,0.04837547631287444,-0.09960530165857899,-2.740828471658513,0.49159127015314896,2.4064056201273107,0.4063749768429624,0.8408493533685398,-0.12758522717523804
-0.921537527268189,38.080343204566475,0.03531171462260714,-94.83651774187025,-0.10819285836881455,133.31234700984277,44.251084982919195,-0.2877244489752644,1.4209696554219948,0.06565193168547093,-1.3369303803665105,0.12004962384719807,0.04448266666178187,-0.09873881869679343,-2.8006811636681697,0.4933778295439015,2.4176583285333306,0.4130114199920401,0.8506239055716956,-0.12883316719630283
-0.9213585660201715,38.080555797026925,0.035666975079947746,-94.83629675945411,-0.10805584476969739,133.31248351366392,44.25104210034295,-0.2881232155866963,1.4069583704391218,0.05604895940649954,-1.3345788506814815,0.11859636278123316,0.04289098554341337,-0.10579515621147231,-2.8251087619250765,0.5061752156347095,2.39124222170734,0.4123624948128304,0.8517991096320885,-0.1337615604792406
-0.9214154370355332,38.08055579634605,0.035310095625179505,-94.83673953351013,-0.10822111968443923,133.3122579397754,44.250835876785644,-0.2918821241990889,1.394429420950184,0.04915895193139108,-1.3166182170088871,0.1210089675881655,0.04727357339492105,-0.09993663885957976,-2.7799876560163064,0.5042720350746069,2.378182991484436,0.4082546025455174,0.8454898931592698,-0.1273944022353149
-0.9212600792086926,38.08055580247626,0.03553644005958229,-94.83671805538823,-0.10805358383542968,133.3123447581358,44.250782494691464,-0.2863859473906921,1.4238384896918774,0.04955577595424531,-1.331339735115268,0.11938862608038901,0.04443267772262528,-0.09829597610005088,-2.7644692419184693,0.49441453806035995,2.422843297578463,0.40193164479955334,0.8432578339987042,-0.12535774924713264
-0.921457144523591,38.080555796345955,0.035704767506059464,-94.83662037102253,-0.10809925606873613,133.31231867724395,44.251109268640874,-0.310000642551821,1.4274536650123324,0.034454056938841585,-1.3491906980053623,0.11845428030338845,0.04361320587998026,-0.10480994997643436,-2.842617413824045,0.5367130007058666,2.426608437061657,0.41380389650069005,0.859253304289831,-0.13239342269581722
-0.9212191965016369,38.08044399486294,0.03566457810769599,-94.83657933366402,-0.1080535466240939,133.3123470103138,44.25115242197928,-0.2794198379719674,1.4115984802291188,0.03851770250461166,-1.3133144811997373,0.12315067012258982,0.04879439176203316,-0.10152339454466926,-2.718127415194668,0.4938619620868977,2.410240238977972,0.39691048006974466,0.8366890407120313,-0.12455922872315608
-0.9212175217467058,38.080670269693336,0.03594914581649174,-94.83669855306944,-0.10810151575225202,133.31229909879326,44.251128884089965,-0.31265888495319605,1.3641535057362684,0.015407740924647844,-1.285690008444372,0.12126540368474158,0.05231904035856338,-0.10427942361652705,-2.6742504678263557,0.5755741909417024,2.4120846707869643,0.42268336123169925,0.8276004034289816,-0.12919136456187974
-0.9212176892136846,38.080542135957906,0.03583310743613976,-94.83661986231031,-0.10797184545508426,133.31239132343322,44.25082203984295,-0.30662631467089635,1.3862354053796941,0.0256180004869483,-1.2916152220921548,0.1216280930887323,0.05012695489616467,-0.10305149320529422,-2.6038095255028813,0.5279872933216379,2.4712410527913833,0.4069427102012958,0.8174687971169853,-0.12948115289549914
-0.9211952270633865,38.080293800529596,0.03593574964968636,-94.83651350896797,-0.10814266690696796,133.31226018565513,44.25115230337073,-0.31765269541449775,1.3911645570327966,0.024436585736891062,-1.2986480591372171,0.12112434655213351,0.04739573382266486,-0.0995341603492748,-2.7682279072066716,0.5265378913391107,2.4438926216724526,0.4083646458834279,0.844821555430757,-0.12573144112174212
-0.921312795562821,38.08033696193732,0.03555278595731222,-94.83651367746326,-0.10803542607749435,133.3124489126259,44.25105319717092,-0.26981524232250664,1.4490400513809825,0.07660177787497974,-1.343748215816557,0.12191741497187056,0.04193280755808016,-0.10653696955266444,-2.8438189724220706,0.5343471954237557,2.40083781723909,0.4202631314010339,0.8570162938406513,-0.13349909488018039
-0.9213585738811728,38.08074339821629,0.035221462539947054,-94.8369608164343,-0.1080558444293976,133.3123215850086,44.25087562786834,-0.2733944262663089,1.3769638049395607,0.09459270506857677,-1.2983541618281056,0.12395400506289293,0.049170526338440226,-0.10172230985726834,-2.6028916973887473,0.5357688228929006,2.449286664095881,0.42610029937958527,0.8162239296270914,-0.13027512073619418
-0.9213311244677682,38.080439274912436,0.035207899247757454,-94.83648371069033,-0.10807888192125008,133.3123688352032,44.251126117254906,-0.29138488555791836,1.374758362601465,0.08745208925944424,-1.2978196390154666,0.12576820275711037,0.04705345621440552,-0.10122401073210772,-2.8543268672486026,0.49774687432075143,2.434987677925883,0.43019749919016675,0.8609371721754456,-0.13395725781060078
-0.9214439346225151,38.08055118659101,0.035207899247770416,-94.83657779008858,-0.10803277900823041,133.31241068628125,44.25115223006511,-0.30063815407089267,1.4146021112872142,0.04896541711453496,-1.3338409090395091,0.12454517604332975,0.04716084729827928,-0.09763608271740135,-2.8582393892165796,0.5287262386988785,2.391390297719741,0.43170554821982376,0.8591160020655838,-0.13124177605450355
-0.9214574937994039,38.08045745048979,0.03543210873828999,-94.83584415752274,-0.10809950632657134,133.31277050938758,44.25099040360574,-0.286747924533688,1.417465513886191,0.08107571546483694,-1.4100279137256857,0.12436042849809849,0.026580768638107752,-0.10059663980482313,-3.000728733928544,0.47742657298893154,2.3898167522145464,0.4215843753899792,0.87902874240811,-0.13231693402368672
-0.9214394645454614,38.08054207694045,0.03542920298728028,-94.8361731657895,-0.10814969848866186,133.31265384981398,44.250858521167345,-0.2990934693707424,1.4856891129267566,0.06608163663389151,-1.4006509834061813,0.11570273349863672,0.03197199305144704,-0.09837567887366146,-2.049784590001902,0.17373392110987904,1.851042719624393,0.2482528723657575,0.6822102732408417,-0.045285164811379335
-0.9209003664927323,38.05947360785601,0.03533030960706691,-94.80439090083215,-0.11141957361140312,133.31239474756083,44.251922481705925,-0.22797482732592653,1.0580595579228464,0.08546377037556126,-1.0033682356758515,0.0523527745984174,0.04763948178546122,-0.0014181422861375863,-2.1574687429928026,0.2582481560827946,1.8225810279552845,0.24419349382353706,0.6645388542417614,-0.04513184788783787
-0.9205140164478225,38.008819513443804,0.035897560567735416,-94.7965608798899,-0.11183775260921998,133.31270963128478,44.25178829804819,-0.2695168829557915,0.8323976780330593,0.019206453066425707,-0.887417049591558,0.05583971592540817,-0.22547522732787684,0.01127089182836384,-1.6133714102646062,0.31336457169960386,0.9955855638401307,0.2329156144966579,0.20382909446178668,-0.02749648292154982
-0.9193641469576578,37.88349565091253,0.03626220345775402,-94.79714670136313,-0.1117517812587932,133.23850313929034,44.25224147826764,-0.2450359191616331,0.8047137868623294,0.01669309983947552,-0.8586145689716704,0.052960508369666405,-0.2903457146734932,0.027457660648943845,-1.4014709999426769,0.25894592122501314,0.8472057068355894,0.19964892189014552,0.08101931476144307,-0.008851470258772337
-0.8956346131542819,37.622032720737174,0.034663171879522635,-94.79706473283063,-0.11239453276455538,132.99252839972084,44.25291273758043,-0.06793102593098888,0.8406595531888705,0.09463977985937724,-0.8614126696759387,0.060413410158189164,-0.2981097678656156,0.047331490736726725,-1.2641582167454148,-0.18164433948725442,0.709568089512026,0.022784353586555645,0.02637800219935206,0.06795084360602127
-0.8027685454869005,37.32866881078007,0.03493033927259707,-94.80129366145758,-0.11278260170747763,132.6443481540864,44.26909934278078,0.2819157372687084,0.2690835273225914,0.18899728062072607,-0.4783592638628414,0.06667277474181972,-0.2059855728254135,0.1360425346259261,-1.179149265444365,-0.6165223741244288,0.10771555558574804,-0.1379342883029139,0.05145963873911519,0.14380220731115304
-0.6243134920571737,36.94553153489808,0.032686130106965645,-94.80074039930483,-0.11355127119206668,132.2783224301146,44.419443147245396,0.6252585659845917,-0.07530335680918808,0.4284869216216779,-0.44204187791281885,0.08010190144470017,-0.2392384259636049,0.12752479317572393,-2.7999516841886636,-2.8149305714141124,-1.687352912246242,-0.3641582507007834,0.17191269354061833,0.1619127765107035
-0.38359605248551637,36.624518172621585,-0.08101394722105792,-94.80326724042521,-0.11826390363038598,131.82141326693537,44.70065928301193,2.6120824199618617,-0.7642888075432945,1.9942353107171877,-0.35829956910420235,0.21748310380720937,-0.3385782349120818,0.1885961346759091,-3.5547926558184004,-5.488243411956005,-2.791772443543703,-0.7844691453141981,0.13124665609233396,0.3139611700388891
0.09064278948795863,36.13391125709853,-0.15979645594514566,-94.79886318660213,-0.14293935442210723,131.30250755309945,45.14670734254708,3.5096848292910265,-1.7555725598521559,2.689636656879852,0.19715921073850878,0.24755712341037348,-0.37259911691350517,0.28188650513538954,-3.1086472482171588,-5.287105504753689,-4.4384796696486415,-0.8305855045675222,-0.168395693494098,0.3303508828072065
1.0528519799660399,35.716261143200406,-0.13257385139793343,-94.74833330140595,-0.14656185358116527,130.68421440382795,45.874482286386176,2.4844654869353118,-3.2679951540933545,1.8623376053081044,0.9959541736254729,0.1581702773005717,-0.3965914982191627,0.3180053185074306,-3.4515947955506836,-5.29937692068959,-7.635408874147288,-0.7483394957935308,-0.1769863383636698,0.30839374641231615
2.1433902579610096,35.40663756293766,-0.21525025485098911,-94.55428988625124,-0.17829889292228587,130.03248330727587,47.027206948652164,5.620686149688289,-4.434394692798001,4.703110084813402,1.3213225151585557,0.41280632583250576,-0.6169259967741544,0.21520097343925743,-5.9738765534633576,-11.602208125959669,-8.833722939432185,-1.2321730412682064,-0.4227749393106988,0.2913229962147802
3.3638490443940676,35.19162131733429,-0.509970708883369,-94.1195774588676,-0.23833261155318552,129.41589678574195,48.47027785181851,10.207716259043043,-5.232848599310658,8.875820624744394,1.2635848348532681,0.8713114763783798,-1.1035587571536305,0.2726722382561151,-11.117854399979304,-17.334899335486064,-12.45135700602862,-1.5591132263579333,-0.3693140480895205,0.4401286885579712
4.9038938531145515,35.21355494065483,-0.7507026083658106,-93.48344457465447,-0.3049837311504433,128.8029931917129,50.12480559440392,14.02955689566524,-7.599726496615122,12.344804906073119,2.050558559163906,1.3308985523629002,-1.3368815022085923,0.3946653637488971,-11.907279558415565,-22.53996847502281,-16.191662102070573,-1.9259496562016272,-0.53034621444385,0.44272371680060396
6.61539039420345,35.51660237921671,-1.002882896163562,-92.6489089068076,-0.3688298289428143,128.08261642847822,52.0567093126534,17.64520612359939,-9.037531154788985,15.751937851757436,2.8125774755568917,1.7556704663639795,-1.4557911464846436,0.29609612442928007,-14.925032041271393,-27.69297879022228,-17.979541739611577,-2.100997408891674,-0.5827036676145054,0.3310263067486311
8.352650574406407,36.08716957081716,-1.263378876700619,-91.40944379492328,-0.42773211663808886,127.49141930035674,54.127874454940525,21.645740035205552,-10.135346695951846,19.29800954520038,3.0271768964525028,2.1700024037942645,-1.7204482536753973,0.18628566502046456,-17.951082675342597,-30.244333881971453,-19.134005026835183,-2.2691054868636362,-0.544376544400866,0.09533077505757724
10.232321800302552,37.083862970505194,-1.4375075020895731,-89.93028236661866,-0.47422945254847665,126.86923655875593,56.32117772363992,26.001213278240655,-11.814758208869662,22.91896680255878,3.5401853679719686,2.4254170697537396,-1.9618925179312334,-0.09412122650278126,-21.027295521207073,-33.15242495783062,-22.363384304189875,-2.431101282904,-0.4942412496383945,-0.061149069357050376
11.054241251442658,37.70385586564882,-1.5989711902901333,-89.07889060677336,-0.5015305481510589,126.64040995584942,57.3900134178276,30.623475062941633,-12.249604804478029,26.856844596572444,2.5147854850459983,2.95622401098264,-3.1381341776233205,-0.288676350150878,-32.25048660788483,-39.61591247316783,-25.577113508712035,-2.7266549246484786,-0.7398770377743945,-0.25855310582068924
12.62813162586142,38.93844329744738,-1.943439062817038,-87.08270377599025,-0.5890687615031299,126.20556580572071,59.49513603054888,34.738676466034036,-10.6116103040025,30.166246711402376,1.1796408311450928,3.459145292891861,-3.718126104601562,-0.2733337478168509,-32.41180057364891,-40.69803640596288,-23.345582368545337,-2.9256240513151313,-0.7333037012401992,-0.2504174139181047
14.307095224637568,40.33332186756948,-2.0673083010815194,-84.99221012352619,-0.6247886461422498,125.64973323162035,61.440592542134105,33.964834457287886,-10.130368521349364,29.328725321214154,2.2339543170669356,3.370345020269518,-2.9366400601872433,-0.5848807130838262,-28.024825760574497,-39.363405240072865,-21.471565596128716,-2.6537550386342708,-0.9262026893776584,-0.5861329302545468
16.17569703465041,42.01810555784504,-1.939067059671831,-82.9808619180733,-0.6196881754193032,124.9997478776385,63.32749120354968,30.55669406176673,-11.76354282245406,26.438597340032835,4.322090066527277,2.975786413753483,-2.254739311125562,-1.0193341124942987,-22.438484941980303,-34.876309833793925,-22.83187623578348,-2.2009002177081682,-1.5857708404702897,-1.0671643876161787
17.774109257746204,43.91139283529725,-1.8126352215090025,-81.06525511584243,-0.6171866260918699,124.51676532457206,65.06006720747831,30.660621155953763,-14.201917529926378,26.134905357932773,5.863699585573613,2.9258436173088276,-2.0901746750567134,-1.1463335079138377,-22.734760025673392,-34.06848613191737,-26.28315288708201,-2.3172103335208383,-1.764907563326446,-1.1884023742278884
18.854868011555823,45.58753114690367,-1.822233658928464,-79.2085201189496,-0.6177021430411553,124.2858557648005,66.40922148536832,33.49537192611774,-13.417635228416994,28.112357636925488,5.907634647286621,3.095794849423148,-2.0970885289195262,-1.379897392577651,-21.909142997891337,-37.68154057908179,-25.21946192392746,-2.7204975604040023,-2.1521453664424057,-1.4107805555597612
19.506117763538953,47.06177815203161,-1.931357903043921,-77.63619634204589,-0.6205436801940596,124.24859387521035,67.53072208243509,35.61869118130067,-12.152064994489214,29.480417137125496,5.1586294051370345,3.2501983051366214,-2.093876990161529,-1.5639341533569984,-23.819063131332438,-39.36605978359987,-23.36432409432359,-2.7731627456069594,-1.8289486428662394,-1.5682920876041084
19.90004457300496,48.30589895781521,-2.050533715418112,-76.4879287193374,-0.6250203802752303,124.38165807777064,68.29340173376248,36.863268663445695,-11.041918958277316,30.371246192940816,4.577028184189276,3.3709409224500075,-2.1592872418226685,-1.5864679845634198,-24.001248614527274,-40.342668470918284,-19.571276121393893,-2.8030827027364493,-1.682452671262881,-1.5236556851976906
20.197167650436047,49.144038909372256,-2.065485439403098,-75.88754660281428,-0.6245336867659254,124.85710470780666,68.68800021733674,35.37963699696863,-7.823010071621831,29.176275868294816,2.908616396973634,3.295035613067559,-2.243489226788709,-1.408099702005548,-22.676152268833608,-39.55484154335795,-17.08293718056016,-2.664157028301057,-1.8090345140116382,-1.4036215079521699
20.30487008381141,49.74227118347831,-1.9777301530509062,-75.85662182364537,-0.6204015511145817,125.59375582942288,68.7377274492213,31.63961037867441,-7.435069561133732,26.32552285326498,2.0153218345494888,2.9096340996991823,-1.7132939848840265,-1.47813697736385,-25.69866450145739,-32.773381769241475,-15.64892806866188,-1.5262130673687617,-0.3284708652666119,-1.4696046629367157
20.29271983852592,50.12997913215069,-1.8193414901572114,-76.51978978037891,-0.6161053286057193,126.55433564467069,68.65409799779046,30.195324097615693,-7.825161093102391,25.5888115739587,1.8811842267555767,2.837358703249323,-1.6869265427981293,-1.5318074492008147,-25.338604210376545,-28.46434371583323,-16.483970389459145,-0.6571328387744274,-0.17682804171585548,-1.4979986186919176
19.866166989556685,50.23510579580553,-1.6888966875781408,-77.7783567545196,-0.5879254375873635,127.77896720538261,68.13202425960914,26.887086978946684,-8.104932111481983,23.490417083048786,1.941877514600333,2.5903056491827714,-1.5079131549308864,-1.4302013667400881,-24.954742111454205,-24.74942781986891,-16.77447790693013,-0.13506165815834847,-0.20034572117933358,-1.446854374954496
19.063321467758538,50.0706381322916,-1.5611753505990749,-79.40911416434807,-0.5647297210877633,129.19031952634415,67.23576351417081,24.228533894518943,-7.635402310187606,21.747948168397023,1.1820890149282368,2.390580786748331,-1.6767796754067095,-1.235254974172807,-25.748559043981682,-21.70646793710453,-17.959075797226355,0.13722581407535928,0.15554111199262244,-1.1486641418422432
17.994701837532755,49.57141390543088,-1.4193261512808972,-81.33938969379294,-0.5319636151671776,130.6477229514595,65.94869041018822,21.461765405076484,-8.397927748966588,19.62974187177807,1.067118394694724,2.162379796385012,-1.692355152426261,-0.894757811705546,-25.69912731899842,-19.047101924752273,-18.154564621430232,0.1649452325963905,0.42353353256816595,-0.7672581964537419
16.698741811720183,48.95372731561049,-1.2536840340095612,-83.44625989418103,-0.4998397338478842,132.0995133871227,64.40876144619769,18.529817869280375,-9.138301892288915,17.36273908024012,1.4480808380513734,1.9265854796196136,-1.4738486303017853,-0.6033186287507213,-23.11218467269079,-18.07305331802642,-18.31014623960502,0.17768477176311492,0.2962156007317723,-0.5588068223013222
15.941280893866123,48.63346521459629,-1.19938357026087,-84.50927771878024,-0.4853187408403661,132.75839933417254,63.53519058300904,16.40407981371977,-8.785770332544447,15.603398764458152,1.3120914086076971,1.7509960935334123,-1.2820977681760939,-0.3490308892180379,-22.684421346766605,-15.450657075280935,-18.668862014013342,0.2763632789069209,0.5115360994087279,-0.3513737332487491
13.40678363605927,47.34624199737656,-1.0115536831214333,-87.49482045321525,-0.4359834565847808,134.7062159453053,60.70069916235811,13.930590884952355,-7.803150909431263,13.680563810858311,0.13681248128856077,1.6202962248641732,-1.942809019317298,-0.25448602896268874,-21.852401875168958,-12.16303102483124,-16.391254171786237,0.5099629078036398,0.17827734029928566,-0.20673474198172342
11.621613857285512,46.4025132573503,-0.834117236697892,-89.22078165394285,-0.39674311593135475,135.6768340964229,58.64852346551222,10.669972651220656,-7.694555086993599,10.854220595916956,0.05484614805241764,1.4278394703702653,-1.5562280707690446,-0.052573175651409926,-15.843191139013893,-7.049074023610354,-14.483297915818838,0.8545271669433218,0.868652093453234,-0.08608297522935997
9.979472076160903,45.546364219610005,-0.42808102900869355,-90.87815073193312,-0.32406014051273435,136.15062484537037,56.53241903517419,4.750557984347919,-5.217165421800151,5.291481834906121,0.5319947714993097,0.783545109743824,-0.18173011617104107,-0.009330625439784216,-12.576290535273607,-4.419467886748151,-9.994995994452749,0.8787731435890009,1.1944714223993924,-0.09212612788244123
9.136550043391763,44.97212502604099,-0.2569862747513832,-91.51306645280872,-0.29727624112726575,136.36016854020852,55.49899649215426,2.5161959185061606,-4.573500670852905,3.0930791869637306,0.7124594101693417,0.5829318546838171,0.22638291234582497,0.05716558738506611,-10.295493155330053,-0.9875521389040041,-8.450521034042875,1.0124958250386422,1.4477953501611283,0.03183969632187475
7.155129807690196,44.160674358571875,-0.19660900466703912,-92.64755644800907,-0.27401553180472327,136.69699071231875,53.3887175723675,1.8698307918018668,-4.809494044988877,2.6127805752483364,0.6207423948541516,0.6728300126187283,0.1266934000841654,0.1744303093446106,-10.626086488641947,-1.669153493366884,-8.693022891376984,0.9170944589867207,1.4289072135880785,0.0951742644303954
5.174883448155015,43.4205388109708,-0.20738096499685896,-93.47187271246882,-0.2735403572186596,136.79076405480328,51.315530661369245,2.0177099148648945,-6.1552684456344835,2.825851054878864,-0.2784849732459362,0.9824059805413455,-0.6002956700178238,0.5683120088120401,-17.0963947852416,-2.246903840366463,-12.668425771697896,0.8411091780902897,1.7533015950697535,0.4864952977108887
3.4697595990579706,42.760657145420346,-0.190492211152731,-93.98444959514511,-0.27728704186010295,136.80900693519192,49.23633062887425,-1.2199694991988386,-10.922048267585982,0.3174819539280545,0.3804860967227047,1.3771760995872262,-1.4609177110474127,1.2371184464938445,-24.433333668325425,1.25497895791201,-22.588461316789505,1.279882847961657,1.62943235699859,1.0942021331019633
2.230879099415398,42.43614923897938,0.006939415772632202,-94.48935841569266,-0.28244298716522104,136.56966569989115,47.28482038194866,-3.3300872161380526,-15.52117741349853,-1.4369692350341698,2.6977768685969536,1.6578280952258466,-1.1443245967580928,1.6958367531503682,-26.23655945547137,2.9057296603021046,-29.627032116422008,1.4859817364010515,1.745822473304036,1.5383163524725665
1.116199045340133,41.921515283624814,0.1294564137257029,-94.84686686258856,-0.2857673445733745,135.9620757766243,45.69033515541542,-4.764540856972754,-18.70376275211609,-2.5772644759999257,3.200219109503708,1.8427715543228076,-1.3191484194429999,1.9854630137954257,-32.454104322852544,3.871457930759627,-35.279373784270554,1.6741187787825416,2.40498401087996,1.8100563060359296
0.29601214907181367,41.30326852729851,0.21904488301223904,-94.96106472538476,-0.2998569749802497,135.29722992352035,44.430366720092785,-6.972836698568929,-20.66048724537799,-4.510843958015037,4.3575558932673655,1.8987723240866081,-0.8141273297050301,2.1378707172651685,-33.87944865046879,6.235450283199389,-37.26480244144038,1.9329228669324967,3.045640336529576,1.9617680785337577
-0.1494925082516635,40.56349091461195,0.34723170826809313,-95.13589608575417,-0.29952667837409935,134.38002646325577,43.685585121007136,-6.675064083760482,-20.32223178336217,-4.336922884675783,5.695450053051291,1.8380196049621307,-0.0002232864452599208,1.9545851513756298,-28.681239123830448,5.895344738928184,-34.6729825442931,1.9217670634146815,3.000792465010143,1.8050215224783623
-0.4374332184577153,39.640418475608755,0.3369549684244215,-95.18134537005578,-0.29937269672644107,133.49491408682618,43.34455060095222,-6.4877575484111505,-19.641584831556056,-4.367625714954797,5.799919119605642,1.8432707048154173,0.14287766196317067,1.9495285782565297,-27.801794011600347,4.8716552485459825,-33.409805604717896,1.6401986643803863,3.0840267159666723,1.8023492018680676
-0.41315628158987916,38.80700605274452,0.3018437851703173,-95.22719572695507,-0.29943573537728824,132.5978952535468,43.32314161987933,-3.69783257133117,-20.375289566286273,-2.631013219513989,6.674699764751264,1.7861522451079703,0.3758489238290469,2.1559818251282565,-25.597009246383696,1.450968519975869,-33.289883641624776,0.7168898023375632,2.842703885384379,2.1381293442542626
-0.07545794118053854,38.08014973848806,0.2111810292800206,-95.2423095310968,-0.2981452726425315,131.83093629531152,43.544477833218735,-2.76588479262432,-19.642691962078857,-2.156997061549124,6.203682373483562,1.6621551226691664,0.06296609080002001,1.9969711004688533,-22.924167637296,-0.3150978720366142,-31.733713588107282,0.1813458989518988,2.02630749777854,1.9090818348637904
0.6736479073695244,37.2487060884125,0.14737709353074602,-95.21401146669092,-0.2960934476762956,131.12445832559075,44.37871425836037,-1.1347125527339066,-19.111515342796704,-1.1029263517021144,6.516167929810707,1.3963068568228854,-0.2874230455608087,1.7167729112227317,-21.534684170046987,-2.287733276042268,-32.381978573105684,-0.15615727320247008,1.4452175276977215,1.7045023791772507
1.7585185213158794,36.737267905765734,0.061867640382766084,-95.05587941661213,-0.2957787621409504,130.3372860423979,45.56539102388198,0.4354729734423279,-19.15474699870664,0.22452578852701016,6.92718717590537,1.3458414377097516,-0.25233951959114836,1.4673196848566528,-20.631341960460645,-3.5853472559282435,-33.20902480214706,-0.22023508149231918,1.0814485294007967,1.4340983141724382
3.0863802268947365,36.44026839688942,-0.07792761447577541,-94.80241555611241,-0.29680745929764163,129.66643296277462,47.08359396240392,2.889268315825493,-20.995672055166416,2.3865643283130984,7.629619710039106,1.31848182007145,-0.5289734713855564,1.2522858993946542,-24.21142101506525,-6.7818627646240826,-35.52219822042924,-0.4519244742909322,1.0764992189157079,1.3535963590977806
4.550888690439108,36.2810608760232,-0.3054074307017478,-94.22685050349867,-0.3421200497651577,129.04120104520837,48.71463346302471,6.784591710705775,-21.715448927638832,6.011722009962292,7.238449563330639,1.7011447987461297,-0.9518859851752037,1.3825338150518658,-27.973433542491804,-12.899578929501104,-37.13525501580321,-0.7918651271601114,1.4016952238486533,1.538899012773386
6.1088741390258585,36.32022741144636,-0.6074130129573341,-93.4403215974836,-0.41466372936163803,128.34139997218458,50.45764452875852,11.421717694149569,-22.987023907946583,10.212456692367805,7.7725761795889,2.2548635995454664,-0.9337101205735003,1.5810496969680825,-28.812523315049493,-15.91149562773956,-38.248996025377465,-1.0339769336173124,1.520677166246559,1.642138628260945
6.956497238924596,36.53967738309165,-0.7482850298920002,-92.96374264504622,-0.44653495884772876,127.99152611029419,51.42179507943946,15.401102909930161,-23.184297378513637,13.754355445425041,7.7510929016335295,2.644508213911497,-1.0742076644881904,1.642825534345403,-29.844095087127464,-21.60174248735677,-36.58599274032053,-1.503037645238635,1.4945934281458262,1.6503760380736197
9.856018551060263,37.21547861899291,-0.9449263332786769,-90.97319150976897,-0.4923520025208017,126.987657260185,54.46332483831901,15.506197956799927,-19.34900814557121,13.861539873378259,6.833721725144249,2.547880421574757,-1.0119644089389792,1.4973883795098621,-25.284119802607393,-20.19793562937097,-32.29880999210845,-1.3402302201800487,0.9261760475686807,1.5195045454601261
10.885716654252434,37.53202931182994,-0.9436112285708448,-90.08653442141069,-0.4964123483519365,126.74434298424694,55.49440777932085,18.522631420140588,-17.930207866443435,16.18575961596483,5.6141347056975075,2.766627923586753,-1.7053572252427145,1.5408757541841127,-27.627256360510692,-23.134593703469278,-30.94611201090316,-1.833178963112326,0.6726105392583321,1.5866396666951823
12.691105332027785,38.7432280544425,-1.0985646754791318,-88.29817097087596,-0.5414281288584283,126.17124488990711,57.57244690007613,22.145628618116305,-18.966186749059787,19.30697401442625,6.25023463720469,3.092806697675305,-1.8702829761155104,1.2674131946562186,-29.401647241082433,-26.423680153672745,-32.84054422418021,-1.9454306175293354,0.41018385255922163,1.3013598225758305
14.274334889271929,40.22181873105054,-1.3594498903001848,-86.36713967759583,-0.586775678684242,125.62378162734717,59.661013189358016,25.95489857385867,-19.037807103669373,22.441331486128533,6.469848895187308,3.297776039941302,-2.176550317838246,0.8507206954795262,-30.313053523113478,-29.88679246177712,-33.55268353656483,-2.2043569398057192,-0.10040262665156885,0.8725222360837295
15.783235503390257,41.769284430254984,-1.5615256675885687,-84.22142822443155,-0.6106687688414707,125.18009896854547,61.71067379084371,28.31678877030941,-17.985724855012343,24.268243413365507,5.8836626018234055,3.41291920385247,-2.6340572562482625,0.4363860073434321,-31.24050610361265,-31.29342699750561,-32.66145397871388,-2.3076378677986424,-0.5704241372281568,0.4473133454460606
17.18156302414991,43.37060541413661,-1.6809480439673978,-82.1066635737401,-0.6375990959780311,124.77628187475571,63.53563499061157,29.80584804330149,-15.626860985955927,25.240084166411638,5.255570481571713,3.4975946204543034,-2.79565058932194,0.14017637557317578,-28.393877209960866,-33.060321115271215,-29.389021936146932,-2.542660539082934,-1.2803679645125234,0.1569431224139436
18.43558912189964,44.92286787849799,-1.7098266580131996,-80.05386504025896,-0.6422936837152231,124.4901726773564,65.11461840376806,29.136009754287038,-13.758861402473855,24.593606651502604,5.004917303634659,3.419049362419707,-2.5943334618915044,-0.13218664321009363,-24.508580269859134,-32.46637851016806,-26.20138383328178,-2.4054573606152245,-1.7642567827700417,-0.13532515400558798
19.53834969604071,46.39702235051278,-1.6912475589377018,-78.29686000531242,-0.6416877020609867,124.33799922308467,66.3701742999858,29.289713747141633,-13.337573090849622,24.59221381018937,5.0738851568454955,3.3953829620825,-2.4803421860424537,-0.3239601099130393,-23.468043177410088,-32.36048577680518,-25.37058031218953,-2.3430292711951752,-1.9366782500820776,-0.33870162068937354
20.179017282069633,47.83715664707832,-1.703555125714747,-76.97837959088571,-0.6429722614331729,124.33891870568355,67.31718117232263,29.712108686712334,-13.308177975486407,24.77861827450757,5.145957845767514,3.4521271553713513,-2.399741027512013,-0.3386486079427436,-23.562123894970814,-32.74258866416284,-25.218326260650333,-2.384988962166905,-1.8843577540789438,-0.3371827329822905
20.61151892638852,48.99382923678311,-1.7023571082154212,-76.17796154414533,-0.6432435126164775,124.60296838381048,67.85093618022422,28.165038340599732,-13.02002718483055,23.41604972473247,5.37489989880414,3.3678013864769287,-1.9188616188493035,-0.17216376827418348,-21.78791917231152,-31.25286860911902,-24.032353420160696,-2.177555416336787,-1.6597779026329773,-0.16670397499308354
20.805106177271927,49.87251064287727,-1.6613604026482605,-76.00498474918365,-0.6414724631654006,125.1369511459596,68.02484137240124,28.215156064607108,-13.573884179198142,23.527070390378586,5.640738599801057,3.2927929279078443,-1.7035882376123954,-0.20675857948045273,-26.373892925609212,-29.18859780977936,-25.251371237922022,-1.561440558646364,-0.5896752958310472,-0.22558242749413482
20.68092295035827,50.47044091315528,-1.6618006511845436,-76.34324903971367,-0.6413676840732221,126.00185747097126,68.02553441617141,27.540762214979726,-13.716887268699159,23.703905156913212,4.414335240395868,3.294334429746769,-1.755220329708193,-0.4634513551445195,-29.310820389266198,-26.93130569013526,-25.372694623962207,-0.8010778868853434,-0.22637951165460118,-0.5140457076950136
20.225261878438108,50.55934634388099,-1.662388222439025,-77.21555985694098,-0.6408364273877497,127.20522652663117,67.78794345603399,27.02760257094356,-13.337928878949644,23.56992608596858,3.7343656616950405,3.286019185217513,-1.9460790844188611,-0.391320576557041,-33.60141861676196,-25.159995991064246,-24.872313680301332,-0.3978219877562659,-0.02216886000524272,-0.508088510412144
19.406821754551085,50.4774882922661,-1.6612440189663131,-78.59787550611223,-0.63813833863204,128.66541528424014,67.15383869688137,26.248984900793285,-12.035693729703217,23.297405155262286,2.1286909716827935,3.2100829290901722,-2.642436441631913,-0.4450091845677028,-33.54296277722358,-22.01228152947883,-24.825288575790115,-0.08229489045797517,-0.29702203002205924,-0.5686423921567186
18.488676385493726,50.110768363296806,-1.5598706398802966,-80.37169567482876,-0.6171065057787266,130.20529495639278,66.21748765397197,23.88676540477101,-11.512407892257416,21.870368657605635,1.1934247523542316,2.947090419602353,-3.0426255253164545,-0.48391042912757626,-31.420270466090983,-19.42889207082832,-24.871991635042164,0.17583969530255003,-0.40490764117817946,-0.4318581890189407
17.94029342562341,49.782828609116685,-1.463504782158781,-81.37294436198948,-0.5947870891880087,130.91197729155797,65.56252660419334,20.395910900873766,-10.918143097661465,19.047170075189527,0.6761777469760636,2.6190293880554214,-2.8420609484100314,-0.16241115900257028,-29.725039210896558,-16.071961870570238,-24.263491738995057,0.4422820203073389,0.3322434017891135,-0.1002277315425496
15.983738054920936,48.783948478672485,-1.155947151587123,-84.52022473991715,-0.531173666982449,132.9333853811666,63.17452733027138,16.949752951666817,-11.527792591369861,16.23368192065853,1.172412764528967,2.305703142026051,-2.267933315984992,0.08576082987834932,-28.434944258532706,-13.016384491370765,-23.479498750955074,0.5962338596756802,0.35523949168290664,0.12222645389782813
14.397134070041629,47.92196371938284,-0.9673936076333461,-86.56385629421024,-0.4886202285449982,134.23076398596666,61.315165255221046,13.48384064976391,-10.295408262136101,13.216088409529133,0.5502274803693344,2.016108142745678,-2.1398051215483784,0.28444043125939084,-23.552328290579304,-10.173672819065047,-20.840625886205064,0.6126019359746808,0.423567082736707,0.2304647076759851
12.694018101653766,47.01102918718883,-0.7558280733175562,-88.41879803385402,-0.4351273489711641,135.27701189633302,59.38713948362259,10.80539585100663,-9.372780327123303,10.884768332425574,-0.23690545693775025,1.6520626240638656,-2.140216010315185,0.2787313546193936,-26.336967140565623,-9.453572793388293,-21.12229400065759,0.6026647238011908,0.7487015794514215,0.21066918356944486
11.605973811857211,46.61904430025668,-0.7725773195925801,-89.24495144618709,-0.43631203052594714,135.82334757879767,58.30579544075941,10.221846346046567,-10.97925397903561,10.543561610752942,-0.19947286696209252,1.9677162555764016,-2.273995901224457,0.7617781949480124,-29.26870773410637,-9.692092561521214,-24.54966924096255,0.6593276171176101,1.0392608362619784,0.69642638781386
9.603611893398995,45.87481729912372,-0.7487892014407223,-90.76431637464022,-0.4338182563767258,136.6251959390615,56.06282028041555,8.183510974192917,-10.558918672024067,8.971792652016864,-2.22172458071813,1.8547262113430367,-3.031175266193698,0.8850520829688199,-35.29971148481922,-7.04021455900345,-25.992885766138958,0.9595944646664465,1.5971845213473992,0.7693806607505721
7.6958023645519225,45.002557793231986,-0.6225237643947066,-91.90749155200139,-0.404884865751054,137.15348283156794,53.880562554022944,5.7999759142794245,-12.00539149817311,6.655745960980354,-2.053142357310679,1.7299501518702853,-2.841765916766596,1.07732474122815,-37.702810256823945,-4.875532563811979,-28.351756953527683,0.9336109313154679,2.2772029668625016,0.9718860872281517
5.915681012380344,44.352794739261775,-0.4402701784482212,-92.96796970909433,-0.38230873769123114,137.24867926147485,51.78042046310082,4.432068508714094,-14.55885044054254,5.5432849089706275,-0.31093689536591584,1.7734576388022814,-2.4798477927833305,1.2304822052449125,-36.02163736885063,-4.672509283221929,-31.710722722131397,0.9913122187508949,2.0828649303275237,1.1056726581065226
4.115974225836086,43.7607572931397,-0.3979401262638864,-93.76432388046983,-0.37951837381888204,137.20933597283684,49.77445245457829,2.578917936575276,-15.83659482814951,3.9803495813743934,0.355028279652675,1.8376694563602562,-2.4278308474333072,1.379017752766164,-35.86235049391426,-3.4232780489010226,-33.57189200255211,1.18644573034593,2.023750704475252,1.2373356843948617
2.6184200676941334,42.99041023020763,-0.26422907028377457,-94.27131956873043,-0.3596936330880553,136.96713350048074,47.96159964911742,1.020547179271013,-16.74225123761996,2.4805108762640757,0.29833225720811063,1.7811179550531564,-2.665648181730792,1.4412426179596554,-37.99420594344656,-2.2484251815570717,-35.39324204829691,1.1914731401004244,2.1476221848767216,1.3079612717271263
1.321960091044864,42.321916564774696,-0.1861783871750145,-94.593550868872,-0.34092016550491283,136.51036239393417,46.430813499631036,0.2638321833560193,-18.439937352713955,1.6921110591960682,1.6803851682209823,1.803230579783114,-2.2763234538844945,1.5619653795543498,-36.84542896913601,-2.262337315493069,-37.0393863128546,1.1039695504188427,2.195739071371376,1.440205105023601
0.3047101039467973,41.65945303473502,-0.13089495984817395,-94.85226888328711,-0.33927467522099286,135.81961597024068,45.15293110211346,-0.24536895525138472,-20.579837022800103,1.3565968998013558,2.6280264768652994,1.8155759103710223,-2.1193934956739198,1.5682135524090506,-38.00277260129776,-1.5518956548610112,-41.14812331191249,1.2739580873326684,2.559506263591416,1.4851326077464606
-0.3810501977726488,41.054958626739705,-0.08149781367953915,-95.02313374810821,-0.3390373557525518,134.97266379511726,44.251563090083934,-1.1211390690471397,-21.23317811714867,0.5805780545066915,4.045536791406246,1.8622371916381875,-1.3976436414523057,1.623932194454984,-35.67216010401226,-1.5246554740502574,-39.09297523320505,1.3304302649561497,2.697854090788536,1.4831474219575154
-0.7319793503207896,40.107495706579684,-0.04285193530281164,-95.05585137711624,-0.3389868820920797,134.16096399770072,43.72573292495278,-1.4707865670715377,-21.62703166251304,0.24377687141842447,4.157508206200225,1.845885399257653,-1.4083070119238967,1.560517615020227,-36.16850118309214,-1.2099263249729377,-39.42435941260363,1.4191839684286494,2.909521547750794,1.3703858356554468
-0.7912473030882985,39.75989123084599,-0.02943164768301067,-95.07168353150806,-0.33883011004264374,133.73571053674706,43.615169521391465,-1.237649593447176,-22.46838096803456,0.27624644904681717,4.968765974471061,1.8096329442592163,-1.0946450789917965,1.4872701603357723,-36.531569925113665,-1.85729170866643,-41.73097199750329,1.0392268566411005,3.07547831932101,1.5332145545225462
-0.5526723596692592,38.72446986377065,-0.028085517250773004,-95.22451605664104,-0.33930485533834187,132.41540192581607,43.58442448569426,-0.031260604652438025,-24.674446210294818,0.773895841703723,6.3448015484978155,1.823683157464524,-0.8921992943530898,1.815856640640035,-36.292307772233755,-5.059115937479396,-42.68523613044491,0.14006248783718767,2.976280929204707,1.8841321914598408
0.0018086177589455945,37.96236824847856,-0.08616327941643402,-95.2188047202301,-0.33962940408541753,131.63299934864781,44.007194625612485,1.6998079640540165,-22.758352914693216,1.7716100786382785,5.8056297903417375,1.8048264320764982,-1.0096491856638865,1.8369904473772436,-33.35229022610559,-6.520102303001468,-40.557231975293355,-0.2724483143439176,2.2964436609972303,1.9247334583934872
0.9650505289499871,37.24341657969884,-0.132011910837295,-95.1302657892491,-0.3407488635151466,130.9284373467307,44.88827932969325,3.3226435489452024,-23.70036926275783,3.0045820008113227,6.525909539801483,1.815675597595123,-1.2180020600922425,1.8161974287483647,-32.09992371172702,-8.36763306282347,-40.36524390798772,-0.4265127912619492,2.1851064253657424,1.8334533257247787
2.151994623747053,36.81020778579326,-0.25144342794082686,-94.93145139602876,-0.34507967613206747,130.09751424751911,46.13718680911521,5.374339177820597,-23.43031571414957,4.803327327424536,7.156457146185822,1.9438023495336478,-0.8719255125005655,1.7262064115713351,-29.09203698206827,-10.105125300644833,-38.04193726375819,-0.650696716863199,1.8974533699572917,1.7231197192579175
3.681745775768608,36.429249668649184,-0.30919133963852874,-94.54785756755535,-0.3455468914952567,129.3234809021764,47.75931981220959,6.215295200110043,-22.302073291939045,5.540000816682368,7.68719525947546,1.8288025957109697,-0.5862835701421214,1.4551144085898928,-26.179497803717876,-9.723395859924695,-36.95314818088731,-0.5183284935756368,1.5909922831555718,1.5375290624999207
4.511746146423059,36.34511027848685,-0.3616972259225956,-94.23196131452369,-0.347490889247976,129.01133364683764,48.660603905691495,8.490544915553091,-22.11860266967092,7.5721675674425715,7.314140385430004,1.8449417909598318,-0.9032115204606538,1.3596428646519572,-27.32943327913776,-13.667141530731246,-36.44030630892787,-0.9958069227920003,1.4666470656128994,1.432318691996008
6.231216518724203,36.33516187892006,-0.5064060468416981,-93.4251780835156,-0.38560008463150547,128.31246875462196,50.53217769444063,11.115700347620638,-21.644818964364575,9.754939374272569,7.409489147320122,1.916458040808873,-0.9726108048442758,1.3327325411956712,-27.360014643578218,-15.9281525804273,-35.95273915181603,-1.1899065520763326,1.2170287092777985,1.449667197181546
9.079550493262861,36.92455925930947,-0.6919309026187247,-91.66689464986477,-0.42364762181574095,127.36200371100821,53.55796185841096,12.535572372387575,-20.194371929605573,10.93725761226721,6.888690494160473,2.063361627477127,-1.2937444783619314,1.4127676598097394,-25.74504747012676,-16.116621992175958,-34.07733640866939,-1.3955138549039185,0.7744409804288723,1.4740959806862939
10.07468416019666,37.2550346561783,-0.7345861602210387,-90.92831283999108,-0.44415043170037194,127.05778596653998,54.57677069441366,14.696685259420825,-19.715454863014457,12.810354636152454,6.728925433963073,2.29340605935859,-1.4856862255240668,1.4243410950257955,-26.11284195705476,-18.195773795117287,-33.46810634610206,-1.559865551031863,0.5595272482697509,1.4755710215128346
12.00843991793385,38.191132760911,-0.8502115670180352,-89.21475365515039,-0.47618102510960186,126.47277455192501,56.65845101512714,17.992558637591877,-19.795517553286267,15.639469091886497,6.487846705839916,2.5882469423984205,-1.9054338773487443,1.2922564257938105,-28.62815773478225,-21.17122524017982,-34.09102301875553,-1.7603478076575452,0.38626012801881454,1.3353882935878496
13.73265073936751,39.430578747210596,-1.0534349276690487,-87.29209091971634,-0.5132639124127556,125.87849642129952,58.723051162702845,19.631857174196618,-15.520840375702901,16.896464209278136,4.41131249029391,2.6077762770066175,-2.410797312774398,1.040014369198686,-26.847501381835045,-22.5895411437168,-28.094381121175932,-1.972183013183249,-0.1326734823320929,1.0782305727968027
15.451500821649006,40.59132321053633,-1.166512309581912,-85.03865865735496,-0.5440294211122781,125.50747942908035,60.77976500300789,26.346567739918363,-10.01139970507285,22.673806500813097,1.0850887457095073,3.254099441054485,-3.7401300723115103,0.6022767913415337,-28.36302685272626,-30.196442370992145,-21.832791852616516,-2.419717766012777,-1.1307093386789873,0.624463781843954
16.34594583016441,41.90915172399415,-1.7980094314427153,-82.67076217618794,-0.6975567078322361,125.23304381890229,62.599090066918414,35.574060847082684,-8.368220896879727,30.38385194223959,-0.08821255291301118,4.65234814259805,-4.259537036888944,0.9886673503910249,-34.48113228544245,-41.11384767278231,-20.822572491859816,-2.9512670345250855,-1.0503401893089754,1.0029122065745948
17.222333337530078,43.57680625590221,-2.2107448301766324,-80.56882191137717,-0.7902844386175124,124.95164510407136,64.06385533496324,40.70310366140531,-7.518694306883949,34.33477712083135,-0.7453854838869093,5.00600281001785,-4.883529183501651,0.5288085396428329,-37.88374299522125,-45.61891001443954,-20.983844661515814,-3.305805045365616,-1.4545808656967751,0.5379704311595987
18.065938921869556,45.305332054328794,-2.454125574345401,-78.68910722007458,-0.8429539868899985,124.78779180811817,65.4985856074405,45.82365012338763,-10.55692631049678,38.22781241138711,1.052638276470358,5.533575121790529,-4.790477294736415,0.3952666814009568,-41.75726892799404,-50.34501435363736,-26.15801237963786,-3.595707901981398,-1.5071715443440612,0.3986111906553962
18.5305982775552,46.9815615569084,-2.7547962158671897,-77.20757731860581,-0.9051145472186644,124.75068794963327,66.56211382323741,47.789321897384596,-9.494532556307005,39.51407208518894,0.11447368381372774,5.675384718563526,-4.72988958319128,0.2566021417931686,-46.397945166227466,-50.475880532381005,-24.87060663465083,-3.35866030026124,-0.6327610280120891,0.26233443246178667
19.18751750323053,48.211527390086324,-2.716898864252097,-76.18864686174624,-0.9009902919725621,124.7611685206659,67.36572070452468,45.641688185293894,-10.476613720690453,37.69079463617915,1.6972667449750247,5.28752039644125,-3.757813038734505,0.06352429781637156,-40.41556545595297,-46.714193694319924,-22.478442312631667,-2.9390675657035628,-0.39037655751808964,0.09437834762154385
19.70477359041335,49.244611603887726,-2.5627863835188416,-75.72183707677733,-0.8910174673968754,125.14684117120389,67.74564282110167,43.828942706080525,-9.66176385189021,36.41498650241936,1.3866719131523042,5.102382551284999,-3.578456536269304,0.22411478701432092,-40.033075533738376,-47.53426853311247,-23.951669389938406,-2.9257304612825954,-0.3953340734269001,0.40551088620545106
19.714687354114908,49.90909995046085,-2.5070604343087757,-75.72028079240825,-0.8886330181676153,125.90698465131558,67.74641932423413,40.87827350040216,-8.272083539867538,34.135114115850236,-0.043629824827147,5.085640361984598,-3.658890745002848,0.44062058943221627,-42.71450487924799,-38.84432182435103,-19.40328399448202,-1.78314058130845,0.41984944952692527,0.25028932341331817
19.71610212738423,50.04281848763834,-2.270413342982586,-76.3225525869927,-0.844567252881855,126.97319466108046,67.64923624141763,37.01932471887496,-6.592585963896858,31.34247118028435,-1.4038582245345217,4.623956574822037,-3.566364733830954,0.20060921803395693,-40.922711783338634,-32.983920326912035,-16.821976087555903,-1.004465010909383,0.6427394318419503,0.14367122660847992
19.494268459026078,50.02832840904722,-1.9546500586610986,-77.5063280229879,-0.7694272959981935,128.21288195321324,67.21004631371382,31.709334982135093,-4.7683478968796615,27.537859442233678,-2.693529691544392,4.0036378876429,-3.6006960087546065,0.03306947362764345,-38.92897043202546,-28.566366979470494,-16.53634067413321,-0.4517722320248702,0.5896201889108512,0.06079887403759684
18.707181483518433,49.87578198370185,-1.8307893146283707,-79.22927702010476,-0.7250595763769954,129.60915058630755,66.3548723039981,28.278632186507913,-5.601726390528906,25.209095112024176,-2.433432305809557,3.699034870852342,-3.468784329612011,0.22559971626125333,-37.904879839758586,-26.75356910315261,-17.036913804913812,-0.3318130014698797,0.5706876167074234,0.16646974757861732
17.63835862299253,49.40079303695172,-1.7002296184236094,-81.16946128160423,-0.6822755533962371,131.09658272924293,65.08721031463665,25.880356374911656,-6.594563461584887,23.529632593215307,-2.5542081987896337,3.466328248582371,-3.5895452951424245,0.49197968663191294,-40.66434913888286,-21.988437038829787,-20.53955121688455,-0.05899157850288328,1.1146618846293144,0.6451430524376134
16.382461885198964,48.864985050993084,-1.4685148408488147,-83.26910116722375,-0.6303581977999012,132.52772481768486,63.459278609670534,20.596694299276166,-8.621792549194,19.194584034404492,-2.270437588406562,3.0739608817956743,-3.342542144248097,0.9571675074126924,-38.95802591841354,-16.776823862278533,-24.42994213027922,0.12283772229748591,1.6950656497387042,1.0378083069098323
15.030072923029243,48.43056853685142,-1.1475374252457025,-85.51172267558424,-0.579059847466073,133.76035598060977,61.61714243385067,16.51185899002553,-11.671746389482063,15.784506596385128,-1.0372818892445717,2.7924087831836077,-2.7832523723858005,1.3237801576476218,-39.987409853966774,-14.039679180178522,-26.740536041619663,0.2926050145838678,2.084396465000001,1.2588462383576289
14.300197901928515,48.06072122895557,-0.9754574470222882,-86.5636768151573,-0.5444774831294349,134.347382672546,60.633739321090566,11.685845292812136,-11.637206371738877,11.617493220429072,-0.8246805898217194,2.4423190992750983,-2.4820571696136366,1.4661762923681574,-36.15867866824493,-9.713993104555447,-26.1963376594954,0.4467618051760478,2.008145993635376,1.4049377623231394
12.58684748918716,47.12078933169971,-0.7755802366760014,-88.39302047753074,-0.5194741285829363,135.39318391426278,58.59818988724235,8.855636205186853,-12.058438783724384,9.398631249049371,-1.844410549913735,2.545923513557168,-2.641276136597951,1.770842971025244,-40.23520603790239,-6.551509515488567,-27.96074662939185,0.9078997614597148,2.7310581356209975,1.6944635237962855
10.714989612526056,46.3110175571129,-0.6141526672259948,-90.03736421124104,-0.5085752530037563,136.2770548311647,56.419187175222135,3.2220249836297152,-12.54632352281562,4.319517245846074,-1.230000855579816,2.3406138227504796,-2.1795311690867454,1.977253232738027,-37.03474108628004,-0.8554968337812721,-27.903749743303237,1.2060176793428001,2.827586608238963,1.909616502259484
9.228714648334854,45.48224391015518,-0.1005354882180662,-91.48628820690716,-0.466617184901866,136.79579666115467,54.21385451952893,-3.8158204396988054,-10.71114438256839,-1.8799619281463933,-0.5387318283328069,2.3122612726642657,-1.630735899244852,2.345061983875823,-27.95697347507442,6.008440515940815,-23.168399262089007,1.7126928082717778,2.112090824827816,2.2651937316917543
7.674195281749977,44.51277838041982,0.3202284373152129,-92.59577123238364,-0.46270543015142274,137.0712979915326,51.7761226669409,-9.366246713831297,-10.148160640417103,-6.750808281706575,-0.355915166533441,2.670311751823862,-1.6751808056562034,3.2949558843812023,-24.907360738490404,11.106342199950443,-22.040071089826302,1.9475537003724352,1.6474103202796009,3.1830197099228412
6.045192944694172,43.73694057558095,0.5617476304093225,-93.43225610819422,-0.46365337822666935,137.08854884257886,49.44077472140997,-12.262286327664894,-10.285706030231871,-9.297402656756434,-0.702300864883915,2.9303382547676784,-1.9291253821815288,3.895856925517815,-26.67380477083882,13.520143030170022,-22.776335171325076,2.0742830655813,1.7182093108548016,3.763145235037518
4.488857785469321,42.94811506900861,0.7127262293676597,-93.99902646855577,-0.4645995332403181,137.02233591239911,47.36447258209536,-11.720102422859531,-11.912363146527467,-8.992041943099753,-0.33320973010132,2.9239778687066984,-1.9799240820015613,3.5949431576563398,-29.535250091514584,12.453338134975905,-25.624008624985702,2.10995754653366,1.9925678484661244,3.521809307434519
2.752392958692192,42.44359424243399,0.588347818668827,-94.42363952071128,-0.440402390939945,136.6297236200449,46.07578540192302,-10.497093104399749,-14.084784885822561,-7.975301385665311,0.34584000151237315,2.6303171714335893,-1.739446728991284,2.8092104287631314,-34.11735417867918,12.063296506471797,-33.16764717265166,2.3088079743316254,2.9011139167228,2.360920425231848
1.5622399502873565,42.01823073196431,0.6134826743711791,-94.83923961677213,-0.36191983902921393,135.9661255221269,45.15488647672707,-14.127895825576465,-22.81392145273927,-11.16128541687961,5.781755938942505,1.792782124580964,-0.6382272899964448,2.212214182157929,-32.87190129345663,16.931860728241087,-41.04409665654702,2.747445271766182,2.6619178652262936,2.0981417488213725
0.984694108424602,41.58395038697363,0.8729316509392498,-95.25148085693242,-0.3304881833233419,135.06287107407195,44.19828023581377,-15.922387956330413,-24.539733935585264,-12.848656878306505,7.756854178975271,1.6533932721577493,-0.037001714932459184,2.33412136562922,-26.22851730789253,19.72912482996881,-42.06412980223739,2.8228331252850913,2.1482462293286613,2.4022041532722196
0.4738993615452047,40.82987430537357,0.9514104983311363,-95.46349684087188,-0.3280972922336002,134.119155569233,43.36801053618977,-15.348364258838394,-24.315220976116493,-12.318143273813664,9.274075249215295,1.8440241214884163,0.829814689588348,2.617763301039864,-23.75999763915456,16.286588907255332,-39.07655716439782,2.4387762478368122,2.6222165110304623,2.4737238783482773
0.00599145653995104,39.87638417032096,0.7647539667165387,-95.46517042013012,-0.3240881224411526,133.3740075201135,43.12714555223297,-12.146651437748277,-24.436928975151105,-9.834259822758433,9.031217406454294,1.7057468434027394,0.43601441650057543,2.101032732608897,-31.6780227611098,11.497325301602766,-45.449516035978235,1.873408618247569,2.3228536913665305,1.990940444710769
-0.07985276347210171,39.359231907179556,0.6070481057792233,-95.45585847083662,-0.3131676803944317,132.69270785531953,43.165322945235076,-9.558588306334771,-27.191359470078073,-7.877768117408872,8.626660565458181,1.43253486657156,-0.49336608668233706,2.086709610618191,-32.98530256365709,8.673458401422025,-45.60640371165615,1.1418279409524523,2.545690395943059,2.1639642488151147
0.3245996129283666,38.457165913182735,0.5545778663591587,-95.4540849408816,-0.31399533921062384,131.87948977221632,43.473796422812356,-7.81359995365062,-26.878418257548475,-6.82249545413574,9.027572120555531,1.5268550898096958,-0.2272844316211654,2.1899946701190265,-31.385170200917127,6.268261198166055,-44.56899484946012,0.6389724782629156,2.513188695934078,2.2819236056697636
0.6622955846066371,38.16710070630627,0.5192768835771394,-95.45502976503292,-0.3136891610775558,131.4583992091583,43.78053826600069,-6.045204498004268,-26.887670950788262,-5.540060413455762,9.586026453143308,1.500162574863772,-0.0038100582644347404,2.1779846158408533,-29.780765760141918,5.287321785325155,-44.24477885060591,0.4854251248531909,2.359051423083974,2.2860207440405693
2.0803373814577686,37.274378390213705,0.2992043205249018,-95.33095122325372,-0.3193155357422349,130.25662742247812,45.34520958491548,-3.035120954171481,-28.38031826165922,-2.8281413296908324,10.741222766852466,1.6625933862251887,0.0015159788933246578,2.046944770282761,-29.94487968873791,-0.39761729225392894,-46.82676291899814,0.08955529907867033,1.98972789393372,2.1811120527220154
2.6887951557993905,37.10930814576216,0.20576501657538798,-95.17658156256758,-0.3337833392885309,129.93583760801621,45.992501066888885,0.11338641047025538,-28.776290562281815,0.014117086037515856,10.719238265373253,1.7234271224968425,-0.30952633629120646,1.920031823278011,-31.12666373318255,-3.89595335155483,-46.81689796955055,-0.1279597056189279,1.7758844186095506,1.938060126574371
4.088206305956741,36.899073748845815,0.006660527316800356,-94.72963070768867,-0.34400908552720166,129.2733740432342,47.61337995807579,3.8592605452786626,-28.75938925260988,3.3949691414937155,10.095731707606163,1.8826998148687712,-0.8754005827670428,1.8269119685630273,-32.63432578916163,-6.122014592828577,-47.6645617729947,-0.34425907494214103,1.7286460454527381,1.9154271610614293
6.6424268169211516,36.30275690213604,-0.2231895916608882,-93.43494745262346,-0.3645407796859397,128.15817474159138,50.49227274676507,3.8501494581520994,-16.67377500183509,3.4284895118509415,6.655906482003313,1.4597930946663256,-0.18633605276143042,1.3489751417900997,-16.22596737198781,-5.862487957090937,-27.04934048482059,-0.33659272818562425,0.748549526144725,1.4027677349505914
7.723978616558486,35.919488569888635,-0.18414673618649402,-92.72898521981749,-0.3599759224242784,127.8214731980903,51.658666210071694,5.584219929630484,-9.835920123436336,4.834836629895159,3.753249226479763,1.0764479427348916,-0.5200697678345363,0.8689280908820934,-10.45149874362964,-7.841392337004396,-16.534455844698876,-0.7427647885846939,0.0811954592065493,0.9115016732141803
9.590864738075158,36.099335919741385,-0.30218277317977266,-91.36095651057667,-0.3663676392455162,127.2276125444808,53.854025998221026,13.209186371242765,-16.613308706304565,11.5897111152219,5.598277990023845,2.2692123008465352,-1.0960608989375211,1.3843861580720143,-22.59463625042292,-17.062914745538414,-27.95516648534185,-1.262577915380608,0.744183938738427,1.4496420048531384
10.95175981420695,37.77877856164962,-0.9328092150054984,-90.07104297563001,-0.520500248281142,126.72421340216752,55.66439430012815,20.04646868560407,-23.344514086633787,17.636784505121344,7.411987879850154,3.2419373435257657,-1.6516881772220973,1.7601951675583698,-35.51006879828568,-23.918492430018834,-39.25961651185943,-1.5811186040746432,1.5479884790206904,1.809092767427553
12.581802440609497,39.239159761437044,-1.2574810832026535,-88.35094608382795,-0.6047182879656533,126.14882070345361,57.54821909789588,24.667655897851173,-24.82785359315516,21.479701611200273,7.834974114288289,3.7289203335282877,-1.9613750495888944,1.829603331861985,-39.997209225869874,-28.2695680736487,-41.97049995516741,-1.9269895174429998,1.6330021350641735,1.8723473391640688
14.22620342191474,40.689205639355144,-1.47679303733389,-86.38443943907765,-0.6593411948989035,125.57818484872432,59.433564302847444,24.80643056168208,-22.537036330621028,21.370283685384507,7.785535608451723,3.586447986959476,-1.618267911256841,1.6264277277424664,-35.19530561121144,-28.043271217507392,-37.90834451443926,-1.981257319350954,1.1845842764545926,1.6519184577390138
16.025569668896708,41.93988852944242,-1.4802708534278146,-84.14064382911043,-0.6602354964448457,125.05273364753842,61.338398339233905,28.299147154580893,-17.426657736923914,24.073342568292052,5.510691033171781,3.814839214306542,-2.0526548698837237,1.4819191381267702,-33.14121479150596,-32.37385312424862,-30.74217186588568,-2.437059202729196,0.634693899891607,1.5002560071386168
17.203336122862243,43.42501834674517,-1.696942414458553,-81.97925030750487,-0.6894045408212571,124.64878408820725,63.011870916223174,29.71724330562434,-17.698873466583095,25.11761513065933,5.846731955443932,3.9974602452748744,-2.068078554512617,1.4554045327706817,-32.374304273098005,-33.515647690782025,-27.636392390884417,-2.570240756479748,0.3789332682686226,1.3953470976718072
18.446474966141515,45.07708118021749,-1.724444047942035,-79.95029142021586,-0.6921393215568801,124.36422784069194,64.48103346502123,30.67567378089792,-18.94154905685694,25.54108694866874,6.593756310777858,3.947005564971786,-1.9154265502349188,1.2355406722239595,-31.2999238128112,-33.28467694958539,-35.95096163936247,-2.601995277555801,0.19938657442769128,1.0283751245287338
19.501182018511454,47.176864711542194,-1.7078883916763394,-78.56841207996376,-0.6890750409452,124.0524484634418,65.80132806094697,29.234301920766427,-21.643921631253573,24.16255990121073,9.316818057218567,3.5725075878423493,-1.1776082170788231,0.8009690830377614,-28.92550360550336,-31.545491343942984,-38.282139006792036,-2.503456553538924,-0.15702149861455003,0.7151401399717665
20.28546411564779,48.61057454506403,-1.6651501138608822,-77.34439168619295,-0.6837357775957614,124.02332923655177,66.7524709272311,28.692410025281387,-22.802502080470422,23.565445636841396,10.52777127150398,3.4086990714897367,-0.6705181154182501,0.6771367512914249,-26.181780876270807,-30.022649129883646,-35.980575557849704,-2.2465202412408223,0.059114953552934696,0.6196961330162418
20.78544598733808,49.65582258941831,-1.5587440101989762,-76.55019240175831,-0.661982863464982,124.22757465070127,67.36290888424382,26.92093658049206,-21.670243097945693,22.03654805382895,10.625761752322747,3.1373538860579147,-0.02269344281095721,0.5463731453008365,-23.7510492026628,-29.043099909526276,-33.37489678456273,-2.094530450257102,0.10019395253593176,0.45723883974558
20.95521793601605,50.45507660335118,-1.493553953427256,-76.32808306229128,-0.6430948408531734,124.84658722437652,67.62659357016602,25.55798299712777,-20.569543901233395,21.012669357988596,9.860704040002016,2.9554152001448233,-0.09924752028544573,0.48038822980536017,-25.94894859757529,-25.986598188924606,-32.220862152864306,-1.5543230256035374,0.72908114494798,0.44126481266799644
20.952999675513915,50.701125683060575,-1.4741895292298464,-76.39103229686305,-0.6357326549849708,125.27316055102914,67.64256392029293,24.153311618623178,-19.98901383462006,20.250242844033707,8.773601474294605,2.840958158631296,0.03146418721181392,0.33505984424910173,-27.779673351373013,-22.11722398014144,-31.518761958046717,-0.6336640084660946,1.2460298728874697,0.12478796029141179
20.53160331339962,50.96217079442745,-1.3355748567212125,-77.58176656710702,-0.6061392654431319,126.92655847637724,67.3968667573891,21.690640370376308,-18.954814370680673,18.711226854669526,7.561844733430587,2.6809570622841568,-0.09423807232621911,0.21824277136299872,-30.019935930022683,-18.561058084634652,-31.276801454680694,-0.15287274524593938,1.3976199982293533,0.15554983565829067
19.848164698390207,50.90368409148884,-1.2330800123238037,-78.99335624610916,-0.5876837198000601,128.34741921514959,66.75129780512229,19.575761223457103,-18.633235627951336,17.429589739369945,6.450935635189626,2.543843054761741,-0.5762556423755154,0.23155383306638314,-31.52079348721799,-15.762497255917651,-32.11411377603752,0.17070993185553165,1.5401452443259258,0.27693197143475523
19.37320590739439,50.75044877167994,-1.196325239359662,-79.87308688440119,-0.576347135974931,129.09743586414078,66.25338610143058,17.808225487403515,-19.075877463702177,16.16027337646277,6.036254979653076,2.4459762808590626,-0.6346083402834721,0.5221741697477795,-32.70582693965258,-12.716542452675057,-34.82281640551943,0.38906638131655585,1.82941297653462,0.49899864945282923
18.254618607842346,50.390091062211134,-1.0980884450888306,-81.81720255858541,-0.55102971297597,130.55637705930337,64.97652683922436,15.693137814788477,-19.70373954108426,14.616856402145013,5.7274617476787695,2.2780259735296458,-0.7853283720520303,0.6849166278264914,-33.289511108348556,-12.210200654393972,-34.63667437174166,0.36005694701262664,1.9201071383923851,0.6049531387592643
16.90093512417342,49.70021373574814,-0.9650513664901293,-83.92627725183749,-0.5126549987990027,132.00139287563874,63.47442209941498,11.408976112235246,-17.205222512354315,11.083173377731447,5.112048373043022,1.8674527881049716,-0.3714285469847849,0.7077987489765003,-27.06686202551131,-9.042290419922635,-30.025664148206886,0.5623523887683507,1.7476902079709604,0.6215009059183347
15.461595063839544,48.68352865337402,-0.7268290249144429,-85.90532205603738,-0.46695001964573873,133.34684738760834,61.80078964343024,9.218527984869656,-15.38082180823929,9.287080358511833,3.187640017639594,1.7714965067527195,-0.8417617737171592,0.859899237265059,-29.011547728810193,-6.482430613533026,-28.516849299170463,0.7198738855338048,2.02831799770788,0.7785735764917968
13.656844901233692,47.77182416324431,-0.6413580992867389,-87.78320037639092,-0.4579526082026757,134.62373515085977,59.86523773359304,7.089753591338702,-14.190977016245848,7.446518767977755,1.9404990489048393,1.7925593781824463,-1.0059510476053948,1.120860430051895,-30.14206274216516,-4.57614876838028,-27.393144374112797,0.8293968323845372,2.383006417248585,1.0521911422014727
11.907916398803117,46.82533536209714,-0.4160639327282096,-89.49252812402656,-0.432558838924909,135.6023450987022,57.780121945145815,1.5113155318068998,-15.358284506944305,2.6821040669860206,2.7809466837792938,1.770572338560557,-0.6095450166934124,1.3466530774877483,-27.563202684250214,1.5028595629020423,-28.740328820617655,1.4317461701776948,2.3638358612834605,1.2735249753952806
10.15209445780361,46.21989880409999,-0.17604746205393748,-91.14958947410211,-0.42272820200620503,136.2701571267832,55.556199020595585,-0.112941630063994,-20.638521395237824,1.4717116198267435,4.579789466538219,2.1809851998562393,-0.33022561511631554,2.031607241925875,-32.867607512467885,2.538658238630455,-37.634307669690145,1.582624002534596,3.0529776456422084,1.9273936521512736
8.204812674287977,45.8338252516038,-0.07567632854581016,-92.56230830587425,-0.4250167271128418,136.63547155170463,53.13652741046932,-1.847588365967445,-22.211918338637727,-0.00027416932559787277,5.599192619475526,2.2601438205240494,0.042294069288094954,2.300379446067868,-31.546071535510663,5.729370713532753,-41.452231083346554,2.043534889958696,3.241951709628765,2.34540981106718
6.500189000452559,45.14038030771027,0.14316425923731657,-93.63448014993656,-0.4266019230609658,136.6915597726255,50.894544263359826,-5.292826773421041,-21.280167769843345,-2.803995104046598,6.444521684304116,2.5194886831287877,0.7229599471095278,2.638219849493335,-26.910365337246933,6.001079082144949,-36.45658775336101,2.1201603113673118,3.095878257454638,2.4848813602439592
4.6797617173586055,43.920174067267794,0.18244505649309864,-94.19763923287235,-0.4225075302406427,136.66439630042888,48.97120953507951,-4.896580536569866,-17.101837757059627,-2.617563333934946,4.767153669482325,2.379327525255749,0.5407937348004725,2.325062438061108,-16.022549771644783,2.5486010429174097,-22.313174258150624,1.3581739286597982,1.9490161567230517,1.457194250467679
2.812168440630744,42.51190862024794,0.08374823511294492,-94.47628279961062,-0.28683909475240316,136.40485015653096,47.88220586626389,-1.9152895341917684,-9.544479044294404,-0.9213790331193952,3.164178692953075,1.033077339720911,0.43506041893249625,0.6924051381358028,-9.977908282671663,2.154728047136472,-10.946392633180354,0.9109879388686897,0.9693525339289788,0.4104001323565347
1.4149560037924658,41.28375621747508,0.05399341742403977,-94.5365886362552,-0.22641961021328266,136.0416692637527,46.82621578451505,-1.4629408670775255,-4.438352604707991,-0.7518144278815578,0.34354218302361494,0.616357014927882,-0.3480170055461605,0.3130656369970998,-7.846813502314007,1.1357354941947522,-4.369056470685241,0.6937836684252054,0.790249373440978,0.21671406499183787
0.30449760389010394,40.24790390320169,0.045651954163522385,-94.62419017539544,-0.20470710240788867,135.4578093215828,45.85013631057253,-0.8552054860985335,-1.0404276921461966,-0.319943901574268,-0.87775590219474,0.4877426078843523,-0.3665833357709671,0.09326646871386514,-5.9966482728956985,0.8808627610539871,-2.048516332098121,0.7502633634477238,0.8669586113476829,0.06590359358689722
-0.46668829706672715,39.46394408865526,0.011019777175498475,-94.70069198809723,-0.2001747472127681,134.66213962440415,45.04121334716332,-0.10669667970777985,-1.0457098535372915,0.32130762477978636,-0.9632275634013604,0.5191596836623973,-0.24006958805085082,0.06747553895842598,-6.526999453996112,0.024017474725476523,-3.2127871517721274,0.6867726578853812,1.0453906336510095,0.11578431063171915
-0.841660261425073,38.74565352086194,-0.002124478778407053,-94.82114017806363,-0.20053003060800717,133.82499302329722,44.530075951874345,-0.2836115394589637,-3.4783822074530875,0.2589279902442214,0.483643045252178,0.5874691411310192,0.09819877955820873,0.1212565713726003,-8.123249274693638,-0.026816843180570343,-8.07696486500508,0.7739050968195927,1.2977044448746164,0.1252538089172103
-0.8706938418781859,38.189432023107244,-0.0008346162554634002,-94.93767052403363,-0.20168003794895706,132.95895187258603,44.3863949015775,-0.044422458331785736,-6.880873746397552,0.3559172188003269,2.2790937936026703,0.6504527557594466,0.42069967170707745,0.16259402258114497,-17.01933328165357,-3.092102623737695,-22.896299225215248,0.46200171206289015,1.7724712238237101,0.4424220735014931
-0.7293226105793581,38.1634497946149,-0.14496678960206696,-95.19248275162161,-0.23542460411697927,132.16934794614855,44.37534451932899,2.45086406751849,-18.19757626348388,2.570654061636287,6.181315390864544,1.2305429945193755,0.194813354096674,0.7131611019215698,-28.294860449975133,-6.163687713175625,-35.43220926479998,-0.16612819490921726,2.7305246593189363,1.1813670157052243
-0.4561805832639342,38.101710891854374,-0.16899771960654786,-95.23680638187523,-0.2518899171704138,131.8005620304814,44.38957797649737,3.3433114430928463,-21.70854409023168,3.083726024989375,6.645913383098692,1.3178566171237087,-0.14615968718442285,1.1838237150569166,-28.750123516276712,-6.728846393446388,-36.01010258913097,-0.33109495557353197,2.741645782141571,1.2344318250904074
0.4382480663088444,37.2549461749759,-0.16429453754221002,-95.21916000958689,-0.25663908687880066,131.02596250420092,44.91902364240395,3.745680868307095,-22.11989794501343,3.291774435820576,7.888979917937296,1.2793521332634337,-0.1904716929280469,1.2617934061314513,-24.18838310323168,-7.0265765889158605,-36.587253395473184,-0.5354897892814308,1.6728312492209005,1.3204290624072499
1.5273972207496647,36.9334962436117,-0.2577623470385658,-95.1039882666278,-0.2910476472519733,130.3171179162557,45.84630117553705,7.4908189706003885,-24.950679860200896,6.691033364567085,9.09596863464044,1.648833649798866,-0.26056026932588777,1.3583459232808834,-27.01216895620735,-12.023608795340538,-41.0937850726329,-0.8609530791429646,1.761025357507002,1.4174347154733429
2.7886036796051474,36.78397194000385,-0.4346925419454195,-94.8875748578093,-0.3181304125270759,129.5703921606044,47.246222299672155,7.456706727892595,-20.77135419482615,6.746230682622743,6.902138648782658,1.5671537004968779,-0.7833635022057159,1.186860155853389,-25.407413084620618,-11.102450348428771,-34.76536463692487,-0.7129425708223951,1.4105039149241525,1.226074894345568
4.5396621278581595,36.12992947803377,-0.45507217062924915,-94.06659825528017,-0.34625045766464335,129.03400570358707,48.89139189466683,12.19818627567246,-21.273358030511293,11.017482821756012,6.018352672047279,2.25831115036308,-1.4458865149468216,1.528711418743618,-31.185805059486036,-17.185680807654304,-36.30079472121786,-1.0813305952260657,1.695105648913008,1.5729587637355875
6.087622983266249,36.151778457895894,-0.7432700462430964,-93.30221409458153,-0.4189486113751938,128.27224416446586,50.62748533972185,9.410621111622136,-12.968842286311851,8.576044486373283,4.8660203916138824,1.626098691090808,-0.30237186496855434,1.0467571079113147,-15.166629863356752,-13.304879467784065,-21.245975258713695,-0.816688571843907,0.769478932722248,1.0527154255724478
8.488922332946439,36.050506977604535,-0.5132959208189223,-92.02778383887627,-0.4057284059795136,127.5259467089174,52.83970074211441,14.782734043836596,-17.43798780593902,13.149989807264367,7.302680687740579,2.0709416637784823,-0.1899078996532203,0.9694879978168902,-18.234994628345195,-19.808664506171972,-28.256389594610557,-1.3607706632746805,0.687577071947723,1.0024089018939089
9.954306032875035,37.245373513451284,-0.9630669186642027,-90.92913182514152,-0.4482146896664635,126.81166955622335,54.93198918885374,16.68812151327511,-18.060879409083235,14.553083302340182,7.537664855042169,2.0747741344693322,-0.4166663686974545,0.863740947580999,-19.889838778897705,-21.329272116540043,-29.50179865461023,-1.699809080911957,0.5719753057148842,0.9071309071535811
11.998940367612896,38.18062657121516,-0.9967279636156915,-89.14804373876574,-0.45241083762448436,126.24345181023553,57.06300518739002,17.770192744586428,-17.222755748051014,15.496437881180208,6.467527434284878,2.0817194126255862,-0.8336563697074849,0.8063720726753719,-26.285427563450938,-23.5260899427518,-32.01514012889725,-1.9186744590148477,0.9263905581339251,0.8561288025824924
13.6382530017551,39.522299579320226,-1.2178046702606418,-87.19032954598012,-0.5180092926120646,125.73063067948847,59.021198456272,23.95454254583498,-19.93779078257238,20.515237446493995,6.436377543212245,3.0043739691459566,-1.5003781259580355,1.2517855515861005,-33.81536654232806,-27.121514178312605,-33.56083314754847,-2.125221407894583,1.5520896046539452,1.2839998235036554
15.23688256333425,41.14387132817149,-1.3920159445986413,-85.19770766708716,-0.5741041234950418,125.15623165077221,60.78036591640025,24.597699645415698,-20.07016962857387,20.924713065236297,7.479840542012664,3.0539722014803408,-1.0604931215810887,1.22483653918408,-31.43525179856865,-29.059778210288737,-36.80469488363949,-2.316750848516192,1.1658395192985687,1.1720513865305904
16.784254326966558,43.03377786391455,-1.4621728959855502,-83.23640200198216,-0.6018324285156182,124.59407906408163,62.500311083353054,26.619767745685024,-22.8595325385052,22.412941590134658,9.57249464722896,3.2310081611251524,-0.7385687864393172,1.1434039686124338,-30.37075045927555,-31.482211614863925,-39.755320675496414,-2.5625303538072486,0.7439729297379144,1.159024361488023
17.956134761140873,44.915821244155794,-1.626853008914063,-81.27944929381856,-0.6473287700206743,124.24719267505807,63.957963606086196,29.556709075589993,-25.916713955544726,24.56735905751216,11.092265201090807,3.6051509672735005,-0.833517089451731,1.1829662734630078,-31.000703641158648,-33.73626587054048,-38.48955328762515,-2.790663206606631,0.5358292815102299,1.1610119609457559
19.0078827315412,46.438555730935,-1.7120534819141784,-79.3885583379647,-0.6599863183753664,124.00739089299277,65.27049413717639,30.578828134110978,-22.928751692489204,25.163778449505124,10.347097560697174,3.60312862411435,-0.8349319253399774,0.9663851699599517,-28.614828142495874,-34.47056961486273,-36.10698616917377,-2.9047190613796374,0.14865800558969164,0.8959972275261268
19.82087585150464,47.84272943805156,-1.7173847497902186,-77.82017227811662,-0.6597822094247487,123.952717343323,66.30459884364768,30.795407650368205,-22.044633392209192,25.0691461016767,10.094383983341814,3.553962099070317,-0.7409541091026032,0.8379107207707671,-27.895791074935357,-33.90607909284574,-33.90844713124262,-2.7801241574001843,0.3141074435135014,0.7836873952824122
20.466144266642466,49.07783422619325,-1.687737835532794,-76.76591707769758,-0.6567656685688025,124.07016914596876,67.0844038400385,29.073362104316743,-20.92778878625233,23.54322161872201,9.771855151606545,3.3089681239015256,-0.4100601612797152,0.6637898846683129,-25.157160318357672,-31.257692908828037,-32.85698283719669,-2.490669981833501,0.08905092845336154,0.6353480173994404
20.83515500802856,50.01193760220582,-1.5972546096981695,-76.27458901039805,-0.655824768891774,124.62614151529331,67.42479169119197,27.926409957638732,-19.404411930172124,22.865187722554577,8.93612245727111,3.2371634831855967,-0.7170997907288063,0.8423405798584503,-27.847657772475674,-29.641882417471653,-33.57570026460633,-2.40261048409438,-0.18797128699439603,1.0160409765406189
20.806719573036926,50.689258857226136,-1.5981497801863718,-76.31300067922162,-0.6574239340113148,125.53670199325681,67.42251565518247,27.187287477652056,-19.59379028650242,22.67520125164986,7.608252729484904,3.4766961672986763,-1.3360102477027973,1.0100163171167078,-32.05494441270223,-26.23917340616726,-33.52808265789673,-1.4022682339232189,0.5786728171239867,0.9110847912391834
20.729813270054816,50.81981852715138,-1.5860052236217919,-76.54902895148648,-0.6572136334626789,125.99908517636528,67.36739249106924,26.6523142356266,-21.348987821119998,22.720866554843433,7.953396646988764,3.5728214094092445,-1.0608124551522775,1.1280331242482107,-35.073324766510495,-25.76041773705913,-36.13906948080425,-1.1927348361959118,1.0747541467863502,1.0461457639188503
20.18858191252254,51.10692180720682,-1.5843568045610426,-77.6016437811913,-0.6595536867297651,127.16254521791176,66.92075167516496,25.08883480469199,-20.754291812680886,21.958460823391185,6.78853003285557,3.5948503530673315,-1.2311988423577345,1.3095406121162563,-37.7948757919094,-23.223004472739348,-36.0755038785653,-0.6561094727249368,1.5423291167864104,1.2092176875434668
19.5570610815212,51.063376224153785,-1.4666488258738841,-79.05972380915031,-0.6542881854359357,128.49503927180731,66.16597441712243,21.85398357356989,-20.1385428048892,19.714364447569093,6.207733770003348,3.2153534452444696,-1.2851319894218933,1.1321771028191505,-35.89413102225947,-19.75726270087229,-35.57016000349963,-0.260505351801266,1.3591108494573616,1.0210251165295698
18.61605480252111,50.642956799564075,-1.3357068575743205,-80.89370441123059,-0.6355980240922234,129.98812447998895,65.14821439336835,19.377908648808106,-19.56203391902238,17.922053949427667,5.286949191572458,3.0454821855471383,-1.3805456495707251,1.278445384125928,-36.439355084001,-17.057403775581733,-35.41238529622398,0.01602162215715297,1.61681710753635,1.1706343502753325
17.37546610971709,49.997376647813965,-1.2015185770634993,-82.84567035463631,-0.6131292153394906,131.4941856369077,63.816451272653,16.030560087309947,-18.677733899728224,15.25636693457351,4.99114734362215,2.7657697494936526,-0.9961653437060453,1.2955053937534702,-33.29154527054489,-14.30039301481594,-33.729199756315374,0.3081329530412409,1.7538762977128632,1.2026466116262151
15.923449367838618,49.15299431192381,-1.0673761872608643,-84.92883466847142,-0.5771640710317235,132.8320427368448,62.249633514912524,15.039652653476905,-17.674275847639432,14.533657914036658,3.5909904831503505,2.741227822827169,-1.1588809510300677,1.4701545856770168,-35.780938340456046,-13.499038156362893,-33.14917726950232,0.40236153998383495,2.3291810003922273,1.3928602963324852
14.174930944618191,48.38784090248417,-1.0097792560319305,-86.91703034662925,-0.556249089362677,134.1302602238277,60.40886250859545,14.081163999793375,-17.37819979153638,13.715082186309061,3.0764728592146615,2.6776233442734387,-1.2074183988727691,1.5786747463905817,-36.43815148524907,-9.557339781921048,-35.09010730036888,0.8285572454511068,2.713875462450462,1.4711095195172186
12.511031361775606,47.59275674956731,-0.783741187074833,-88.83465217920038,-0.5236029287672316,135.14287747184915,58.4642004867766,8.902877896344679,-18.87023761363252,9.534389683438496,3.4447710336387223,2.4792105133934657,-0.8547033974094851,1.6548794936086817,-35.93843277976542,-7.467504821817204,-35.48150666803406,1.0204701862779098,2.9170077636246634,1.562496354924102
10.601186458938248,46.86256141094943,-0.644471559266984,-90.50125438932403,-0.4996355556604103,135.98361204946664,56.37567826684762,6.686666346131023,-19.010566921493748,7.529965118386015,3.193478727759154,2.368303031972595,-0.8169276241013732,1.8214386538364489,-36.197094818005404,-5.82738789140835,-35.97437315748524,0.9978239858413243,3.1630893499014494,1.7263670076684279
8.749985256146571,45.956556788457966,-0.44034639491509664,-91.7931293224487,-0.4729334030268674,136.63693795706723,54.19961805772972,0.9411359323843741,-20.83897127539459,2.453156877316388,3.524917148205676,2.1330223878092442,-0.6820242422997274,1.8791486060256157,-37.93505255975997,1.2706972116321866,-39.14120443443934,1.5685183284593327,3.6266159158529745,1.765984160673003
7.134367723430654,45.361582945054884,-0.10244565633365667,-93.04892428409626,-0.41821629397498933,136.8032544429293,52.17030046862971,-0.4348389410111742,-22.52163231690811,1.2124297765094227,5.292639388185572,2.0256528631096167,-0.13431306494552345,1.8036008354565582,-30.014142590690156,2.8919886171731273,-43.131804264459944,1.8064007388509609,2.8312843397975684,1.709019600321263
5.345704814104007,44.82662170805564,0.013074754116522785,-94.08743262564042,-0.4062836555067685,136.75459332297385,50.15590452716484,-3.3829977594601073,-25.266021544126506,-1.3323591043741225,7.639062744740235,2.116257835716185,0.4800812285698331,1.988568232710054,-35.00117122559912,6.6966815817288,-46.31224678945687,2.2237281422019235,3.364138088171998,2.10116709288916
3.8745502182125913,44.090439673845445,0.22430280842693082,-94.56200782814211,-0.4091959863383284,136.65670051451318,48.098034771393074,-5.786774527341063,-25.7298485809657,-3.181543372244848,6.823459708677814,2.5150344998399046,-0.006641102182265266,2.6320550722606817,-36.06316760655891,7.198506215722445,-45.51750127519035,2.3649341684678316,3.4414147983048613,2.6260360403453245
2.4562358416124277,43.22911222499299,0.3039303029708201,-94.88874697655136,-0.4106287800499036,136.29500675288915,46.282329846033164,-7.370560440765017,-25.798513976217006,-4.553102716491144,6.337913816923252,2.672738634719173,-0.31661123329047025,2.898711763710843,-39.14126111451755,7.837341277047868,-45.937892982528666,2.3695744048127874,3.7827340709308745,2.8268918631714994
1.339945476990296,42.48932600471783,0.39931985586794794,-95.03581532180834,-0.4098337843325944,135.76863334766793,44.82405348741668,-9.019913517560335,-25.599055656293114,-6.042767140344199,5.951602300342209,2.689153120732741,-0.43738520109915874,2.9841690121638837,-38.88119805701797,7.9241575801982025,-45.835365501412234,2.3206586408056893,3.751200560964243,2.7399076926762786
0.4416287355409247,41.6635464090752,0.4158843112140066,-95.16526468176771,-0.40992622194544404,135.05919410976014,43.8314347930554,-8.633029741940096,-26.505583512158065,-5.758514854738783,6.490517740895312,2.6752349017715336,-0.44114857081467834,2.9015725090857747,-40.84843766241147,6.468570959653562,-47.70395003121463,2.149205091729059,4.0522573692940815,2.624581554116567
-0.1590427351403419,41.06008238317634,0.407508559201467,-95.28829895555951,-0.3987351760775207,134.28307472329456,43.2867045501765,-8.087509275676052,-28.379250991888163,-5.55787926273386,7.407270591257929,2.3691446435104986,-0.32431129261391456,2.440724432496506,-41.74315356478411,6.764617187804058,-49.25502841579814,2.153420952989958,4.144233078767038,2.3357938322585463
-0.2691827998323241,40.672092017806776,0.4130031990199807,-95.36453650607575,-0.3770772800256876,133.84923341769675,43.19072788165918,-8.979032353747797,-30.129621094478455,-6.4475984914016,8.941313323561442,1.9927010878849087,0.01371215699568047,2.230088902545818,-36.77689537364741,8.06111915723757,-48.255674463909024,1.9058053328747502,3.834713053685181,2.118728217608414
-0.14596065925068247,39.38419296563476,0.47755444226223437,-95.48046669617679,-0.3403263611720148,132.5131658729873,43.12153156774778,-8.342283297745187,-27.960282171794198,-6.477478135962415,9.08388580053066,1.7644692834745985,0.3092632310676924,2.302952745895143,-35.98420769082353,6.226100634267676,-47.20756592912922,1.0993172352201512,3.6109417940672928,2.299596083436093
0.014619628761180567,38.9421723710952,0.4680921656242042,-95.48115853370034,-0.33780853569853,132.1522952385337,43.22812359636281,-5.990813318967201,-28.097918186368645,-5.032110781891654,9.693829287188322,1.5927036145649898,0.4518038514788749,2.1693084901773063,-33.2230555560562,4.665339490971048,-45.76725139641829,0.7266842618063418,3.406260525576472,2.205683397378031
0.5610335743032197,38.23642066529084,0.3738998998816568,-95.48384685937387,-0.3357199593846072,131.31415585825218,43.82989740329082,-3.9186089144931486,-28.51749746833163,-3.5013157254013003,10.328914797491374,1.4793440851878,0.5474835374573781,1.983756801474043,-31.94219954819288,2.500510412223942,-45.911364535635606,0.3364798042460537,3.225023731121856,2.064061607243977
1.503446433710882,37.58294991492218,0.295508213705101,-95.44227473071165,-0.3339262035342238,130.5330835031769,44.902796212869575,-3.4176368394766987,-27.999606865728378,-3.1676260427788443,10.97154405566002,1.2339862959404597,0.25201092501929756,1.6318910796060084,-27.145188125008357,2.9818341240832433,-45.348482969972906,0.3496421901668141,1.9748018415682531,1.722257578957041
2.8119357528676514,37.003628177322305,0.23562034503932833,-95.14668270105426,-0.3324165329350641,129.86020603961666,46.28464522134735,-0.6867470459811886,-27.27929342537648,-0.8620603418301019,9.445214944484967,1.467296912589068,-0.7680696776886672,1.963511024372697,-30.971496018344816,-0.6568059785334692,-45.37469872474624,-0.19247810779155028,1.753768048581177,2.061033817457352
4.285656604368942,36.76026403023551,0.10797823141554855,-94.62353711509519,-0.33953494320736705,129.28301062830366,47.69686175641762,2.6486382206789805,-27.235180456551678,2.264364659096424,9.245558480140026,1.7359931254421788,-1.0972413752214243,1.888557305530977,-31.855671252193726,-4.483341509404206,-45.507012570979725,-0.3516725790802442,1.553043775225209,1.973069984590393
5.832787409660345,36.748332274779685,-0.15955994464718434,-94.00068519831663,-0.36991327509539634,128.62311132499232,49.4649041877559,5.2503141824505795,-27.862103369517975,4.615348163250886,10.430811958084407,1.8278103277088136,-0.6300406628786838,1.8156969265169398,-29.7073685739309,-7.252236703045012,-45.55845826947774,-0.5695376568910895,1.4985777691186288,1.8796276648515076
7.643264007832392,36.86692487375204,-0.2984205536345878,-93.08020098463435,-0.3856293883261653,127.82323091602704,51.482775087020826,7.508825824478541,-25.43303865796689,6.4961388069581085,10.345284852453156,1.7351293561345962,-0.303799047163293,1.5101774682095643,-24.587137824276773,-9.621739471536879,-41.043940806840965,-0.868081525435529,1.0688874556702244,1.5795393465479284
9.586640215396365,37.18972304158387,-0.4068294442875491,-91.7455274746139,-0.4126142220526274,127.12644855097024,53.59005733481842,10.304399549146886,-21.515875768041063,8.948594150806182,8.581274695214036,2.0674104046874735,-0.32269365237497427,1.6107623380379321,-23.071088491692297,-13.13732540962449,-34.54343751738304,-1.0693763353916488,1.155191956331492,1.677085807768151
11.449193327755841,37.874215504581194,-0.5873881822168283,-90.07191328903966,-0.44781525780808207,126.54554995316359,55.67464812385866,10.962998756555063,-19.809971072297966,9.51948933670457,8.187842565696103,2.033414320945712,-0.5643714555814339,1.4196284537792654,-20.158978748274887,-13.506293978222152,-32.16284622030137,-1.137246147470196,0.41859746968691824,1.4707072111768766
