BIOROB-Lab-192/Bilateral-Teleoperation-TouchHaptic-FR3/Data Collection/05042024_PnP_EMG/FR3_PnP_EMG_Soft.csv
q1(deg),q2(deg),q3(deg),q4(deg),q5(deg),q6(deg),q7(deg),tau_1 (Nm),tau_2 (Nm),tau_3 (Nm),tau_4 (Nm),tau_5(Nm),tau_6(Nm),tau_7(Nm),Fx (N),Fy (N),Fz (N),tau_x (Nm),tau_y (Nm),tau_z (Nm)
-0.9309297651965047,38.105718507372984,0.01830589022192497,-94.8778903631525,-0.11348081107969898,133.3042466112303,44.258791023670376,0.2608525679934379,0.26809796437711125,0.7494093813154171,0.588746209898457,0.2785049328339567,0.17144388430413096,-0.276924749973142,3.3340600731660888,0.04749423085608445,0.7732201438503971,0.7404548792786323,-0.4524458601890187,-0.30449770695888617
-0.9310371846084181,38.10559948125744,0.01832128086969502,-94.87799254736214,-0.11354184711693809,133.3042031909078,44.258298586575215,0.27601958363132634,0.2055080151768407,0.7662466641232046,0.6225517264900381,0.28056358294937866,0.17773097993969206,-0.277277297530708,3.322329282140127,0.029622912031233295,0.7022073933503851,0.7400790040358608,-0.4527280767098565,-0.30431108000581114
-0.9309282160975763,38.1056265249693,0.018554052312665728,-94.87785088101258,-0.11347829942691814,133.3045133128381,44.25852188837156,0.23459430753205643,0.2608503345286029,0.7354554314502375,0.5887136198938263,0.2791163482463614,0.17337833033446903,-0.2800893410154293,3.2966951170383707,0.06748082138809913,0.7160595275301317,0.7514080131911595,-0.44735941467240475,-0.3065951911218308
-0.931054101649272,38.10560386607214,0.01824428394785243,-94.877952065209,-0.11349840741169422,133.30433341999765,44.258245239871925,0.2796117456971764,0.24733491416295397,0.7618449302845157,0.5961033186558541,0.2771896672505925,0.17325959863320722,-0.27768505391209386,3.2557554565474693,0.03075633409735745,0.7291199406074351,0.7420713382871068,-0.4383508978777468,-0.3056813095725153
-0.9310366759426212,38.105407738075165,0.018348087435714554,-94.87789014393576,-0.11340215007645611,133.30437683415016,44.25829711558064,0.23846553027692002,0.2776773066074132,0.7303666845630695,0.5698881761281316,0.2794010014604831,0.1711560818792967,-0.27890194987353817,3.303772998163489,0.04831138894470144,0.7238885203825154,0.7462830219781795,-0.4465131854907424,-0.3071294550105264
-0.9308119970424297,38.10527962417197,0.018363503413659988,-94.87775100354732,-0.11343740965620346,133.30433342308217,44.258450618344554,0.25149731320449215,0.2621203613036739,0.7460448623346709,0.586035542943191,0.27863352116083007,0.17272203152849666,-0.2739529236658037,3.320573391133008,0.07185500540448325,0.6900316412012328,0.74556533628371,-0.450660836354826,-0.3032498341008662
-0.9309146958103774,38.10571377994608,0.01857213709641793,-94.8778615612981,-0.11357822489606625,133.30433342308217,44.258426579708775,0.22977557320303846,0.30464652741205317,0.724767927916488,0.5606119734613836,0.2796226599762986,0.1708601437036297,-0.2747629380523538,3.391848380381172,0.10448850168011253,0.8101458115242375,0.7506726215237918,-0.45927296835955156,-0.3045152033196495
-0.9310127770647586,38.104912054962895,0.018572304545704008,-94.87784936319328,-0.1135852860898573,133.30416003002986,44.25829637528935,0.2398666539129142,0.2716413277679518,0.7321420143458087,0.6075402896857646,0.2827603876358654,0.1758767879493068,-0.2757174789991506,3.4782659033276437,0.10903212927023115,0.8217755961416123,0.751419177820252,-0.473219209212576,-0.3047270663001032
-0.930702043004917,38.10489631390634,0.018327334563221193,-94.87769073669338,-0.11350518557064428,133.30424660163257,44.25858259982327,0.24576812013393076,0.3552748951908003,0.7319791979112089,0.5719439761760536,0.2812491136245484,0.1735457223612401,-0.27566161815810203,3.5418962434407,0.08891783528159458,1.0091054273624516,0.7449940134801085,-0.4788040283501727,-0.30357212448152626
-0.930335329572898,38.10275178342074,0.01931874897719869,-94.87627248611605,-0.11333424865765043,133.3042900123574,44.25856779657113,0.18100933373179295,0.5969249837172208,0.6701798274814298,0.4351507808028182,0.2786685168699988,0.16336029437931066,-0.27725180437233743,3.400680561906839,0.34337719069714256,1.0379217533104759,0.7781525222757941,-0.4411664333213067,-0.30321137451191055
-0.9296980553865298,38.10453620921234,0.019380953729636125,-94.87749391071084,-0.11338859301034361,133.30419719423986,44.25838344660274,0.12073244378020988,0.3131489606576673,0.6268938150815592,0.6116971011579184,0.2781320863196255,0.1820368303773735,-0.27260308451485943,3.458282934528877,0.22542744772370715,0.8975330675880362,0.7620253767128289,-0.46420795832883494,-0.3029589000072895
-0.9281588716872906,38.10357891734208,0.020373041832695792,-94.87660065677991,-0.11358525780343177,133.3042900402324,44.25850316617386,0.0075906358031983395,0.42734038348763465,0.5353429922272824,0.4854350262178134,0.2780271307729393,0.16781489718462483,-0.26937191043157327,3.3718278754925732,0.5308499667043679,0.8990547858541496,0.8096923953721696,-0.441502984984004,-0.3011306834380123
-0.9277491379453665,38.10470057191024,0.02085169456522908,-94.87750674051355,-0.11335873934976448,133.30424660163263,44.25833899010273,-0.09271416467157335,0.289153437517436,0.45066534012360693,0.6158280890360023,0.2815933777938171,0.18250410764186986,-0.26361808746795895,3.4631351511680966,0.5171827286732443,0.6849427940741842,0.8010499543847254,-0.4752837492593652,-0.29364973288799234
-0.9279524994626551,38.10493668378766,0.020919697039107742,-94.87742337672033,-0.11352422176621056,133.30433342308234,44.25820331538091,-0.08534980701480756,0.2604665754004484,0.45922805992552823,0.6302957545143166,0.2809894159109639,0.178210236783274,-0.26144648101272294,3.4111192294732824,0.42386953851528036,0.6757117392892252,0.777193510405445,-0.46669695065407113,-0.2873574737501342
-0.9278858725200788,38.104447236497656,0.0208367850462422,-94.87740660574799,-0.1135393322511149,133.30435172453753,44.258289508128136,-0.07812269568858521,0.2512192159769696,0.45775817358635207,0.6201346346610181,0.2814312440054789,0.17692594979696308,-0.2634880190679629,3.4387062583972567,0.43694422325032867,0.8228296489246522,0.784879124832619,-0.4675794950836504,-0.2920148819111699
-0.9282226284711574,38.104275612510556,0.020454014672553707,-94.87694865371935,-0.11352394283435158,133.30433417262282,44.258109688393155,0.003762348317360356,0.2879315496835032,0.5332850441501172,0.5682929191819811,0.2813385592657919,0.1729625124549073,-0.26166864166664616,3.3108599711302173,0.3976364259337487,0.8093575995607252,0.781694903127678,-0.44175469981110893,-0.29328448343912894
-0.9281197313818981,38.10427715978868,0.020232707487571926,-94.87706538861067,-0.11376833325317456,133.30429001247114,44.258339748999326,-0.027349186408743675,0.3013242429433628,0.5062044848964258,0.574790441270657,0.28365538564385434,0.17359295754327547,-0.2608282110688467,3.4510773616674735,0.43403373997874667,0.8394383627487496,0.7905326606212222,-0.46608590457024485,-0.2934395093871353
-0.9279983095839011,38.104544287581106,0.020454008470717943,-94.87740660574799,-0.11333885011758107,133.30418588883995,44.25840046179242,-0.00904126432363791,0.2659920767367366,0.5240860438738668,0.6251228935713882,0.2847302152795852,0.1798821144362979,-0.2600736895975501,3.4863142890161583,0.4164483648393517,0.7863132455547905,0.7868750791276069,-0.4752898348666231,-0.28968995256831165
-0.9282938650776561,38.10533820207342,0.02055612907124226,-94.87789298241435,-0.11360829418776688,133.3042466139707,44.25829632890589,0.08657893052446432,0.0716944424418531,0.599854038149722,0.7539460041405167,0.28233149752000153,0.19214341313465666,-0.2669023583007042,3.5590819505089084,0.2899361064700334,0.4822205265538703,0.7691660302497665,-0.5049876250731812,-0.2949927821502985
-0.9299767785676514,38.10588752724378,0.018918848518669387,-94.8787270957183,-0.11362791399854591,133.3042488502926,44.25815964857652,0.23648997140454917,0.2285173481979188,0.7275834300491534,0.6084451295848824,0.2814107845895123,0.17336063403108576,-0.27024635452483237,3.3165438303091075,0.07308199863365478,0.7100220931098229,0.7415078602872505,-0.4524614966776251,-0.2978391675285546
-0.930643457000809,38.10321373218599,0.01865328938141313,-94.87538332709602,-0.11359856626372405,133.30448095835678,44.25842657010244,0.24636393703223616,0.4837834722912816,0.7408748537438772,0.3583224832103106,0.2810979605626672,0.1533375004262851,-0.26575307079523625,2.8270478944441955,0.04339209201332217,1.0979392775434877,0.7367427701727498,-0.3353348999996003,-0.2946892161413002
-0.9309013084454861,38.104619344412654,0.018551130906333504,-94.87647611638442,-0.11364905047120204,133.3044203278145,44.25835705108024,0.261388189011652,0.38877827216589683,0.7382476208346547,0.4906569153738723,0.28049514487423244,0.15798764974249707,-0.2690033857797055,3.2124441530612624,0.0350257079200097,0.9512987468716345,0.7283617544726863,-0.42476896154084676,-0.294860082830967
-0.9298205803591061,38.10511512155965,0.019292718445302667,-94.87638692969735,-0.1132948995499565,133.30424035477583,44.25841471100376,0.17607901918834373,0.27034066196424483,0.6648233688303368,0.5106070215917475,0.2788637512848219,0.15908604018434339,-0.2655470242479896,2.974117413678703,0.15050517269729685,0.7522355631656014,0.7395758477108305,-0.39121432751470997,-0.29202696763314706
-0.9297749357787775,38.10257421098624,0.01955923567558222,-94.87493511021448,-0.11349843635335055,133.30468920471603,44.25820103750639,0.240184558030943,0.6013308284574286,0.708479854700849,0.26930231068117644,0.27796737619693657,0.11088011884162091,-0.26803310528498964,2.805201680248213,0.06006101818902054,1.2234732548858809,0.7217475296138076,-0.3624041063603448,-0.2922741535112895
-0.9304217605680454,38.104461220774795,0.018551298354688498,-94.87579956628102,-0.11342789547646401,133.30482984833307,44.258521842395766,0.2920954581226352,0.12318100529858377,0.7711797469143706,0.6153277433714385,0.27321718736380185,0.1400380171881994,-0.2757754794733923,3.1281295057116245,-0.0023765592484326636,0.47557771873315846,0.7261813157896113,-0.4667708645741785,-0.30331823706942207
-0.9308097428200105,38.104843435590304,0.01881523181617091,-94.87624477468601,-0.11354184711552014,133.30482288894936,44.25829630993634,0.317254602920466,0.09839988579953801,0.7802049144046388,0.6207747908640681,0.2715321263525591,0.14219271301682532,-0.27546400857468384,3.0813238364778037,-0.03804262777972989,0.437109893786327,0.7122803342459664,-0.45824052077128546,-0.30095475439232655
-0.9311272326502887,38.104434432965725,0.01840873365693626,-94.87602948298414,-0.11367475790326188,133.30476917266964,44.258312660873145,0.28914742398937826,0.10278753735353717,0.7693529908665655,0.6018823819293048,0.27115272469063123,0.13858756305185332,-0.27276662104438687,2.953264504021253,-0.05756888262576504,0.5059187768734226,0.7051565200490377,-0.433202026089338,-0.2999812841346164
-0.9312258615366835,38.10464250221256,0.018244340487601495,-94.87598046673213,-0.11347130884327714,133.30476892316548,44.258383159762616,0.3324426652503685,0.07866509531119183,0.7927055848966685,0.5968293858356076,0.2755925678316406,0.13548550007779592,-0.27060220609308294,2.9207556610918117,-0.0691829118805175,0.3908720671278749,0.7082865660086329,-0.4352013826433627,-0.2957906674711212
-0.9310737124950373,38.10545292485053,0.018368024781643674,-94.87656940655575,-0.11358450395262724,133.3046911303912,44.258426570450794,0.3245773422753627,0.06034308942697702,0.7895126930164823,0.6149059404840015,0.2775446402049181,0.13783538958309347,-0.27075573002264774,3.044341185751635,-0.07158292529724769,0.1493675533076281,0.7151637960947438,-0.46911999274320965,-0.29512536596300165
-0.9314066441175726,38.10751082491759,0.018248861626167786,-94.87851362901932,-0.11354184298187042,133.30446115400173,44.25856969201973,0.362875092622648,-0.21328310310109194,0.8224317592890864,0.8242486210460755,0.27969258524417356,0.1599660473189949,-0.27137605095285094,3.312624572728616,-0.07208938284753236,-0.17528568107180925,0.7166989960933372,-0.5351781246635171,-0.2949938407400977
-0.9322844474725805,38.107599145661,0.017337923730432327,-94.87902113037102,-0.1135676357324037,133.30457936017015,44.25846935563974,0.38283194870547205,-0.2551931542294036,0.8549545301734844,0.86658959777708,0.2873815313720721,0.1646594039046871,-0.2700413843600271,3.2311658457172907,-0.6170593673658039,0.016785014633914155,0.6709638350903662,-0.5124888470961197,-0.3012610476510018
-0.947245937081044,38.105395252460866,0.003814000989422333,-94.87701077354627,-0.11367207924878515,133.30462725998134,44.25849910286353,0.9315114384287725,0.04469014152910309,1.3312673925509952,0.6261139193811165,0.29522970105222973,0.14098837741627968,-0.2749568562765753,3.1884744708053274,-0.6699390718485196,0.002324191152620298,0.6732134413549722,-0.5001130366514235,-0.2997960121503653
-0.9499375462329049,38.109206308872345,0.0013326531830004503,-94.8801189509354,-0.11365173490173426,133.3046469227954,44.25825367709085,1.0169355625593588,-0.4562062756529836,1.4245353499214528,0.9419399213359118,0.29646700809105947,0.16597622813529733,-0.2784071943467228,2.614583868113299,-0.7492249886112909,-0.775323909242626,0.6610917427239643,-0.4475845136065974,-0.30662148766770725
-0.9449405801828065,38.11773005571343,0.006049055282655802,-94.89607578800289,-0.11340214973094379,133.30304936589508,44.258383159711734,0.5820302710696196,-1.2922426606862307,1.0447685093625807,1.4239615763156404,0.2824454811983747,0.2800308195502989,-0.2755990777695211,3.6387604046983713,0.03893622462933227,-2.1819682236944025,0.7544681437306533,-0.5127437728267086,-0.30654926716308867
-0.9316565663916611,38.148889223638285,0.021583999460043517,-94.9169711078553,-0.1132947310991956,133.2993232179239,44.25833746241227,-0.060151373712993124,-2.0007621877233444,0.5113511208111549,2.173897213738448,0.27349903225484873,0.5451070756095638,-0.25987002901837725,3.3393315303496784,0.640662941322112,-1.8814599484432382,0.7874747580149104,-0.33446229256592114,-0.291252935117315
-0.9271615102254769,38.140502794985686,0.021636703723556104,-94.90614520504798,-0.11340625946028345,133.29998691747727,44.258482928686384,-0.002853749984737347,-1.1600470338866824,0.46889813275504394,1.49631271936052,0.25138262670672534,0.48582707779322926,-0.27161462417001175,3.15861879051289,0.4282472429038634,-1.0933428617567198,0.7278652263067023,-0.2666056598984377,-0.2940921530095205
-0.926375790384705,38.13257856154571,0.0218967192416464,-94.8985539891687,-0.11320408951527745,133.2999902058682,44.25838544440285,-0.09689644238419236,-0.5892788453109192,0.4184260011887206,1.0317919294884912,0.25675742738342044,0.39168194627920566,-0.26120994813362697,1.5652946154983676,0.4598104762791335,-0.10940391204127319,0.7314295913720323,-0.12080991696863086,-0.25755792518278187
-0.9255922941361975,38.11955621984962,0.022724213400034114,-94.88170883886805,-0.11345425972073954,133.30376002288355,44.25774684830161,-0.053727481294052366,0.23081984686637716,0.439695588103101,0.23282191287126436,0.26871962863455434,0.05400317243155949,-0.23569431008054934,1.0973527769907387,0.5662687204341392,0.9963491039382727,0.7391117067660917,-0.24581471429983376,-0.2633437272508953
-0.9250645418454106,38.09490063748676,0.023298160856796007,-94.85819401480096,-0.11335057553227239,133.30971999423457,44.25792419414947,-0.11705113362621788,0.11710509337068493,0.3902148030474023,0.2296566343704334,0.2617892871877154,-0.05214856861209887,-0.2353997970084196,1.5906280325975817,0.5128594987557358,0.1265353894775832,0.7409405215917868,-0.36741518418369523,-0.2634208357069595
-0.9249437472982459,38.103471024606876,0.023356136151305107,-94.8758008554739,-0.11328596886506592,133.30689276375833,44.25738681962946,-0.25725077728061463,0.23136715555762588,0.27054753724702846,0.2774186106931908,0.2659689576460994,0.1379705268904215,-0.21938175495325526,1.7325619467135271,0.6944783891131454,0.637977067030801,0.7553359550330897,-0.16243120497051597,-0.24847827572916528
-0.9222033988919416,38.09953279486397,0.026708653131486394,-94.87180491461685,-0.11338687200027564,133.30707345963336,44.257138417529276,-0.3459462624723732,-0.08206410625356257,0.17847865826780335,0.7821213332618725,0.2479727423680835,0.19269231678746945,-0.22656232195973872,3.25619180359158,0.8567449368618045,0.22343452766453803,0.757175983695677,-0.4651830257786072,-0.25496344793550796
-0.9210321262335361,38.096512493052096,0.029263918283570747,-94.87421441491684,-0.11289421038534271,133.3065846501857,44.25750276242416,-0.7221980912412139,0.25906308602541184,-0.14018385494958507,0.5484424685184355,0.2234665800008186,0.1917481353343214,-0.22887160150437066,3.0405215935237226,1.399868118726303,0.7911559834118639,0.8097929033744158,-0.37157776482844646,-0.26209156972758024
-0.9167389427044775,38.09460847289356,0.03284584753121097,-94.86509057202538,-0.11318790323942925,133.3070257929622,44.257543481219955,-0.4399573352940867,0.6576409040252559,0.054714825725602025,0.2534010734667623,0.2367004708239858,0.13079320649384313,-0.22249129142985855,2.825936954553216,0.9864478281836117,1.3532802224323994,0.734902784609983,-0.33778081876858457,-0.24522627455120882
-0.9182471007428751,38.093281316219525,0.03220181683201995,-94.85206856646529,-0.11300672100328138,133.31075997235163,44.25763223464618,-0.20493681023117027,0.9487772688706081,0.25419358098236083,-0.5143789066526805,0.2409263270979461,-0.16428955322777827,-0.23233151231978616,0.4499688507315789,0.6268493827419332,1.3173196281285446,0.6983301296417433,-0.13564895949908184,-0.2528721687241572
-0.9204409425809796,38.08721289814525,0.03143119739328469,-94.84935572228663,-0.11300974454058292,133.31173325855485,44.25788447678998,-0.29447678745811734,0.853946422278869,0.1755771037163605,-0.25086524060962745,0.24033457356854546,-0.1418248516781318,-0.2294831092492422,1.4525237672963065,0.7673499231831998,1.2087151684995578,0.7140705172798321,-0.3338570357072489,-0.2501514301346985
-0.9203041520225522,38.0900961433292,0.03187330184005763,-94.8622446581153,-0.11313720481369662,133.3089992494114,44.257320522544056,-0.3848362519951314,0.35019053084865004,0.1251332533886807,0.20133089555981992,0.2538164203916362,0.09877576795627611,-0.22174571424506004,1.769147469348025,0.8892487120718467,0.7721253170485107,0.7504736226126187,-0.19812844313960812,-0.24606396384836218
-0.9192604866054034,38.09201353657506,0.032499518281416555,-94.8676078289316,-0.11291345297047682,133.30763931802488,44.25746653916334,-0.38364842641120683,0.19974944149432347,0.10904195764197055,0.37225659917244625,0.25161753223822025,0.13415196683809158,-0.22368319654095536,2.6646639085639716,0.9449648174311103,0.511143437084747,0.7408075773486009,-0.31285588079563265,-0.24859731900731094
-0.918145993699699,38.09183695049349,0.03314847114003736,-94.86904935932654,-0.11290227595382081,133.30619533473478,44.257366325590134,-0.47773716462566507,0.13173681271549972,0.04074197754473145,0.6391206181604377,0.23759498759186826,0.24914768386216757,-0.2300385363858533,2.4310822504351197,1.114402057404379,0.685131237207368,0.7680638983451976,-0.21231748452002455,-0.255487027725416
-0.9172282693672388,38.090777408412364,0.03336624362688155,-94.86718306134674,-0.11290202478134267,133.30664981199678,44.25737669944532,-0.540846966726953,0.2655398924897426,-0.026942248394008807,0.37967097273125444,0.23614479671682798,0.22664522133079146,-0.227039842379788,1.8410406471356537,0.6831242631114276,1.110455645070285,0.4148544596069778,-0.07309253147102555,-0.0770644825514529
-0.8992244655368435,38.08561618573125,0.03268470865181138,-94.87373054757926,-0.11629769024588041,133.30660921881966,44.25828037520475,-0.19628377943314523,0.6925375008802932,0.10476753577583084,-0.004711781875733773,0.10267383917355273,0.20528372993196958,-0.0063146242071362565,0.22376942309082953,0.29903326564120425,1.8353079743929548,0.32173025150168577,0.19927473190824246,-0.04006974060878182
-0.8983701879880408,38.017380651492275,0.03238035464102346,-94.87006667227968,-0.11654446349894139,133.30790254517257,44.258020567668254,-0.2655200495737409,1.096103043300165,0.11049979205005574,-0.4270778094257731,0.10748758748110154,0.08100846560965257,0.0008984528512790221,0.3194128744596415,0.44052854143519266,1.9849328915623459,0.353676429582712,0.17885683396612523,-0.046399640338264235
-0.8958853768414574,37.945510576116284,0.032884333780377535,-94.87002677303052,-0.11684264956997971,133.30787608238984,44.25801149200561,-0.3527353549981738,0.9157947065584273,0.04951367682950421,-0.3721893969587925,0.1063120331906127,0.08128177494691823,0.004961541953645376,0.46410809726112695,0.3559588173333885,1.6752850223064744,0.3242934258431743,0.1218118239380381,-0.03289165054089453
-0.8957078627969921,37.91891312390522,0.0326609369380271,-94.87014559068953,-0.11684487122559152,133.30779342397759,44.25792469551486,-0.30809430639818786,0.9589600593360054,0.05483653405189441,-0.45601368046465773,0.11228403991988054,0.05120964323357253,0.010183935011914053,0.07384737302179517,0.41337195894257683,1.0953431574807029,0.34922573395458406,0.1365367525617322,-0.03200250358261314
-0.8836389022247907,37.85483003782235,0.03259711744727424,-94.87204500956805,-0.11712169591295367,133.30764315839562,44.25781537771135,-0.3256367358894975,0.42295456731274,0.00020955304347340605,-0.2202883458476925,0.12349572394906129,0.038513174111348705,0.027537585031746838,-0.0016867398869037905,0.39989616298761155,0.7723998935096376,0.3083910207158297,0.10982164015831278,-0.007637410739623214
-0.8349140227809426,37.762549338229285,0.03278476235278897,-94.87238268447959,-0.1170988780292507,133.30760939982304,44.258256194778056,-0.3194701750992416,0.4136928904345354,-0.032357388300404036,-0.19983850717711313,0.12983405831798356,-0.010914097250335368,0.04461360545968974,-0.06719308148256932,0.2776386646837401,0.3074323723535343,0.23963174472865056,0.027901215296737763,0.032168670611134334
-0.7529753967515592,37.61976396375322,0.032784762352893945,-94.8721467030765,-0.11697900059483311,133.30637840222073,44.25876738770861,-0.22053808530476204,0.2390313830701683,-0.0205258227300732,-0.1410742548357791,0.1264496551465781,-0.04252387004499991,0.07275358141005103,0.057110013182159025,0.19923632625676316,0.32959891760129223,0.1909247532075211,-0.023574764202524134,0.05437579347109545
-0.6950100027638639,37.5335967028906,0.032111192325270176,-94.87214675736794,-0.1170229405805872,133.30578458159678,44.259285189434024,-0.06538287185862832,0.2423715909238733,0.027570791811472827,-0.14722214960922206,0.12011318148900124,-0.0850590203271098,0.12562556280852902,0.13315900819329163,-0.09350049218337735,0.26477509777083696,0.06316091452097726,-0.08869623758735624,0.11721843477773151
-0.48430695534025076,37.31062352110963,0.03182600012227665,-94.87280300462149,-0.11716088778774916,133.30262342795598,44.260349206785314,0.07307767174531854,0.1577305866453415,0.09635844742123818,-0.043124568874543585,0.11923369133658905,-0.05490556741272002,0.1845552364228152,0.35426230247930623,-0.3750705425677791,0.17582594512070035,-0.042044295419002925,-0.11348999566407243,0.17999481239026385
-0.13532575094453825,36.97345857492952,0.031654026799237595,-94.87226141118505,-0.11720630884095684,133.23955712085615,44.26367764258725,-0.06547229160800709,0.18907073144446718,-0.09300064401561156,0.03259183543665861,0.11723395553441365,-0.10877523939706614,0.3253950504495326,0.9396218367725583,-0.37565215592880646,0.14418468352410907,-0.1756987675428432,-0.29498672446434726,0.32084613947807805
0.4002740667061152,36.7125097292693,0.03238034866756666,-94.8712794049129,-0.11720639348954671,133.1443173522617,44.33778619515814,-0.06350314430043065,0.39430847655227147,-0.07235913172724344,0.09311000743869698,0.1147385451132484,-0.2555484222264012,0.26347108952752696,2.1433845332112513,-0.27426095199053235,0.24993617018754505,-0.11092866146847218,-0.685055125537832,0.26057349054452694
1.1436748089568483,36.51720837486712,0.030479550961235915,-94.8098778120879,-0.11726742909273699,132.97430816022006,44.561703507687994,0.29587032273906,0.17339554790714773,0.18074791842684332,0.418170235510169,0.11218083130894521,-0.2981990160141859,0.2753180002244862,3.2487610468220924,-0.8086241052655754,-0.1925604045979292,-0.22296880574069083,-0.9989628356327792,0.2812767102678956
2.0321920345167497,36.380402653681024,0.020969235826371,-94.62432453977007,-0.11711965589683697,132.71752504308748,44.8822219609615,0.6521369752082089,-0.15154201939115772,0.43716241199355416,0.5506459673568663,0.10825209663769365,-0.3149307328636833,0.2943418011433675,2.944026972535523,-2.3594176108571614,-1.6217164161208613,-0.5092032903365367,-1.0055410292365492,0.3531130918861928
2.9713659909309467,36.39418459098529,-0.13126022442573504,-94.33247148171276,-0.1192432258909846,132.41415711837683,45.29302046363649,2.2552317633482026,-1.152291166333157,1.678829746716534,1.0310322114060586,0.18684258218311833,-0.29576111955056233,0.31623370458880184,1.1065204533482307,-5.0951355989387945,-3.717023807036841,-0.8404355594558031,-0.9630868313424948,0.3922157194241245
3.7304810023030126,36.605482735504424,-0.5311429567781828,-93.91746411040737,-0.16478254268252018,132.21207490514814,45.7687280220284,4.790304346675232,-2.7562851986950103,3.832833337551243,1.343515692892831,0.34269902041540934,-0.43592097855284934,0.4789074440591568,-0.3548815227563147,-7.5129366762366185,-5.387936891521016,-1.1316618571282244,-0.8437740575503112,0.5292711623094546
4.390460186422782,37.11734553462904,-1.1694692717882236,-93.28795247683553,-0.21361596231316793,131.9906320561373,46.30858073425288,5.0472168362453385,-2.695446179185454,4.058770269650696,1.4799570833687996,0.34743599661154123,-0.3979271771396452,0.49023816219710914,1.2237219125585062,-7.557566144848087,-4.56804259709208,-1.1311459514571274,-1.0000942687513348,0.4793923845345525
5.204912775324206,37.62285132057359,-1.722121363638154,-92.48619394375075,-0.21541165023207856,131.62445721682622,47.07315185042345,4.920879492469478,-2.285971822582732,3.9525230458285345,1.5745423368955591,0.3236950471035507,-0.2900040914423277,0.3476819794442339,1.4357865441548066,-8.359874484418022,-4.395604604541898,-1.1636169584450866,-1.0024758169213512,0.3789923729657571
6.116934321807861,38.41605501655419,-2.258410864320228,-91.42891683950165,-0.23427207331227906,131.2644999701051,47.93260128323871,5.944583368205514,-2.7773688299903743,4.790523917738366,1.77829347703286,0.4003524832738464,-0.2866334537276873,0.33369541178532697,1.2408507394500397,-9.441259214253922,-5.404106762591736,-1.2342718760763143,-1.0062708273908358,0.48614497035970394
7.0141609631091795,39.36902835029228,-2.823450951344053,-90.26350672156285,-0.29214296523221733,130.89762416036635,48.77756568992519,6.143526033129192,-2.7269877730639496,4.937856652580113,1.9294462200813234,0.45168799205855237,-0.21947916035309914,0.4293060910222731,1.66838825711468,-9.733514716287877,-5.403269056302607,-1.22564660164965,-0.9980476499510416,0.4449612214264539
7.92048979950617,40.47152835188045,-3.3408248849668043,-88.98977277861003,-0.33789612968570876,130.33018782202402,49.707112616116085,7.190427857541089,-3.294379129028205,5.776921342763524,2.693724221793852,0.5596263774792081,0.18072675830863266,0.41594976252198984,3.0782200315445647,-11.095204237465271,-4.748173223591174,-1.3147225359092385,-0.8360693400005674,0.49386534374637536
8.329429254968264,41.11307227821526,-3.6153453368851287,-88.35906883243753,-0.36489792967338347,130.00867816490978,50.144015247290326,7.74734580661005,-3.104937769223931,6.179652515891123,2.4992312127919467,0.6032876643303919,0.20194658294949944,0.48158366708325767,2.089544568959022,-10.844768046598665,-4.824952440197402,-1.3496854615836382,-0.6734099566990684,0.5131606972343462
9.50474502862458,43.082902232067525,-4.286426483248482,-86.37060207565884,-0.4082594347399494,129.16748264533652,51.50339186987453,6.931451592931831,-3.029052790144427,5.379816093586325,2.614836397656044,0.49803802421682963,0.34040951771884337,0.4012715773582185,2.0723026620940876,-10.85487034861534,-5.881646145208834,-1.390843112634454,-0.6454105021865457,0.4250732518017148
10.288379592697307,44.4764123253464,-4.597726074640948,-85.14080509340297,-0.41092021253303906,128.73448730688847,52.41768798121467,7.9008068653947,-4.316606265523974,6.051998929545407,3.1805944079034654,0.5425368330535785,0.39435136306313423,0.3987271756543029,0.8851042315477239,-11.452368846742983,-6.312321874589162,-1.488683396852803,-0.5621559783081963,0.5141421731621112
10.853855439229978,45.895065860768476,-4.915560301652953,-84.08358836273857,-0.43134690620644695,128.3634625952699,53.21368848710436,8.348156957391282,-4.029191049464785,6.3899331697480095,2.7062102508943195,0.6459672574027606,-0.04032997622331647,0.47771601021270615,-0.33120679712557444,-11.902825655494775,-7.197845169908468,-1.5439626308112766,-0.7574592750729758,0.538791886239765
11.23763830798267,47.13538718677053,-5.2184059508850265,-83.1935712883353,-0.46515480994565367,128.2443478192327,53.92629515692173,8.314765140475817,-2.8613400251312227,6.446534873643159,1.9092914869160094,0.6802716940706713,-0.375625996537892,0.5241862331496417,-1.5745797019849777,-12.58911476271547,-6.343242285242493,-1.6072748278559559,-0.920020310974292,0.6442705993226342
11.400222794354114,47.98831481304682,-5.593885588135345,-82.43172382747528,-0.517691804704718,128.2515605141919,54.43954711364138,8.69089067579379,-1.9367516648611756,6.792868009289668,1.297048427137049,0.7543897381733242,-0.5914769406535887,0.6308840672630533,-0.7710097012736389,-12.203634514164943,-3.9233607195732425,-1.6501608234772511,-1.1221202140000353,0.7468237603056628
11.48004586794544,48.36032497997325,-5.800302411331472,-81.88369706052514,-0.5418708326731714,128.42836418884616,54.73739770560989,7.211083187315387,0.09880338136180199,5.671008374676272,0.011770041030592962,0.708871829015432,-1.0013338271043637,0.7262247896105454,0.7447618893566927,-10.187461193742099,-1.7816550578209396,-1.45021549752765,-1.3706663821177847,0.7380037126886718
11.599430976410282,48.37193201176732,-5.801160733614994,-81.65380874865563,-0.5421023636725811,128.5837993265967,54.843336692835116,6.704711137155383,-0.7487697142428683,5.3488505768744865,0.726089846113827,0.6739374772881314,-0.7283168831635798,0.7192999648582157,-2.10842129333224,-10.373595050922987,-4.819240892265729,-1.3518566739785998,-0.5705934690214117,0.7956801298663155
11.653252962557644,48.6821214913604,-5.807888502368103,-81.63122479954257,-0.5431939554025593,129.0440466763068,54.9983569587491,6.596638640535955,-2.0733466207312454,5.2860642273085015,0.7711559586052259,0.7039074501336567,-0.282730407924018,0.7779704183101575,-5.812684588257061,-8.853504296325985,-4.347773239291238,-0.9591553698476499,0.3792222594840946,0.7351871916247653
11.544228985540894,48.86255760829346,-5.805782496530833,-81.96219411980172,-0.5433532667767974,129.34851569945542,54.99965424075949,6.168233383777861,-1.4612477422888728,5.1666434715999925,-0.14340801774290773,0.6820637668964096,-0.37679761209776935,0.712748176701782,-9.8846543952641,-6.809207870018461,-3.3836609620104,-0.49248121889625085,0.9507726671973895,0.6013738733311925
11.469396805363454,48.858865287291316,-5.793556308992743,-82.1683906876063,-0.5433723635421404,129.62272963870433,54.99984136198601,5.069232136463802,-1.0550786870574211,4.618152915021392,-1.1640047398672047,0.6643170565445549,-0.6880572548101536,0.5888788689232008,-10.64422360471414,-6.0510548982635814,-3.713128548300172,-0.2949606671638995,1.0371753920054332,0.5211079143941248
11.121053523285747,48.83447548842733,-5.5923918898690035,-83.02933009549247,-0.5419276915506022,130.48428861850797,54.99895468606838,3.172191609485178,-0.8127051700083225,3.552871361030906,-1.3937322059667379,0.5073130292531303,-0.5168189487436992,0.3558991875164357,-10.553959955112155,-3.2031533831254113,-2.899469551269058,0.3859692305277205,1.2511394192263794,0.2140500853329742
10.775079467348814,48.70788681367176,-5.349536748463223,-83.85787722004734,-0.5407255136740449,131.04918140709364,54.99508527749198,2.7541080196598493,-0.8460260390539381,3.2704278750242572,-1.3680993776700532,0.4695204065866345,-0.49817161925494097,0.2649502609832339,-11.372158400008423,-1.8960694495154269,-3.0524920153682733,0.6333329135098371,1.3116806200546076,0.04835665011352397
10.253863534669971,48.45812943414419,-5.0447499348770695,-84.74510559940035,-0.5388972472394294,131.6559219852725,54.977844269545486,1.694077237083918,-0.6186136099612464,2.408216656791043,-1.6738557117079118,0.3683661517305981,-0.4879397527472941,0.11725286165736545,-9.877720124218973,-0.6729141530658762,-2.0791078137228314,0.743612531746552,1.3614410020236656,-0.03865185973539337
9.653869446912072,47.97223121846816,-4.619618960033395,-85.72573876243737,-0.5371517379575499,132.2227277010294,54.869804154518974,1.381230327084351,-0.15434177800404808,2.147628457247579,-1.7361118573952294,0.2943419793778128,-0.41474826278146815,0.08811782565675312,-9.101903885709898,0.2299348850888871,-1.77974741632108,0.8335498097504238,1.2901844725716394,-0.05928540159160642
8.9199527069347,47.31939291020504,-4.146423137100926,-86.69580786191466,-0.5353220214694739,132.62256246957196,54.59417325534131,0.3151089609853199,-0.4872629419170858,1.1733423246601213,-1.3265107138402334,0.21089436258109762,-0.17977333616219993,0.04708750827963904,-7.565049103626131,0.8247074371235884,-1.1007914128385416,0.8622119639019584,1.2604891833514098,-0.16380013392297754
8.14263118288715,46.71004619728939,-3.6300384325990396,-87.62961406623458,-0.5341238474119526,132.8713170889882,54.30564475676809,-0.43600671669654356,0.45630202551837995,0.48342352727015814,-1.7408508843384816,0.14894506899519014,-0.21687697033933032,-0.06065185358003868,-7.3805369258909455,1.739163660687889,0.007241376457549796,0.9433381778638753,1.2402411943798208,-0.18020379497225658
7.771855412744082,46.310070352344134,-3.330882120078273,-88.0469659888774,-0.5337141395987207,132.96138579578607,54.12401531766959,-0.7510341648611811,0.07493449266485373,0.1673062822338646,-1.3127924845742691,0.14742926899875258,0.01304128854453627,-0.005505797217413596,-6.618368717609334,1.9764641307269413,-0.16295155447036808,0.9410072031887317,1.3101184560906962,-0.12452138350690747
6.509502164100133,45.15875806923943,-2.5990154113554573,-89.19895357623206,-0.5335101681718718,133.12563611257715,53.407621275595766,-0.6441750557692417,-0.2675656998052,0.24551083004702517,-0.916807908205963,0.15059292804477664,0.22552991231799968,0.021546685279036394,-6.015614500399818,1.658737811322565,-0.32949409607034585,0.9053258649535453,1.3832543440011107,-0.10032283788736096
6.0431120739319875,44.82704652235843,-2.413379603521189,-89.55947106547835,-0.5334480083618004,133.14851451807186,53.15928370433147,-0.33985305695721396,-0.7003518184848588,0.517287789359731,-1.0058209394975661,0.1635979325974531,0.11945773698205098,0.02198141303899782,-7.7659324201815405,1.7684721335913802,-2.6959629150805027,0.9321043313077321,1.5016753281270572,-0.06925483707635378
5.082449571468676,44.205929056104765,-2.157705121524121,-90.22460424963514,-0.5335975468575264,133.16226767969292,52.60540469483216,-0.7673124728622445,-3.8655660366960825,0.12132171519661207,0.510007226436534,0.21100608531731346,0.195001364729198,0.14468220897564302,-17.368373205696106,4.327917077370701,-11.577543598363588,1.0480119057530528,1.7970979598607186,0.25201524497969774
3.9627521284117484,44.22509015047031,-1.6759883393612092,-91.25179011478916,-0.5341446731181609,133.33438604568886,51.472793531405095,-2.22921831728898,-5.130337021248282,-1.0927386865749686,-1.3946648184067536,0.25675700298611376,-1.2762743984023655,0.35849597360968455,-18.63730145333822,4.649307070654358,-11.238800696338888,1.054152230523577,1.6362348502938113,0.20138754103236609
3.6030710611094827,44.21018418712537,-1.260812000258254,-91.5759767878233,-0.5340143610221741,133.66104881123408,50.85499016213445,-1.355887113151866,-3.436819363820802,-0.26976377122484924,-1.1590283352654542,0.21865165804935632,-0.73120564235617,0.08944742926091499,-13.926392254557943,3.0903211584856196,-7.410323937960851,1.0676510077173296,1.5002148510621927,-0.05440548097458753
3.238452251432082,43.892730490825365,-1.0189387463285802,-91.90824771689125,-0.5333238177252256,133.69137269821837,50.46765707709593,-1.4759263790676183,-3.533111725502541,-0.4074435083884713,-0.6541038533221984,0.16674517926220753,-0.5653025344887853,-0.022581355905234246,-11.92975961171363,3.1768331139798467,-7.198218155472361,1.084370135563806,1.2684785302776411,-0.15698978237882497
3.0617072890985666,43.38789856902101,-0.8323407649727614,-92.17979299949823,-0.5328910534528903,133.68922850612583,50.191871022300944,-2.176597780655287,-4.001758960725579,-1.2281798901062217,0.029914479912634403,0.11768654016198751,-0.4249681222705305,-0.019975693396408437,-9.97093613417754,4.007694437560669,-7.643665882733499,1.005327680023495,0.9824216350763613,-0.12162457080643267
3.0989250650183076,42.87041781963738,-0.5569135564786485,-92.53396139510059,-0.5324139875200782,133.67701513141517,50.049151667087706,-0.5460024225433624,-3.2537520026362357,0.18248351204813992,-0.2644140403407603,0.09739342369938443,-0.49633901984157563,-0.11887947226572561,-9.383073464444255,1.7027852778987589,-6.5215229559000045,0.7571715113426728,0.8654293673103793,-0.21481877923093112
3.112551082306081,42.42010190530033,-0.522488630502131,-92.78652491902693,-0.5323918443484108,133.64405136138456,50.046639627735104,-0.3114013901590732,-4.010361789739636,0.1340747657742788,0.15831680653472835,0.10963705614742303,-0.4242584103453976,-0.02758521495144543,-9.571166222854568,1.2992542073295323,-7.647851450147205,0.5059550051736456,0.8921990770713155,-0.08485846568760276
3.2648458292005356,42.06513965196841,-0.5244294651971455,-92.93573926299362,-0.5326766287804101,133.5378958121316,50.04679816364707,0.08346705614630735,-5.034029050737128,0.3774123849851063,0.7313884933180602,0.12513308985586424,-0.32800972110580184,0.037038212827948114,-10.726224342482078,-0.0806066349017881,-10.406003326067154,0.13482041705582193,0.9006109319520346,0.07440308044412564
3.5552809104509318,42.053814252041455,-0.5517639911141389,-93.06150336264507,-0.5328741742639074,133.44079690879542,50.047525056926176,3.084985712486986,-6.557028091151348,2.774314938027066,1.0360119853750427,0.28645421896966716,-0.6406625109767787,0.2541301377828775,-12.332135133806768,-3.7222381220775644,-12.326981623551244,-0.35940252702587805,0.8251233390700549,0.24661574588843482
3.740616542295372,42.060784419568314,-0.9237554501313596,-93.07622236004022,-0.5377150059922902,133.40913987747155,50.04801525996749,4.578657736941013,-6.50679441313326,3.9880499339858724,0.8542350374689598,0.47188001402372326,-0.8727258579122363,0.36655293535720446,-12.806516823229083,-7.741697878664718,-13.773092820607326,-0.7090617470683085,0.43535347626205434,0.4979076126618624
3.7380501452186152,42.19705919116151,-1.6965722057927592,-92.96064002107245,-0.5427649178101909,133.40883280165656,50.04737472521535,5.793848095752724,-7.181355051261705,5.1049870000030335,1.2881586686465267,0.756616652601826,-1.0099498251885215,0.5842751097392268,-9.24206495966476,-6.6840993141463665,-12.969630361400302,-0.7376163386885864,-0.1007109823926308,0.7206503955785863
4.135919014132536,42.39248815382838,-2.1987979893206426,-92.75380067263676,-0.5425966604180075,133.29313390388538,50.056992487276084,4.127327355723499,-6.533550585018765,3.351610257012227,2.0882709475159147,0.6927103521534328,-0.6937159775948037,0.7654465686638434,-7.14527865006681,-6.7146239891052115,-12.634999946411467,-0.8532082836765834,-0.4378505708405702,0.7537459858046237
4.931993498843844,42.75065648064483,-2.551421115963766,-92.37672434865384,-0.5421095448131864,133.1142988724175,50.2062731827729,4.805432127568791,-6.026659178677047,3.956598529219995,2.0672270570011264,0.6498860998314319,-0.794734603360545,0.5960588970166463,-4.416911210312682,-6.655163737759802,-10.355652744326042,-0.8649406069110536,-0.8176768187601022,0.6045983545829641
5.888247999768075,43.044272161339,-2.8423291740283125,-91.60579659643871,-0.5425953196299429,132.79376307714577,50.557760383176934,5.656636731577641,-4.331622556784581,4.686578279332108,1.4233621045683162,0.5882303017485508,-0.8862916887710792,0.5945924195455794,-7.083248524458691,-11.963214619518036,-9.160337260301628,-1.347750234744086,-0.5865638582141135,0.7781700032866445
6.435724524502436,43.229418496260124,-3.6055644181715354,-90.32019565808238,-0.5752266726261452,132.5682681230621,50.841685159718004,8.729238876466093,-4.457595354749644,7.4865377014785714,0.7715873306404264,0.8676550397509992,-1.0986733284457575,0.9047348579182726,-8.60513327015438,-13.010450176900767,-11.123258453988823,-1.4795208667440656,-0.093730971200566,1.003818210238807
6.825485225089489,43.89511785778258,-4.462397235682017,-88.99222267344332,-0.6487676350453982,132.24000733446712,51.11395930002651,8.967679641128427,-5.899469884746043,7.522814682369083,1.7368611562767562,0.9409138925318474,-0.6153107356132179,1.0745400939230214,-8.452149308672881,-12.83311330073964,-12.123900440382085,-1.486613750152375,0.1215805021070357,1.0922732493923621
7.0792638746753696,44.435743309481026,-4.825908625804677,-88.3510762280411,-0.6857278891997257,132.04995294770944,51.26280389223183,8.801662110672565,-5.9253717057103215,7.2088211662546104,2.320609239390195,0.8977930792363142,-0.3303307163619434,1.063765426122289,-7.037314976741197,-12.660875231736625,-11.162910622872618,-1.5100685963803122,0.02947000951780951,1.0625039065531372
8.147857311978612,46.0072680057974,-5.498492945069434,-86.43791172446099,-0.7408103516880695,131.3464899592744,51.876712550782365,7.17435168549326,-4.202722494597375,5.689355086229628,1.8362065365908355,0.683801089512642,-0.45203609736067996,0.9183026319496933,-3.933493484371966,-10.514448505532958,-8.33365409545127,-1.451544518536196,-0.4583998405946497,0.9299125197030755
8.668687082292031,46.38835122429643,-5.55490903795708,-85.75316431977724,-0.741683458617321,131.1971032962244,52.12774304937565,6.565216532791128,-2.9401282610795505,5.1456222358916,1.7918421941645606,0.6701180481760438,-0.4141287467355535,0.8452338775877768,-0.2605726522439833,-10.02794442499182,-6.009623439260429,-1.4096434973561185,-0.9872361363966198,0.8720812624310216
9.771670592831294,46.99275341603094,-5.569554490022079,-84.41248442645812,-0.7399504085143488,130.86024409491537,52.662054851288346,4.382961163976504,-1.0053846466595362,3.526825827110223,1.5275096366695002,0.4280480872473011,-0.16849926567887585,0.618460852339466,4.448424419686188,-7.478799073965368,-2.062565337750322,-1.0657793341093411,-1.3607135670234094,0.6136069686283212
11.1799127061757,47.399928847041416,-5.340385482885751,-83.21915892305056,-0.7351259648494693,130.4259461274304,53.39163212141601,3.038504382267554,-0.2899490146246002,2.636953188016138,1.3063272931813497,0.23823007340648228,-0.19170642085993533,0.45358537279392125,6.085011745136698,-5.770374130714754,-0.7123707129636806,-0.8037750392765151,-1.6003589125148505,0.4020300571994094
12.6353435844581,47.588346799300446,-4.933933816715701,-82.2278685450608,-0.7309916994995268,130.13919199674044,54.122647719647155,2.776540100442954,0.15348186184785093,2.444994020043736,1.2528799261816383,0.18450110332417288,-0.13275700039856358,0.3924143013440569,7.221687692772821,-5.615758309018061,0.20829069213544238,-0.7858145638378923,-1.7006850208767061,0.3359601934769357
13.866071372434943,47.67120376143232,-4.532595281730262,-81.54076190720048,-0.7087388561666056,130.0256754931393,54.764633478106774,3.5341901236082043,-0.23487711131350705,3.127746138679428,1.5770290153589452,0.22639826960401618,-0.1253401463538042,0.2864860213156278,7.6869427251936235,-6.641819474765479,-0.3670530975356266,-0.7894470701384416,-1.884852151053427,0.22428095077001978
14.566664469887982,47.778129092260905,-4.350798402776185,-81.27140310524892,-0.7059053714941278,130.0228968028658,55.41480464452079,4.662116729418265,-0.09594499711906507,3.935368241732045,1.2100753472414274,0.2848444386050396,-0.19294876833679483,0.21255632194029325,5.637504705217202,-7.822611672294384,-0.45268314053387004,-0.9098924923808938,-1.562209820199953,0.17968904683454703
14.700594920005592,47.826528725670435,-4.3460976044196675,-81.25624586787968,-0.7053523186334797,130.02670620108665,55.98778979267374,3.4687365280055427,-0.15067841330132695,3.0685340072135077,0.555721363681655,0.24920580703546016,-0.07589391172693223,0.31884401121415157,1.5993160578876082,-5.60781760899706,-0.4987172952890828,-0.5786537888143279,-0.5766416085645886,0.26025993144180315
14.7373280725807,47.82573968324863,-4.226624798388904,-81.35882725979695,-0.70355112259475,130.08682967123343,56.30441208587723,2.891311012153596,-0.16497291295535962,2.6856138915093037,0.10703099280716961,0.22497402383887838,-0.010401882048921377,0.3743379646678841,-1.1046921130062293,-4.383673932414719,-0.5268583553045932,-0.3706124510934647,0.06422792397871455,0.29605263565693357
14.719857476503462,47.82422202150678,-4.031644075961487,-81.67303780662354,-0.7018562210527776,130.20136864915503,56.4493702754257,2.322006333374617,-0.4940572739010919,2.3887361729424406,-0.2987900065924226,0.20354162959168304,0.008229751453442758,0.3688498056932553,-4.367644765520996,-2.945288367726109,-1.1531395400475746,-0.05465642290718742,0.7105978326277179,0.26029510138816214
14.578363036575293,47.81356809777674,-3.8368564100864027,-82.27005028486558,-0.7011100989962308,130.35965324807796,56.461562149631,2.2191612826734075,-0.6869703147903922,2.3858534552243156,-0.3851559213473563,0.21426180039303105,9.458657238837596e-05,0.33770209278110774,-5.238233412810254,-2.112427514711646,-1.605706066030822,0.22728194335591045,0.832663396095857,0.1598794377629727
14.22624152988389,47.77673204546987,-3.64822627163312,-83.11135796317242,-0.7011124319843479,130.5714163000429,56.46121701664705,1.7115878858205662,-0.794234522836319,2.1812898541745307,-0.3505520298547633,0.2238617139382204,0.014568527942573945,0.21217677671509233,-5.8792895024066,-1.2089937426055186,-1.5303534771197853,0.5342670810469842,0.9479073592054748,-0.005071173662752976
13.647604316677818,47.656617063316105,-3.449175311891523,-84.12955694715652,-0.7009944333718493,130.86799279210976,56.460008789499895,1.5844865639338177,-0.8759066663705545,2.17945363903384,-0.3777258965789109,0.22978406909649368,0.04960000518995707,0.06732378321644793,-5.7108016031642,-0.8507320847544861,-2.0443369049442714,0.7068026550524296,0.9249375750031805,-0.15239913206266098
12.8086498908911,47.45948244511027,-3.2753335370716337,-85.24430013666219,-0.7006566972177339,131.26314675613003,56.447008963401295,1.426474082818851,-1.0136552099651723,2.0284302345223577,-0.48694082675268785,0.23206957813425186,0.015509950613953086,-0.07503502556388189,-6.127451917969914,-0.2962964978179713,-1.9997405891011901,0.8065808635169944,0.96671400116424,-0.20217980148560993
11.792510651931751,47.28397158852376,-3.108221640091627,-86.3361853302164,-0.7006122504697914,131.60710083970804,56.31203189040025,0.9376280172814735,-1.0864674979193338,1.672887081069815,-0.34793261714745666,0.24566557521170687,0.0938264661865334,-0.03589533172233416,-6.496068992293412,-0.5032719001425928,-2.260127111357935,0.6975958159459728,1.0324182251450713,-0.13425755251278756
10.624469289650374,47.11210308163567,-2.963746672142572,-87.45461514461024,-0.7005364345879579,131.9746703072648,56.029767079294125,0.7677264170663108,-1.4119134654501988,1.535610024005897,-0.34160680774832847,0.2520557542139126,0.050096194478261545,-0.037061347942758824,-6.320210651508965,-0.17317474959028875,-2.3317442665339705,0.8068613230815354,1.0709358846280457,-0.17871737220465295
9.359511524484157,46.80444635827149,-2.80333083642012,-88.49511147886112,-0.700443078879537,132.3057311629044,55.687244987734296,0.6893231285766712,-1.621347822570085,1.4739926043622706,-0.14884629545944772,0.2715500685695282,0.1575489705929953,-0.09911658396352073,-6.103396951696341,0.15149051375153133,-2.5732591338977264,0.9183541960058433,1.0617217781766761,-0.21625518620826598
8.028558886949257,46.424440736788185,-2.6694279210069647,-89.43892555330832,-0.7004864863880875,132.47660034688502,55.29331920782754,0.6148781655828905,-1.5059036921615818,1.4041022058543693,-0.22513606912134085,0.2810570810445597,0.2062112121331366,-0.10995592436517007,-6.17976421506308,0.2826296793506795,-2.3553858166980306,0.9560254378601347,1.1376828403488106,-0.219487920664178
7.374719429131798,46.150447998603525,-2.5977529791722174,-89.9022569389972,-0.700525629096919,132.51294000556098,55.04142652883722,0.8149486498728494,-1.601977680726585,1.5343107846586632,-0.12056403802304327,0.2920132309260977,0.23685207343477319,-0.09272337263844625,-5.993451435417567,-0.12449224438658055,-2.4411535609753376,0.8744379142343744,1.1296268807183565,-0.19472187120181025
6.105325767370414,45.641478329063325,-2.4865757487416635,-90.63233999886786,-0.700573310888025,132.53713297646456,54.45478834339935,0.5225917806368313,-1.1372085108785985,1.363962292558296,-0.4890272005210127,0.2986486920250205,0.1498532480461832,-0.007186120961378533,-6.272909025773543,0.10214812344603422,-1.794778940307564,0.8935119035642125,1.1729563960281648,-0.12885730379771895
4.928634677483864,45.04394368887917,-2.393497334545993,-91.2410001539569,-0.7006144598257462,132.5389946180086,53.78628818582657,0.23218962494425816,-1.3138409986071349,1.1761936534767594,-0.24355392195890824,0.30576670055648786,0.10541152131187426,0.05802985823610822,-5.306440393099097,0.21041601364607765,-2.096572658377731,0.888641997042482,0.9128055539040955,-0.08147781072303442
3.8974384863607665,44.33595072063522,-2.3295340921313774,-91.77091344681689,-0.7003725382615854,132.5385487029285,53.1375001403511,0.09712419119743934,-1.317026603570093,1.0731087208422978,-0.29145259716409316,0.30658343810436917,0.05675985682880677,0.020882756741097623,-5.386867395869649,0.4126282073914959,-2.1623593775528507,0.9358002147986098,0.883457238667234,-0.11736646410374464
3.0313470170050545,43.67611623410198,-2.2778776868068658,-92.16042745960533,-0.7005748175366133,132.53686708172847,52.53455947950236,0.06396477248998166,-1.3185465039526352,1.0322040619378934,-0.24052678070236835,0.3048373167543047,0.05093114257153581,0.01752790042301485,-5.095638137968292,0.3799929326567518,-2.158039598538878,0.9194569500362105,0.8268469952890101,-0.11876321016485122
2.3814937730979255,42.88158413272055,-2.204155585437074,-92.5097419598309,-0.7003033550039219,132.52043396116693,51.99053628726919,-0.141290468593939,-1.1262202751333616,0.8645852034284633,-0.33184325153564836,0.30053767743441123,-0.023409821666077153,0.04869828154757073,-4.797143385501579,0.5442003830662197,-1.9383144288783425,0.9109604811390605,0.721532003856383,-0.09260158898925594
1.9947745417065217,42.126889350980015,-2.085191069633148,-92.81184750264201,-0.7004841261033038,132.49643622507546,51.53105614462258,-0.3306016565655237,-1.0014950026031535,0.6474476794029104,-0.3143145007300017,0.26334016945393823,-0.03222131607487773,0.016510738876373686,-4.289298635098355,0.7877674181536485,-1.7256474312081818,0.892773644236356,0.6379123462892554,-0.11738487847913198
1.8788900522161978,41.299825614040444,-1.921588686310003,-92.99601409510365,-0.699990396874061,132.42756128382752,51.23237882522705,-0.51353221233027,-1.1184138875601337,0.449725737167613,-0.22740677215010016,0.23750765727567485,-0.009471311055231977,-0.0007931696133478746,-4.293841010620922,1.006106456591953,-1.1694894718622526,0.7463486715726318,0.5851894049094716,-0.07631863648495846
1.9325088824165884,40.51263874150725,-1.7094296380352634,-93.0628737809585,-0.7000838475775016,132.39408405204838,51.08261683635003,-0.3270462117247211,-0.17333003986402243,0.3386794061101037,-0.8851127070111109,0.2406098535660068,-0.295216153022228,0.04761619229866377,-5.612398470530184,-0.690442109105383,-2.368593447300186,0.5042427634849779,0.7026650169438678,-0.013080060051041037
1.9813712831868568,39.88315824688498,-1.6942964206397755,-93.07754963749166,-0.7025587383006866,132.28747318194888,51.01510278463168,2.1485559465846236,-3.356378576934638,2.307892430008355,0.3376287412287631,0.4588520716739509,0.05845574798268876,0.16679325049205157,-10.72115394749103,-3.5669481719095395,-7.9879305689231845,0.19553211402566015,1.5082866582439496,0.22351018745920162
1.9744916604805958,39.9246108557812,-1.9298908831692916,-93.22173776056457,-0.7093022333765403,132.0898837220046,50.95107932214695,3.346352865851815,-5.9361928115970635,3.177805015156344,1.062942628886354,0.7070501567754187,0.10028898481317552,0.37562341140917027,-13.90007265555541,-4.238295549405948,-11.308979636009564,0.02453242183245924,1.96520465845365,0.49495320991414066
2.074868052774839,40.19994236996117,-2.183747135732985,-93.29812657293748,-0.7262252013596713,131.8371119153568,50.88621923819097,3.6211493399893135,-6.891263503233445,3.165957934318109,0.9636562910622514,0.7814392316817244,-0.19642497811941906,0.543278654340267,-15.788795958796083,-4.006302227201032,-13.296458191142909,-0.20871824404106037,1.7263309668352638,0.6336969982689472
2.501597489270939,40.62408444955888,-2.40772956463183,-93.28940160995514,-0.7275859755330023,131.67617225901964,50.88234054424832,3.460660830470406,-7.946302577693952,2.777389474738158,1.6548262601572776,0.7230694748955836,-0.3898248333328697,0.6160666852369453,-12.77928597858147,-4.157369863493265,-13.854453480086596,-0.5016109140815079,0.879563843067948,0.6756492988671715
3.232834599422233,41.30819368578884,-2.5345327864720364,-93.21615335539289,-0.7282922627920836,131.50948663278888,50.88840384015528,5.084265610699168,-9.188035094721393,4.116262689989657,3.0307728278308987,0.7099168422971893,-0.36458781498652526,0.6799800990607934,-11.396001877621044,-6.784604027360285,-16.04285816480983,-0.8177746843009528,0.5483146395407198,0.7324237923752526
3.4309898663762164,42.11778326778171,-3.41165903945302,-92.95586135239662,-0.8462639919332176,131.45602154033932,50.88847784973814,10.00112095065663,-7.261194677405899,8.797766331256978,2.044744145377066,1.1761269747823544,-0.975962629035466,0.896840239731006,-7.190244911638472,-13.51555738243087,-11.884359030133014,-1.2910745191698552,-0.5073853927382208,0.9966709055390388
3.5909684795614942,42.53287058597518,-4.35907718026223,-92.34565640503534,-0.9541226348794164,131.33703770713234,50.891893581208976,7.534636413348394,-4.862541897385203,6.419664919409207,1.97379903397106,0.933798856901889,-0.6204673756065723,1.0501825919886127,-4.560202567662212,-11.641663567955522,-9.695234264392361,-1.3985694540836535,-0.6308401359578868,1.0639672152672637
4.475730979508739,42.928233776533304,-4.710968294644452,-91.47579626213174,-0.969125693450371,131.05014004422137,51.07416183436535,6.214879643998713,-4.73498520699676,5.083947328289207,2.581525142266055,0.702658862181676,-0.3193913024487267,0.888300081605854,-1.0200425010796006,-9.362458182975162,-7.79152400465924,-1.3300626589654732,-1.1921998547019441,0.8876491359641046
5.061759303340764,43.136378751401566,-4.778192527080659,-90.96877193185409,-0.9695140096673753,130.95684692261466,51.234382701876015,7.354024009531328,-4.3416767557784475,6.023642144802628,2.1208340341694343,0.763129483165239,-0.791720651351433,0.959396060244189,-1.9999638660170422,-11.319452170956406,-9.108477260415164,-1.5755387163435035,-1.2729854813875552,0.9793200706564017
6.149035918855515,43.622118570691796,-5.0341531229358125,-89.64853468509536,-1.0025841478045991,130.87863892069308,51.507327758171265,8.195178031595598,-4.1836102089394895,6.801484149712102,2.033970533769802,0.9008041505668297,-1.1070395034266634,1.1197598076840543,-1.53356208652681,-12.706342193622014,-9.443911671707992,-1.704265219289241,-1.7411989651951327,1.1184528931409419
7.5487775072612635,45.016665731093575,-5.528695717915047,-87.65428985808241,-1.045362027006591,130.75900845882524,51.932988820339766,6.345363800988713,-5.0379746825480805,5.010033748097469,2.5118746776485623,0.7149009599686673,-1.104023670484649,0.9998427938456435,-0.9987219416010018,-9.741292596295475,-10.604167337651722,-1.499051178240539,-1.9092517108312885,1.0066560752028588
8.205153408835136,45.634931315530345,-5.524822146424473,-86.99672372389063,-1.045210361665177,130.7297850518092,52.21667164648313,8.862256248299808,-6.277374666136546,7.068287557256507,2.9830703584250298,0.644409674605605,-1.3757759594344703,0.45014849336570295,-2.208380814614931,-12.170183265533552,-13.272937797658093,-1.5848713185342516,-2.2323941301313237,0.473126209111034
9.050394448842855,47.00111862888156,-5.806887993910704,-85.73259654058616,-1.0455826136386062,130.73628350827448,53.04106709640808,10.17328228209683,-2.6110685069524617,8.448934729709059,1.6088723781339385,0.698493321634541,-1.702371352747416,0.263534837953289,1.5836997370647696,-14.622074238454738,-7.951687905918986,-1.7222100120479966,-2.965010569157233,0.2769898910980991
9.382999867988918,47.57841188329051,-6.379910093358598,-84.37367412596672,-1.0469367737182944,130.7414070444221,53.903175401027916,8.815808775308941,0.5544945737090796,7.429827378803777,1.442135403126996,0.7916890962886275,-0.9271598748002603,0.5676324756973634,8.856697573100028,-14.567704857666381,-1.167835291854704,-1.735641371847119,-3.1227081894279256,0.5747852605294508
9.850072345419663,47.577948776590176,-6.6970940310905,-83.21754537447805,-1.0495624235261438,130.55678340909222,54.463347000752854,8.761234870710473,0.4044718394108122,7.351743225987102,2.3033805331315738,0.8326519117261485,-0.20020473399482439,0.6510938864150342,11.496922904994644,-15.30459873355765,-0.33855162522763116,-1.685785136674628,-2.3783628794086216,0.7221002306927298
10.232717167282944,47.6818609337784,-6.944299259532365,-82.58106508404666,-1.068862264285496,130.0439555863352,54.81772372764593,9.163924269431954,-1.470904035766418,7.488317744882255,3.4388096775478774,0.9085038726581807,0.7018047771666314,0.778108294861189,6.759715600336509,-15.023248616827757,-4.421097518297389,-1.5912827330936614,-1.0723318924101477,0.8429841545683874
10.362788373659477,48.38423660108784,-7.136609673105408,-82.39092774412683,-1.0902698487038034,129.56233612474,55.042619527077576,8.660548304348866,-3.1057374900562644,6.817328040595645,2.3147741290190975,0.7967615055963322,0.045244334299438506,0.9002338016292096,-0.6737477820371365,-12.790664813317303,-6.002757297032559,-1.5925445194567855,-0.544785510929075,0.903616954295153
10.434257178401145,49.15470690990005,-7.160081155748047,-82.31307836931266,-1.0900907418286103,129.53007736522596,55.1384835294435,6.134725098415467,-3.33774505241716,4.943191019730954,1.6300955020754828,0.64513040998933,-0.2976350855405231,0.7761015263613212,-3.3180616308780384,-8.649042567685298,-6.654498003889047,-1.0322544403094198,-0.34010859369441054,0.7451384054810501
10.75540950335233,49.61489793766892,-6.961329258046835,-82.33612255576175,-1.0869033811951467,129.63909343539007,55.24589240518545,5.660325190882475,-3.1658485257763864,4.702470280198073,1.4441703630549365,0.5485933429581691,-0.25962568227923527,0.6755097969460413,-5.6901708006192555,-7.36589757679793,-6.324347152225058,-0.7148060806756307,-0.004778417052898734,0.5499618235457189
10.979189029672801,49.859725333220425,-6.6903638232133495,-82.50908220398317,-1.0840064849583924,129.96175763063542,55.343311454600126,4.706701794496167,-2.5121138096974303,4.120110223177311,0.6691248767038241,0.4414131269378622,-0.3925098442676183,0.5994152299431375,-4.51144977482622,-5.028107279281371,-4.321352325906617,-0.44867131159058343,0.4429635328646002,0.4799186931313724
11.172721229750358,49.860107845268224,-6.220012158160912,-82.99074210507337,-1.0800335187131733,130.15026818808627,55.36684026747719,3.493259843756401,-1.8384484972033566,3.1396325661588613,0.4694520485014547,0.29462034168098356,0.06877467659560012,0.5126475619690172,-6.243004430909535,-3.964141278104539,-3.098737811456714,-0.2429540121130094,0.9644968764482558,0.3673321894625017
11.208050664074387,49.765387080690935,-5.729737102860669,-83.59943612837685,-1.0677910653827714,130.36837730448508,55.36660597823581,2.6772725924084115,-1.1814771237011377,2.6171744712667078,-0.3111217756502304,0.2593427299854193,-0.01805201485084141,0.40419059826384984,-7.0483461509824705,-2.623040911688671,-2.7011031528785185,0.07776626740928352,1.0804744518485898,0.23379348248582776
11.136955161116472,49.53526673781262,-5.250493486735099,-84.39491849053653,-1.0599881800466922,130.66770879977798,55.367229702383526,2.251034823488006,-1.355586731362286,2.4375478804660515,-0.4236449812756254,0.25686678555128023,-0.06314003408846812,0.2567719797653141,-6.825359498590253,-1.5577646911999936,-2.5057966444146085,0.35127112125287685,1.0864352146609528,0.07121933090980857
10.853326470739429,49.18390941843692,-4.7533815215620585,-85.32717834542477,-1.0576052214651848,131.0471173726434,55.364296262012736,1.3511100339730386,-1.3219799643479369,1.8133299282319588,-0.3987387867239683,0.21065323239046,-1.6389296902768933e-05,0.12145206342161681,-6.78059248819969,-0.9189832951137982,-2.504073261095211,0.4805671697935877,1.0815554301517831,0.0036663962063869793
10.664401023468844,48.955472509123204,-4.500838335124225,-85.83040229495164,-1.0563879477130866,131.24612355356942,55.360202385331505,0.5943120052686389,-1.413283984220537,1.2848580376973024,-0.2988050404098491,0.17507767138303,0.08730725145526809,-0.043849464187129455,-6.78766818731011,-0.19530700760230862,-2.2906567024959674,0.721921266071828,1.0659387474231732,-0.17659522134389652
9.76550437029255,48.33500090222468,-3.7978354101585214,-87.347844350921,-1.0553102571069992,131.7973189121334,55.22472850111131,0.9275748148548382,-1.1790446617215966,1.6176524421980631,-0.5395405343953923,0.2067409126699365,0.0024733980824100414,-0.028920783509750126,-6.7181254305100975,-0.20579320858629505,-2.220258795764719,0.7348202606886539,1.0794318400130636,-0.15350564181070034
9.332992956361814,48.05604406741814,-3.605055663372084,-87.82163166468233,-1.0550486909628791,131.97640084022657,55.09612439735544,0.5814267298719846,-1.0748174866682774,1.3493903363618025,-0.5292110195144686,0.20553570598133963,0.054872896174591464,-0.062238728849320184,-6.26627749069663,0.2128873758557293,-1.9245701723481905,0.8229222037579252,1.067785287200192,-0.1848469433993469
8.347451157197904,47.40050588712767,-3.2779748140219516,-88.76811073781644,-1.0546777538666703,132.31887359892667,54.809310932359566,0.4174925083105414,-1.1156223248577295,1.1967909401255872,-0.38368383777775356,0.21183094105574288,0.1525120094793714,-0.16822100738208515,-5.6910842556867385,0.4746216931744254,-1.7923782508389368,0.921028543925019,1.0547554814755686,-0.27491693220667557
7.2651754101509685,46.818394563409846,-3.0182389974170483,-89.59208393638839,-1.054931260708485,132.5107081596339,54.44647630931272,0.5729955752599296,-0.7672273994931541,1.3002268328252635,-0.5615205946877521,0.22607569226689003,0.15449030623112983,-0.1585004091259058,-5.622548961887995,0.15773329782770384,-1.2138740163128412,0.8650484704027382,1.0977431029125522,-0.2558527961438035
6.15455257998288,46.07383354239924,-2.7826668970056674,-90.33053579926064,-1.054635299893217,132.57320760791143,54.000216948154225,0.262922471953853,-1.0144370224516903,1.100945082994244,-0.4066218008659795,0.23239137108726365,0.2119769142927937,-0.07890157108987503,-5.554788945319572,0.4308683901367638,-1.4803470726034655,0.9039941158702143,1.128541189757548,-0.1966267875212792
5.07322133141562,45.39470139747632,-2.5744475812892627,-90.90378060392287,-1.0545186304941314,132.5753488257626,53.469470069384606,0.21932777257425368,-0.9541732056760174,1.0666254888843418,-0.49556663468404627,0.22520118973251174,0.1550235885545777,-0.06858279492835405,-5.676406043842954,0.4342192587837131,-1.4570774904261918,0.8828416702006984,1.1093109390154934,-0.18903957754913364
4.099899607239766,44.65106579261037,-2.3925271866201756,-91.46387739644906,-1.0546327573210073,132.57519322266342,52.95823123256015,0.1817748521002632,-1.0389973969851283,1.0483090368606944,-0.40089102923270725,0.23141604530872445,0.10691648863659839,-0.06569345626685073,-5.081489065095452,0.5719718063136467,-2.332497344231331,0.896909686757117,0.9014500413384795,-0.17919387547516363
3.2546834992571587,43.9778038461393,-2.276880252331438,-91.94922417590463,-1.0546232400347566,132.57236186007782,52.418137795784546,-0.1126497142941491,-1.5183929317021791,0.8297966222009525,-0.07009091415403358,0.24081039230665716,0.09357994497318502,-0.05518366510365962,-4.842065660140131,0.7153232978599828,-2.418722442062901,0.9267773988384722,0.8033551838574873,-0.18613655203288887
2.5623106071627717,43.31435740937632,-2.1533201426422175,-92.3383306799073,-1.0547360325366555,132.56348170277994,51.92541743065274,0.02644519909336297,-1.5054658007339865,0.9594497457926264,-0.1882826365569697,0.2408081946435974,-0.010419149732150048,-0.01731816082437904,-5.207185950219155,0.4498607558690504,-2.574486927841072,0.8642112807569562,0.7691978602277683,-0.1543098810381866
2.0783130624915325,42.587521836855956,-2.061362299308931,-92.70695743253613,-1.054800387784378,132.54357713044016,51.491033270460335,-0.08001068055319364,-1.6461563110874995,0.8874424137961061,-0.07195358264888448,0.23924556049248405,-0.01640222479241539,-0.02185031004417879,-4.971802410738527,0.5557663970418658,-2.797054464508992,0.8863738309238638,0.6993549002513703,-0.16292766554895577
1.8133062117728138,41.92275789721531,-1.963119345410358,-92.98285020103235,-1.0545122926122288,132.48252443599583,51.18513874790901,-0.20079966970844884,-1.4852483801888507,0.7701391235613506,-0.06563577312111271,0.23750911438594438,-0.01118134961698197,-0.0187490934426381,-4.395713963958794,0.6133092385228399,-2.700300009386055,0.8934757130745773,0.6021922732663588,-0.18596817787428727
1.7891307014747744,41.23342660027599,-1.8400168353522315,-93.21303309879691,-1.0546306730846657,132.3871656704645,51.055190620617665,0.047181072529872775,-1.8242095058454453,0.8049322390308503,0.061172572759159,0.22547403458833695,-0.009361045348982015,-0.0757906471227028,-4.922740649943939,0.41019545487156334,-3.0564590883544533,0.7177235816197096,0.7057515628471184,-0.16524555297517296
1.8766060537920017,40.69669820144107,-1.7450558685610997,-93.36511220674974,-1.0543614555386132,132.2533765329211,51.037293913660704,0.20116186976964445,-1.9061259744672678,0.7721644766068704,0.10020487760938619,0.20755145296664115,0.01959587045628446,-0.05081494050199564,-4.992374274317982,0.11265864301091479,-3.245198748244699,0.5239089052027441,0.7492543815989585,-0.0800376657981061
2.1581160725446553,40.17398406028599,-1.6770390204243382,-93.42331142945389,-1.0542272815027114,132.07752261267012,51.037460203466765,0.42829301529790204,-2.0839835166050786,0.8139883281207297,0.2844960392841396,0.1912912297829306,0.11230019094897276,0.03769805317960369,-3.9605739692065596,-0.5380709981053893,-3.15805576212178,0.2662984085423873,0.6444415232580935,0.04947485583142114
2.6788553063632645,39.730147770282144,-1.644790689848548,-93.42204164609424,-1.05418161034577,131.81390674612305,51.039320635371226,0.9321600279686549,-1.9291133017480402,1.0719946897095762,0.48018577650702626,0.1722782886178627,0.06713244869379296,0.1477768357333796,-3.138689361750332,-1.289387391765556,-3.2134975605335674,-0.03382189467194216,0.3778867676763702,0.18043166272383987
3.3962164614119352,39.53409136573759,-1.6432162425003694,-93.3802915472325,-1.0537842981757088,131.4964187891063,51.055139780679134,0.9882599719745486,-1.914517807728547,1.014384098315956,0.6348329384278091,0.1476213351207766,0.029244894261871143,0.2795656326574004,-2.082233022446208,-1.2214985961851788,-3.46160781667301,-0.06373886523587449,0.1433258760903702,0.20807681845129983
4.357724218952103,39.46534973809412,-1.6429355503216867,-93.14361014778778,-1.0538021038323926,131.28893981087361,51.17706023427872,1.4177310906065683,-2.006648387869193,1.3091117493253421,0.4140381693167311,0.14574927269690974,-0.41043824711118815,0.3224845850943442,-3.103229131299125,-2.1722454647682716,-4.047809383988911,-0.3374369277101531,-0.13058557916495103,0.2909446526620489
5.021562874815339,39.623327931967225,-1.9081814761093951,-92.7059094913988,-1.0555608266627046,131.28611507823405,51.386017408385726,4.681436941115544,-5.659774536501335,3.87677531445979,2.168625617541018,0.315717981251044,-0.6386248519095418,0.39436363609152036,-6.958119541698851,-7.374856205637385,-14.036351027966566,-1.1325067670171234,-0.616327526085212,0.46840214811630565
5.537179300761504,40.707485657365716,-2.4072891867046264,-92.4415267128957,-1.0578320137721684,131.28525137041643,51.606104249002954,5.680902891583925,-9.803821373011813,4.53435433642527,3.5877921097256964,0.4535364809420103,-0.8631973758802228,0.5853032560859603,-9.419091222605696,-7.508231244823824,-17.917764185536154,-1.2026064776753902,-0.5187440399515139,0.612760654488548
6.153493874751309,42.502773515895754,-2.9034385098497872,-91.85244685876883,-1.059193283758447,131.3678575801307,51.88301136922541,6.105158198816069,-10.0950724762186,4.958913199497602,2.31089360145305,0.4917607135844492,-1.9233627437867968,0.5760663472337612,-15.422103051952226,-6.976027361815522,-20.3539602929933,-1.1411725255452225,-0.9948021340948783,0.5245150286793053
6.516999026073609,43.33439830297794,-3.142091217271367,-91.3606262776097,-1.0594386370781237,131.50509077254773,52.08569953366482,5.484139633894574,-6.543557653974486,4.463489150447667,0.25695561827777147,0.4463072116007328,-2.719888016627824,0.49857631861233187,-13.01070269758451,-6.622592451287702,-15.752349902927094,-1.1652504502395322,-1.4320159699793313,0.5110390756332961
7.490658172546687,44.4171451083178,-3.425232606319387,-89.9259153872255,-1.0590361886081103,131.87458073675046,52.56622336759196,4.690490484558687,-5.646783822793851,3.759703501520852,0.5977388740949295,0.4448934890681813,-2.1590823173495464,0.4557432099767391,-9.68512905540144,-5.696717530443093,-13.318782852954234,-0.9849149653811353,-1.354790849859711,0.47536641102176513
8.68606273626245,45.29925329327432,-3.5369471014343694,-88.42674958458468,-1.0591022058993733,131.97366783503514,53.198730306066444,7.636861280463954,-10.622420734662311,6.173133527302362,2.660872526348335,0.5149389333546713,-1.859194151662388,0.24706678338730664,-14.954025332570486,-8.266467849790294,-21.334900102201853,-1.054670455230105,-0.7367688158464447,0.2582370090359051
9.416487982160003,47.118406250511484,-4.0339510579456475,-87.10112383020761,-1.0609071094926543,132.0907546546248,53.987222972650336,8.272453505207704,-10.543708946559752,6.716270340918705,1.8197272441407946,0.6003405576398785,-2.8756646647246775,0.28422177170350865,-17.182114252481444,-8.549436862745287,-23.18060528496775,-1.1626859279344461,-1.471857823011867,0.28311055042866856
9.915860373422298,49.02886319877434,-4.606766276014289,-85.66926671705454,-1.0641321279998084,132.59334495691186,54.66996578615038,7.588094421351494,-9.80809906142333,6.041904348238962,1.2535826880158925,0.8059928756050937,-3.162045770150612,0.7356853628792542,-17.341722784975676,-7.940383297877595,-22.676497955352918,-1.2736662412878248,-1.6552017789639049,0.7349031583988256
10.542163202562172,50.72035672682813,-4.91578619684664,-84.26284743019143,-1.0655204596738894,132.96537841324331,54.98248244939641,6.239916605414801,-9.504288626143207,4.795919437602552,1.2588682537991958,0.7812387186199652,-2.787194001019096,0.8345677949222654,-16.965049509139334,-6.091023058216624,-21.616130664869246,-1.1189790637719539,-1.223554194425171,0.8417656632452961
11.378407659049152,52.16495811993257,-4.938825158648014,-83.05793914992189,-1.0649914757417844,133.29782557013868,55.353951380083124,5.950663598347166,-8.825416653491935,4.620624399441595,1.1907841455702328,0.7343246993998982,-2.7263294732513903,0.6462189470962164,-9.28614491018197,-5.099396353969262,-15.953781201920119,-0.9194920765919316,-1.4894940417761542,0.5476832912945565
12.334442656731197,52.97440877050216,-4.83318732267817,-82.22597785730594,-1.0613136373435517,133.34982123839168,55.947955639155225,4.333971817284067,-6.263518885260189,3.4033623837007947,1.8112331745463333,0.4422461912022035,-1.5601415478438485,0.35836149897844904,-3.7452009270050217,-5.145740454545575,-11.172671812684577,-0.6933435460597105,-1.6074601507084845,0.1895315098716373
13.227542644446546,53.34669739352613,-4.690217124138792,-81.7598572843175,-1.058402598134071,133.33817154574015,56.61909047184332,4.018162891542508,-4.695087477799745,3.2773278577955196,2.1821771856474794,0.26035334534163207,-0.9584555896569033,0.17712919302654764,1.2499617691795537,-4.910592850549568,-7.301836278085784,-0.6537330120016989,-1.7522835593228996,0.12768400069840755
13.97871288945491,53.36574714194743,-4.49546708097947,-81.5236096152861,-1.0568447789737476,133.30560649597817,57.11924268676516,3.063307138058279,-2.3266236946315875,2.709657622405669,1.3152271934928808,0.18782604104753112,-0.6720729051076076,0.26705888142969153,1.0833708014887824,-4.728320379080873,-4.787985264014207,-0.6329543666396088,-1.422811855856223,0.20100198800624652
14.497512089854784,53.24816791561926,-4.270727415432232,-81.44118477050776,-1.0562849647754233,133.30480523254775,57.460991604903484,3.0710037256325107,-1.8630174029716218,2.722973944295026,0.8126367944579632,0.16997155149060666,-0.5212131312852493,0.3159215432555678,-2.4728560593471007,-3.481431467737936,-4.346831734086937,-0.4410924837829356,-0.2638929355830296,0.2758839313898993
14.75015138784555,53.171306178469735,-3.999450546525219,-81.53039328671616,-1.055843988901728,133.30327100120147,57.658202290975176,2.6824866642784078,-2.0203731567241343,2.383152494877141,0.455211577951429,0.13960985987888577,-0.2553272839059698,0.32771454367455227,-5.271388605477348,-2.5562293748810045,-4.2584000055269655,-0.24441284515451284,0.4754840566612635,0.2581264029561678
14.778048523275178,52.89251368264488,-3.761590504684469,-81.8752604371485,-1.055354240438068,133.30344938088567,57.729864435596,1.9232891452370346,-1.8385663701007884,1.891813120195124,0.028632821234229697,0.10933109707478805,-0.09271139597186147,0.3329829964437941,-7.591389904710634,-1.397933163290634,-3.82752690895299,0.09679079354755485,1.0998344299175795,0.19454168738998753
14.671610754359824,52.434702915238326,-3.5234580253159096,-82.4988469454326,-1.055287945025454,133.3058384577619,57.73160652065634,1.9221356524593851,-1.5645014873399172,2.0991528484013715,-0.4392137619139014,0.11013088775226973,-0.08273208343475079,0.2494222764336075,-7.52907014967551,-1.1376370655038166,-3.3767286181394103,0.34203320191166875,1.1126842846549276,0.06196137949162289
14.326629603811881,51.81283021328185,-3.339487828657579,-83.3144851356488,-1.0552076212253263,133.35752052459932,57.73101477479889,1.5378023803405074,-1.7075859874892216,2.003194472017946,-0.28996469993027557,0.12278875893136772,0.11643259721106787,0.12483320023586142,-7.779735465727932,-0.6561902586391086,-3.3819606615161835,0.5458377610011305,1.2991891190946059,-0.016465211461497917
14.066732032297816,51.51289217175065,-3.247001979470243,-83.8059159977982,-1.0552689850676782,133.40492352037498,57.729484787017164,1.12771092799044,-1.3040815728010735,1.8067761723017959,-0.4561176505916661,0.1304548473769385,0.11618000366836605,-0.009062052361806808,-6.648810299723822,0.1350083111308362,-2.0979828059447443,0.8466514284336167,1.1811124468295433,-0.2158689630588169
13.378952880369674,50.84665953859762,-3.0806173775008956,-84.83390599339441,-1.0552944516664093,133.51373046010494,57.71955752703252,1.2069114305118231,-1.3584190004954142,1.816367970179934,-0.32812664909301653,0.14433313225348332,0.18700186457210088,-0.07747810609387673,-6.723540702345781,-0.1945522762772824,-2.5216555740086877,0.7744820182366505,1.1977067839310198,-0.2015525740782095
11.940919578808721,49.74221446708272,-2.8248075703622626,-86.50369025656542,-1.0553410222160142,133.64959908186344,57.47391927297897,0.7247556578550977,-0.9997913740032071,1.4411360846823638,-0.39176364293824145,0.1492020994065413,0.2437397416985747,-0.04591330916291053,-5.904482293668493,0.21199305478471636,-1.7217427007567236,0.8249907282124627,1.1664574531417036,-0.17289983466247721
11.381649254756717,49.34522287208577,-2.7263321519041255,-87.0767163187173,-1.0553378612793354,133.68052200012127,57.32082203788206,0.24901855844709495,-1.4402716530519366,1.0310160355082802,-0.004123492741121004,0.16017739866316497,0.36578920504315515,-0.1236539223585969,-5.115216866290839,0.8388047457572919,-2.113292333749496,0.9550723176461748,1.0946316963802307,-0.2389721070446435
10.214695853308944,48.57796850284514,-2.510314534853605,-88.1568814444563,-1.0553812627309793,133.69325412558294,56.94867096219129,0.24871005652673775,-1.1510092775097107,0.9986525479295627,-0.04624442751598136,0.1657490014664129,0.36333565077352725,-0.17414513847554888,-4.433589804911016,0.7142277919521918,-1.5716410431684464,0.9378087104071265,1.0008717268916998,-0.2750745263656371
8.996541337878528,47.85008787680849,-2.3220339683726823,-89.16176919250161,-1.0554020642774788,133.69311310635328,56.49461338175002,0.0770326769811846,-1.368361565436376,0.8170429522270454,0.010357441483774687,0.17568546500233723,0.3550097672429938,-0.07198337580089822,-4.680499074609526,0.8251144612877099,-1.9189206134606238,0.871598495647817,1.038240532641114,-0.17631891455985793
7.770686567806668,47.122308339300474,-2.1411612572858925,-90.07023086265764,-1.0552204340070033,133.69330029713018,55.88027981993231,-0.21389885470816675,-1.5076803558015386,0.652230100429877,0.11860782444331323,0.18718608633110154,0.29520610229307015,-0.010815567836505991,-4.272434490754078,1.0184160161140723,-2.185787682463788,0.8955263189547247,0.8786856171635962,-0.13586260675357284
6.721124449547873,46.53277049545538,-1.9948438089449059,-90.74161428227397,-1.0554673304387174,133.6930784957499,55.333726273896865,-0.05210139028189372,-1.5813991033138766,0.830190097386081,0.004066155280167534,0.19402090858375162,0.22810707345769451,-0.049467748614115514,-4.93908357779916,0.8863556481139395,-2.440775879363023,0.9207506884902326,0.9266541186146776,-0.17694386849278942
5.4212491658432596,45.70647862042368,-1.8471447546402102,-91.49947421295764,-1.055407122972211,133.69205497106444,54.55662165016176,-0.3311768109517433,-1.8775110864953888,0.680490734988611,0.19015652423247428,0.20395088903839048,0.21460673554417878,0.006095302303035875,-4.713887931801761,1.108319818998775,-2.911224688824388,0.9677405813552405,0.8334303131714935,-0.14383669858107762
4.385517244589113,45.078692109155504,-1.7663826827135811,-92.06199427493765,-1.0554478058424988,133.68860004378485,53.829434276838384,-0.193309156436335,-2.0116566716761453,0.7740310720352652,0.2920683780908918,0.20216299621363082,0.17034532462916993,0.07923374743707295,-4.5205164510299225,0.715218925619144,-3.192998139614663,0.8426199098682914,0.7389162143096978,-0.07494437247538088
3.551056971670583,44.34363676647959,-1.6851747885358848,-92.53871197251311,-1.0555325885550408,133.66094304458935,53.15608567273293,-0.4025087233353336,-2.2342399079765967,0.6416494987654137,0.2603478975273417,0.2075971845269313,0.07845300487859753,0.03281410845042513,-5.040678977357379,1.1056604028519643,-3.7118247621548646,0.940717560554171,0.7151485099883125,-0.12535393890464666
2.9210282959467517,43.704032494178094,-1.6049892742339442,-92.94337530662764,-1.0555037938065048,133.6239591785567,52.58074079995898,-0.4622240956841492,-2.0205181515309776,0.5998060724605704,0.12882067203651504,0.19930852281540562,0.019914357171093734,0.003879850930179902,-4.965049511327738,1.1036115019430297,-3.7717731474100527,0.9462621701400187,0.6376403489222418,-0.16993546568905654
2.5187336472575543,42.97964500589124,-1.5763053655614954,-93.26664177104298,-1.0554477359214327,133.5559152268115,52.11040480911408,-0.36174008953264464,-2.447694207623397,0.6495048857359684,0.3819781305679665,0.1983371068263599,0.04572894463038605,-0.03062825964584084,-4.8585427489494695,1.3175263939524977,-4.011943632932825,0.9741748561431888,0.6815022759273395,-0.17378480124123466
2.3851560732789836,42.38850937026682,-1.529690755978916,-93.5118928347673,-1.055447698670624,133.43068692749733,51.762949054211724,-0.585863979211722,-2.4840819167554833,0.45049372351289574,0.46750565852646603,0.1898476047553643,0.12492529232465648,-0.017440176165578584,-4.59773317616681,1.2526927099053546,-3.9626945982764057,0.8469177033849831,0.7061935029101607,-0.14485190279703494
2.413492285590364,41.77564704064171,-1.3963155006392354,-93.65510609103758,-1.0554680744281557,133.24131359327075,51.568895648866985,-0.41568368027176844,-2.5573953716017046,0.31748594491141807,0.50566741573099,0.17222571425794692,0.1273182635795247,-0.04887224136335914,-4.840717405665483,1.1757310057933024,-4.114638151552361,0.7716589377374812,0.7235541947973734,-0.14711510867765074
2.6026470730009508,41.20487495461454,-1.3017216914237453,-93.68101927743035,-1.055417806859891,132.970817808176,51.525491902581486,-0.14428715233850473,-2.730913126294444,0.35982135606685184,0.6396755328238851,0.17478911038469222,0.08648290197637098,-0.049088845859930945,-4.8850160859539775,0.36687777425263096,-4.444232355454524,0.4632718092165863,0.605319064099927,-0.07144404784070149
2.9790469703387705,40.798633741215795,-1.2451499406808173,-93.68143295647903,-1.0553812534395526,132.6070258982925,51.525385163591736,0.2749067536243982,-2.6517741939646196,0.5912256893990465,0.6220851891183554,0.157904963744042,0.002761126272316468,0.0465174412538408,-3.7139549069543714,-0.3250770031449217,-4.569188175584213,0.18969940376821884,0.33824266557935867,0.06283948311587588
3.56987776401415,40.446465032565776,-1.2108705976423384,-93.64807071480622,-1.0551669310897855,132.2824460724608,51.52811005602529,0.4206596385567109,-2.664710602421694,0.6183210501871806,0.9101740734839294,0.14082691826714,-0.014440150297405262,0.17407403863669338,-3.0652104540542378,-0.5012303633649707,-4.480052960242082,0.09862177305751321,0.21106067475275422,0.1267954625692755
4.39418476628605,40.18242052285633,-1.1980489836046346,-93.4997520505961,-1.0549905569034757,131.9709198755696,51.55056618300329,0.6458428287630685,-2.6537054070286916,0.7642100520284096,1.1300111280455762,0.11605818353328896,0.008463356541475021,0.303009617006234,-1.438637764672339,-1.1473127875538516,-4.415601295490721,-0.10084999135758836,-0.10706390683635165,0.2015633613547456
4.8965150293745685,40.09990546030603,-1.1889081497573268,-93.3773610691682,-1.054888581093672,131.77551861030148,51.615548577787145,0.7777642777858056,-2.598427847138938,0.9111714527157858,1.3921555286148006,0.08516607250688808,0.011540971267687567,0.23705550274113849,0.599068024111942,-1.6173756402869695,-4.156158616287025,-0.2158048812580771,-0.4878444065090577,0.1899037093851956
6.024506324234858,40.064008880345575,-1.180428336668402,-93.01009254809503,-1.05464677128163,131.3616668832023,51.842122658296965,0.8299039839889909,-2.498910790165841,0.8891967368534064,1.727509760680919,0.07020287310054901,0.0283974240302348,0.270700444841556,1.3186038250835648,-1.7083856020909265,-4.1341295334727315,-0.258142280330105,-0.6268183021938115,0.2174332644735758
7.270799742775998,40.071986651956436,-1.1815722926530905,-92.45635463812124,-1.0546290713589437,130.9944622977413,52.165611845551496,2.6435852146262486,-3.690186391157601,2.298539899767115,2.1877382690969527,0.1023543323448237,-0.10082886590024454,0.36778547892869334,0.12667000923028837,-4.278109830530915,-6.3668576221253455,-0.7284859217699954,-0.7146953234020923,0.3298983113526999
8.298828210212436,40.44685304030921,-1.3840387420259184,-91.62838739933736,-1.0556823504325634,130.697983771945,52.55831635220781,7.070095869666233,-7.53521863922108,5.958486259417771,3.867991403806613,0.3579685780537923,-0.2989207161697643,0.2853209095085964,-2.9857737483902036,-9.913968560316503,-13.197227200945424,-1.3036892865638283,-0.9532932178729433,0.2874058229800015
8.643438735576682,41.81913557977847,-2.2229187041903877,-90.87046024689215,-1.0614013854453166,130.41478193466207,53.06050872482715,7.446466161501356,-8.533281540665115,6.310185179736742,3.5865871283055974,0.665591899769733,-0.8509379799586605,0.6095737377783129,-6.536804689058423,-10.25306888732135,-15.77768488368621,-1.2873770915327634,-1.013692545387383,0.603080902270659
8.932329302707775,43.743727264863374,-3.086909759123852,-89.96270316601678,-1.0641600974268641,130.29786090464523,53.450252668864124,7.6434273731016145,-11.422864714323214,6.35476308826127,3.8772548783153873,0.8054255698538636,-1.46706990170546,0.6899787045984678,-12.416007987964518,-9.424792602913291,-21.53210008104679,-1.1884873256269923,-0.9091527132257998,0.6869332672778149
9.416176688339815,45.91341058506558,-3.739839077176986,-88.78026901287035,-1.065259907718725,130.3591451324101,53.840637891112415,5.2404898328153635,-8.767795479382755,4.1894576149393785,1.6811103289354274,0.7584016578938251,-2.410517327572743,0.7653531505930834,-13.380932615315364,-5.890631422315227,-18.650642833115207,-0.9957367118211242,-1.3262067319185658,0.7803234449358872
10.309803005624858,47.60512020351642,-3.9895111770677376,-87.1706286996088,-1.0646729680438647,130.68226483020118,54.26821579581384,4.51950434382701,-5.112872455860979,3.603000085385513,-0.2249868098458142,0.6329194251451512,-2.941111252579494,0.5114768585854125,-11.139572616345042,-4.955900424502012,-13.644834988710297,-0.9494410476570182,-1.8727977684751567,0.5469537713046997
11.424162373631036,48.54438378353729,-4.014721591077214,-85.30214927341393,-1.0640912308610797,131.1729042416614,54.8166166258515,5.46267501164559,-4.777144269018399,4.441377052382019,-0.07077119581306217,0.6444379721078974,-2.623354380006508,0.5119292123088567,-10.038830924191208,-8.350236932416006,-12.728982716897018,-1.2010219448809203,-1.3754940064461363,0.5910729810251136
12.092152584887824,49.37089646584979,-4.269712985123752,-83.76790039419346,-1.0658925055853126,131.37347500450772,55.26308314323689,7.562024374415102,-6.465187405068085,6.140433459449778,1.5727865293936478,0.8175155354379527,-1.7719593207218434,0.7236224809026347,-8.669895667696046,-10.9525135455211,-14.944204698252463,-1.3279753473994171,-1.2038407746182183,0.8075432774234436
12.256645400543366,50.60991057980544,-4.8372678996084275,-82.81737389039756,-1.1026062616877685,131.41092810505876,55.59684701950609,9.813214172074655,-8.19291075283277,8.118426221667072,2.6811587848871885,1.0477397359472465,-1.6306078894925382,0.8134070567906557,-10.122278921214729,-12.611499232509697,-16.11295266425266,-1.286565002221665,-1.4749096766223349,0.8754450705244258
12.173786405544478,51.7131213527299,-5.56008540993279,-82.12343789224016,-1.187819508856671,131.6044027333841,55.76809978884911,8.248777441791834,-5.526852760495599,7.028398565269313,1.303319973500848,1.05123141672262,-1.8869741130689035,1.0568620436473433,-4.809250395385387,-9.017948823607602,-10.34219037154356,-1.2668020233236357,-1.4419242834599033,0.97233677055647
12.43956025954229,52.108718093926534,-5.624860642512431,-81.7373406457894,-1.191069294716354,131.64042693735996,55.89068304460582,5.298847896526306,-3.7953173540085685,4.255196178589289,1.7610170330542665,0.7092407910500694,-0.940433955507926,0.8449194312211167,-1.4469969352755248,-7.909459665301964,-8.074169944839852,-1.1311060753461377,-1.4792535968761924,0.8350526946183303
12.919473506500065,52.126735530504035,-5.462296529031285,-81.67726162072732,-1.1877319294411939,131.62085123426073,56.129608728521596,4.578464020699561,-3.4160811658552177,3.7885866542413664,2.0843651291419705,0.4965351683463376,-0.39220012480446415,0.6048347159437664,-0.42576337692923905,-5.9738056404266455,-5.321416036253317,-0.6869952594147575,-0.8254244840895135,0.476192358901338
13.331239746614353,52.09759581034716,-5.225593862075814,-81.7043535019374,-1.1830035687925937,131.61973101833038,56.35032701283313,3.1244070529227295,-2.404876577303007,2.8146482671169197,1.1677396147212176,0.3166500741793984,-0.212462141817954,0.4775245633890161,-2.571686948032878,-3.9584072020088366,-3.375944832339642,-0.3508133136889672,-0.038532084565397653,0.3596172774807852
13.611576600857072,51.90324240357318,-4.855123364501201,-81.92074575525575,-1.1645613723625299,131.62084313599834,56.49509712246927,2.9356952854168172,-1.725773147326018,2.6888686178312087,0.45959319419326433,0.27935561560467603,-0.08453531439544218,0.39663216706077736,-3.813254943183433,-3.8309929581340585,-3.3984629179626014,-0.2740236314884174,0.30412410552560454,0.324454666470239
13.630013936102642,51.67958475246891,-4.587405391600724,-82.36766435109983,-1.1588273433138399,131.68273259897344,56.53630428897151,2.681230742511474,-1.0063364212319952,2.730625418168592,-0.6018079809484472,0.2756026829270635,-0.13000033565525512,0.3500795915262581,-7.498580265837426,-2.8192801237599627,-2.5905712367183362,0.06315796828207274,1.0804726159985012,0.24700200434051472
13.587710770582493,51.498806661647464,-4.449241902413173,-82.65532443262471,-1.1549915451429842,131.7398054158623,56.53646449016031,1.66454182590791,-1.0541508471171295,1.970719084618472,-0.4601449109383344,0.23076161463008302,0.05689168394269796,0.26848205961154314,-6.800866861502611,-1.4167155386704304,-2.2048058969118953,0.3216433890350672,1.1666528911047251,0.15843349614211627
13.414278676199295,50.986995194887484,-4.06087150351523,-83.42019730856053,-1.130970390751139,131.89999035027515,56.53628765924196,1.0066886372027446,-0.6686695439666025,1.5539235004347933,-0.5764002646360071,0.21186620815139695,0.09033153400114809,0.12343511735898184,-5.960843796919088,-0.5008977768616939,-1.4048687637885107,0.5684919817384562,1.0848704816659185,0.009581065231170693
13.077549363454866,50.2790240986531,-3.6645368415651403,-84.39649307160552,-1.098128723558858,132.16786490353562,56.534806151321284,0.3880845400036233,0.10206996609036305,1.133074411814708,-0.7903737362212471,0.19899859501159864,0.06430914018728634,-0.04229877722420217,-4.3791242837714375,0.23369023466579714,-0.04885997216720066,0.7703856403275555,0.8375075896661054,-0.14953630953014574
12.545869590403118,49.48856979361404,-3.2595508520855154,-85.38704131022473,-1.0790809220308963,132.45685678106358,56.52666175017995,0.1667586842230619,0.10065445950667624,0.90603422270453,-0.6395856987614496,0.19354221813791844,0.15279774111776354,-0.16149385584109616,-3.5856188367314212,0.5768666517903545,0.172730162236725,0.8600225210015797,0.7772385370885858,-0.24890188347992614
11.77147801024185,48.590536721476305,-2.882229147897402,-86.40517917265875,-1.077486176247571,132.62930404737222,56.433770601102744,0.021305072414890266,0.468414603201293,0.7681399396312918,-0.8983074076861599,0.17993921399016372,0.1132531098850926,-0.113364749053627,-3.737670167384931,0.7097629744114463,0.7142226179742619,0.8290869174842675,0.8315125608012686,-0.20361276079185703
10.818811545191505,47.65118044237639,-2.5366231618153936,-87.42034103617935,-1.0761113087304857,132.76972743488884,56.20054402627321,-0.6138019599150283,0.22686864843182697,0.21344454800930796,-0.5167145659199425,0.1386633097450175,0.30972164878836433,-0.1814528199508648,-2.594062883979059,1.5161142918091537,0.7609918054585086,0.9523563765613698,0.8074351992536484,-0.269122607635548
9.781911903030727,46.78969222392281,-2.222469341367939,-88.36832793169279,-1.0741966047091367,132.8263473018932,55.90296653618158,-0.8092771285297354,0.49179405512366986,0.06767712276838635,-0.7021641326466013,0.1479590569616124,0.2841930948858686,-0.22420732866983625,-2.653651086712808,1.8424805873430024,1.1709638841386845,1.0369788451560156,0.8309776704135166,-0.3092467017493979
8.680079705814778,45.904325447995255,-1.8885900121016628,-89.23696796466758,-1.073554562484006,132.84052642050497,55.562492108571085,-0.9485632773194685,0.18289137646133452,-0.07018163560141734,-0.5957058431464297,0.13705970361044653,0.329358794406499,-0.24034378005166798,-3.0354214752465603,2.1374785653313153,0.7458403479727661,1.0751376256449579,0.9273786726104823,-0.324451814072403
7.575299059671913,45.10457564669909,-1.6096969734118804,-90.01704715730847,-1.0727881070001053,132.8409130038615,55.14885026014218,-0.8017051544328236,0.3764869045244937,0.08108487790201331,-0.5847787034741164,0.14943801182454783,0.2918150588584233,-0.26371222684613904,-1.9576215121305438,1.8625044281002179,0.7526799969540036,1.0498477089506546,0.6621170620918982,-0.3428500477454573
7.038828777491066,44.69064497945439,-1.5002261278538778,-90.38188555867885,-1.0728722944359943,132.8406668928602,54.922846689433136,-1.432139919826357,-0.20200302170883827,-0.43124872039646783,-0.1467264089420801,0.14053397798723885,0.34866925409338717,-0.24376037044529758,-2.204211969854433,2.3016039935008417,0.455311787052257,1.0893295026063028,0.7080900099621251,-0.32347354118856986
5.543683043547879,43.5692922943498,-1.1200133538313326,-91.30999072791559,-1.0722822386784017,132.8338176577443,54.110298298890804,-1.094625109659467,0.18278440327133352,-0.162894603400232,-0.3681736697249343,0.13927924339525619,0.2812474885831013,-0.20498147614400158,-2.157600436609745,2.1326906767427563,0.4360054803320205,1.0434559459374224,0.6065843690051061,-0.30026568073300475
4.697966567395379,42.770362872566054,-0.9424930345696774,-91.79537778082371,-1.0720060017832012,132.8074407138674,53.577595595915476,-1.2098310290213454,-0.27259514650159494,-0.24114133078614944,-0.1995137346721769,0.12852152440878004,0.24349453489363204,-0.19706198114543505,-1.6547069041505138,2.4018363071719278,0.2129901801406655,1.0814195453884763,0.526512734031516,-0.3069236527690881
4.030464057695627,42.06576338666287,-0.8167221136996198,-92.20628069933274,-1.0718595731587266,132.7037780285046,53.14089542027457,-1.336421815547938,-0.20758774784245243,-0.3640702460230741,0.0036555450521521936,0.12954100478502723,0.31237506793015796,-0.2081420653620336,-0.9547522184679451,2.469968875476181,-0.3089866818878747,1.0852331382064617,0.4076257261438548,-0.32766233007063306
3.5839965987184486,41.32255573265546,-0.683060372740508,-92.66231029723389,-1.0720058874206047,132.53488582618985,52.780192636518116,-1.4577748065388316,-0.6334524044059547,-0.4207349601750968,0.2693280457547456,0.13420943656425652,0.3003658871299188,-0.23703171757042032,-0.9275036843539559,2.451059697127882,-0.7450469104311949,1.1183005269204105,0.34429269967010473,-0.3573133356104849
3.348561135950738,40.74059286065126,-0.5708497871910156,-93.0311488309012,-1.0719443360021015,132.3629820762835,52.496724718551505,-1.311354759414884,-0.8089753154135164,-0.31881886943702553,0.41065475919987693,0.13500114449515144,0.33037727613209183,-0.25113374301461827,-0.4607411456193957,2.284578859085657,-0.8127771526463368,1.1012636200162318,0.3206834314959332,-0.3631872031480834
3.3187521174591277,40.099790050723826,-0.4930527022590499,-93.36577875838377,-1.0719160829352081,132.1501387529694,52.32968846544606,-1.1471002532604748,-0.8112799369968938,-0.25457837088499,0.5230511753090316,0.1332176177759959,0.4069977397662147,-0.2618354259577347,-0.503208783452582,1.7830193434653407,-1.3532249263211646,0.9268436827442497,0.44597271642369885,-0.32281711212392045
3.3824726699815315,39.603765710145936,-0.4204561088191284,-93.55753667818942,-1.0720051923385838,131.82178383282505,52.29300092365249,-0.9208469708930294,-1.4352804493538351,-0.23262569172163175,0.8831138229609368,0.13444001875412223,0.5753792379492826,-0.2352639467672352,-0.7882390006961677,1.5659757677206365,-1.4192231249112424,0.7653022838373542,0.6120648144688275,-0.2455118326890521
3.640460736026394,39.21148781028582,-0.36947422912696015,-93.64107624319415,-1.0717352786569225,131.38239703757122,52.292656891186546,-0.7664940587198903,-1.4225120371352116,-0.27906448443312937,0.9037778311024156,0.12235034329796614,0.6295334365633359,-0.15076230863319698,-0.7256655575527019,1.4105815285122978,-1.2884205542611822,0.6703665551409813,0.6259277108060447,-0.18743120296975968
3.864284755184421,39.03136917186497,-0.35590403000550624,-93.6434264228738,-1.071691837005373,131.1950008712726,52.29261924286596,-0.3112776062416719,-1.4412600973024163,-0.06270287976591409,1.0497881095477473,0.11405009472729687,0.5508450138193933,-0.02580281357645299,0.015675708648228447,0.5009460709165289,-1.4724420831145637,0.34870277295649,0.39060693621728737,-0.043630985006778866
4.479157353611587,38.72500728502156,-0.3503980365885514,-93.6364272816133,-1.0719175896290123,130.82020090171406,52.29511654028042,0.11903449212768749,-1.8480921986851164,0.10642148758679464,1.1673320457786567,0.1163887686098937,0.3725526643129576,0.14857878824582474,-0.3055166551486993,-0.305039092534534,-2.449182791666534,-0.001238953578658858,0.2144763281175373,0.151255328450818
5.247199213507838,38.55008702898865,-0.3527466361630721,-93.49383612709575,-1.0719163338039757,130.38654371768095,52.30947969346123,0.5810463268086925,-1.655251874860414,0.4326461898740144,1.1678234016801596,0.10924327307097842,0.2380512694045705,0.21344736617740645,0.44276578388022303,-1.1584816286078792,-2.3876513474249887,-0.22108700419061733,-0.06806162210193478,0.22141993167520055
6.18667864907742,38.517339738198544,-0.35455059763716973,-93.20024107829121,-1.071911814041459,130.02450331783828,52.42204978433001,0.31406198909618527,-1.2498552085874983,0.30865301329655515,1.4065309906881993,0.09621378644217307,0.19109450420466073,0.17731823958949863,3.000037172477188,-1.058720662301366,-1.8683915496684989,-0.1643172968603959,-0.6118336958405263,0.16760370837993047
7.322814874023481,38.522156574367266,-0.3567586321693273,-92.70189510190036,-1.0718478120680643,129.68605504484955,52.654698131983295,1.2830201600143512,-1.7277032661028209,1.0215821523210251,1.5117374614122356,0.12733297291600276,0.021951601083192936,0.31938469289377047,2.308352986551019,-2.5728140201463403,-2.947554050420714,-0.5130564187314541,-0.7292227123228476,0.3203046616167661
8.443302824404265,38.75393239195158,-0.478152083909628,-91.90939086404988,-1.0752121136252974,129.4754623588871,52.950029180252244,5.458613693981245,-5.087735119321888,4.638339026146596,1.7902478449372512,0.5989895957385265,-0.7805601167359996,0.46179989263264,-5.271825679415056,-7.690452945153403,-9.721060038545865,-0.9454621131859108,-0.6398719911579974,0.49057018484739834
8.937605193612043,39.81323563998195,-1.233018573842689,-90.87214578838213,-1.0874550092613768,129.48262540829523,53.24939915448824,7.583061057151629,-7.588783799556063,6.601622834550908,1.9359762494308825,1.0304186771856965,-1.3670796341983775,0.8442744947395567,-11.34202196575628,-10.259783880881386,-14.824604967917935,-1.0815990861106464,-0.47176435036233005,0.8491953555678473
9.079841308397691,41.6368671103025,-2.2991995841166846,-89.6895091770035,-1.1642432939662546,129.6224208320432,53.365120144351735,7.517083401650687,-9.04106171011296,6.480340576455451,1.9336802430164386,1.0809383222147528,-1.7706255376198692,1.0483504498541385,-16.090032776310313,-9.284702576895322,-17.628232464540204,-1.1919795925208394,-0.5638979070013045,1.1268622430143622
9.468042515929259,43.729663588722765,-3.1067242999766607,-88.33249480996145,-1.2150643092294293,130.0561538933599,53.43366537974901,6.496335981645216,-9.330531938969026,5.444853288893472,1.5856696083424182,0.9739077894842335,-2.410235355039977,1.1277723655069891,-13.105847232439501,-7.493366135178086,-16.81140684284492,-1.1448182153052224,-1.688946884331273,0.830256488499564
10.188185356058096,45.350711843132,-3.58225170288678,-86.74063600003775,-1.214380495104219,130.631918288466,53.891113866515354,6.507507566800392,-4.618272686359456,5.466831750453877,-0.3628407968263627,0.7676989017738625,-3.241915293394878,0.5166601334073584,-9.366182212478611,-8.881462167340459,-12.535954714371595,-1.142522949343785,-1.8813992610658832,0.620477480345325
10.817973345566152,46.46412765118337,-4.089633546989261,-85.15912214760459,-1.21588367056779,130.88008150023697,54.37491504878963,8.031619288318526,-7.120203235647885,6.617766711261913,1.987450959809056,0.8879456701175855,-1.9173234985502896,0.6809646724970105,-6.035521882940702,-11.438447655230734,-14.966607385081323,-1.347312859491328,-2.116838733570995,0.627586357732553
