BIOROB-Lab-192/Bilateral-Teleoperation-TouchHaptic-FR3/Data Collection/05112024_PnP_Attempt2_Used4ASMEPaper/PickAndPlace_EMG_HighStiff_NoUser.csv
q1(deg),q2(deg),q3(deg),q4(deg),q5(deg),q6(deg),q7(deg),tau_1 (Nm),tau_2 (Nm),tau_3 (Nm),tau_4 (Nm),tau_5(Nm),tau_6(Nm),tau_7(Nm),Fx (N),Fy (N),Fz (N),tau_x (Nm),tau_y (Nm),tau_z (Nm)
-0.9202801673562484,37.999787383364136,0.038179771004784056,-94.82873254111823,-0.0968364401936672,133.3077563554371,44.25686132176879,-0.1321328492318583,4.171628620855198,-0.10066004106355572,-1.375572838735734,0.011407381491918167,0.03693431293911015,-0.21843655830027636,4.7832207359655285,0.5951785077661473,7.102389924875047,0.23149567627299092,-0.343033274845829,-0.19932992392500054
-0.9201702996209455,37.99992481602213,0.03817508160875585,-94.82828046928434,-0.09681287399028714,133.3077563554371,44.25711040644792,-0.15985765720548717,4.151432446174155,-0.12633562578572108,-1.3477959878427697,0.011628145526857307,0.039211545151739136,-0.21591698194278103,4.8599791182028875,0.6330959398517892,7.073409225854137,0.23394077417628112,-0.3595284096530593,-0.19668744468970886
-0.920452002791172,38.00011915843296,0.03828459462983967,-94.8282793256729,-0.09679303568360849,133.307572156336,44.257017383466206,-0.21781618687984744,4.161884047952455,-0.17335064135633363,-1.367689638423275,0.011642412347412591,0.037814573509426325,-0.21468881368483828,4.760257780220794,0.6823380823869358,7.036560691045135,0.24699559849005237,-0.34137686702685993,-0.20200139247132473
-0.9201702435744642,38.00009641086915,0.038323834330869964,-94.82851578538592,-0.09679984204398023,133.30773897008694,44.257247004289475,-0.18366120819937773,4.135205919073661,-0.14120563987337328,-1.3521633848857106,0.013104158615970947,0.03910170402471043,-0.21628612716603285,4.810245590351511,0.6892725169999816,6.984471281410302,0.24804168882093364,-0.3536024267337515,-0.19824658258253644
-0.9201130289799668,38.00013334348124,0.03829874736082909,-94.82845439702132,-0.09685406689511386,133.3077917091134,44.25701297827491,-0.1808284587760841,4.148179787822723,-0.13876110445349069,-1.3496151362016906,0.012122570610306105,0.03670751335164251,-0.21382435724522023,4.758743053216463,0.6382528475810404,7.046394357184532,0.24076254770026512,-0.3410601762732686,-0.20011562278858164
-0.9201163724911197,37.99992041242765,0.03828166734935582,-94.82841381966468,-0.09679201857759795,133.30764998329772,44.257110406775894,-0.17277592708447237,4.123129195166887,-0.1280303228279248,-1.347384801244577,0.012556459175733822,0.03994892972832029,-0.21684612267238615,4.773954394965732,0.6407892395627316,7.0155250766094985,0.2408349917882777,-0.3458240465666493,-0.19796608866418258
-0.9200588741670084,37.99997750388721,0.0384904689568367,-94.82836659932362,-0.09671190561174191,133.30773905645378,44.25699640768088,-0.20687137612000725,4.153277169052341,-0.155282606497289,-1.3641825160459635,0.013397121506304545,0.03941642314502616,-0.21519073146274262,4.782170267378107,0.6968415003807369,7.012715072553399,0.254300767258526,-0.3460191233282529,-0.2007953264917624
-0.9201718130294144,38.00000233926563,0.038420540808963254,-94.82840754204462,-0.09672924859522834,133.30760882119486,44.2573437522934,-0.16890089618681275,4.1415113052079064,-0.1289548636403537,-1.3585502455564957,0.012929754796988142,0.03922483311013454,-0.21416779628073782,4.804056067521592,0.6522956091738716,7.083495328641801,0.23836608499144116,-0.3489267209211918,-0.19803711855842313
-0.9202386275389242,37.99997303445116,0.038284681497692374,-94.82841376208691,-0.09668849875191123,133.3076522322624,44.257292504225674,-0.16975870505976945,4.105817814044154,-0.1295119045640069,-1.3346870582555022,0.011841548081107427,0.04297651003250413,-0.21345404353172087,4.813394094227787,0.6096302605359182,6.959261633741467,0.23757959721051436,-0.3546061491548563,-0.19951771769204116
-0.9201776369841267,38.000105011161644,0.038293742433498104,-94.82872257230767,-0.09679302636801065,133.30762905879243,44.25679985938417,-0.2059419602442417,4.1402488462740274,-0.1536406718564257,-1.357762588128063,0.013268261259463074,0.03884337235471427,-0.21667830075788175,4.782429377646439,0.6428795756173992,7.064783922351937,0.24203076631131215,-0.3443977929679915,-0.1989611604339972
-0.9199557537543,37.99997751401455,0.038298319430060054,-94.82841382059844,-0.09683644325643642,133.30760907413892,44.25721452888385,-0.2149902094961293,4.173741971002903,-0.1673756800941654,-1.3764322106430018,0.01156419815381219,0.03614834506415403,-0.21597968179289226,4.79088127082568,0.7467051407642178,6.977011975695827,0.26361835182236143,-0.3508276651261383,-0.20208967968444558
-0.9200931396962738,37.999979539908885,0.038201762146064404,-94.82841382038356,-0.09668933943455678,133.30765223191966,44.257246801275976,-0.23164249429284878,4.132455241463333,-0.17651918927573565,-1.348942783257784,0.014284252876406004,0.039133811954035765,-0.21516259613064503,4.800470464499334,0.6562940123358134,7.072524806445544,0.24178616322190108,-0.34746003742724313,-0.19836452510702235
-0.9201673449250356,38.00016121045198,0.038221787379195724,-94.82855540410988,-0.09683870428701487,133.30761556706074,44.25719719651241,-0.14155942076803005,4.075526942018098,-0.10325093454964725,-1.328591206345505,0.01409722946555651,0.04134885829504133,-0.21466890552299447,4.737886995639027,0.6019396861428676,6.948390180617656,0.23565947064356205,-0.34259620105611305,-0.19650600770734256
-0.920138486317532,37.999781094293176,0.03839636891755556,-94.82851595953507,-0.09681068418873491,133.30765897789976,44.257272105578004,-0.15120045627407364,4.126592789795386,-0.11058783865276316,-1.347564168728041,0.014049642606836596,0.041443825939955076,-0.21886134770527518,4.786316169121091,0.6229515273031694,7.034623380071943,0.24154399984345915,-0.3450827876237541,-0.20050509288115198
-0.9201961168658079,38.00000419854323,0.03807258830536703,-94.828501610166,-0.09679303153632944,133.30755691499138,44.25711031900152,-0.17643991276006102,4.163803568906946,-0.1364532940624641,-1.364405644875448,0.012731422808983345,0.03694770523655764,-0.21659909313573866,4.816174852870522,0.6571118769431868,7.089804238531389,0.2408969280601579,-0.35110754268285616,-0.19791139927323098
-0.9201294414754623,37.999668662043995,0.03828532101794985,-94.82863512343494,-0.09678699499684613,133.3076522319197,44.25714248918347,-0.1616979274483566,4.126208991797667,-0.11977866403428804,-1.340184782903391,0.01364434905462117,0.042446884232141324,-0.2163525580195469,4.819856788797645,0.6347485838351543,7.036098077882317,0.24103307206020044,-0.35104523838502566,-0.19826713026086656
-0.920018423659014,37.99988392927057,0.03828470079052936,-94.82827215648169,-0.09679203613033817,133.30765223500467,44.257237452003544,-0.17018171787452058,4.090586691738509,-0.1317812995951983,-1.326251310171353,0.01348359777673797,0.04194267401512485,-0.21576828671623055,4.7901460722889055,0.6466748115909277,6.9752978126517196,0.23926102773413313,-0.3507062684428027,-0.19689899174415945
-0.9202460854416251,37.999920431857326,0.0381610529256957,-94.8282946375311,-0.09679073373525811,133.30771519333427,44.25701281278849,-0.17449635609444003,4.12109311549305,-0.1307065334302605,-1.3404692842982442,0.012675939819972854,0.04001742291041773,-0.2173322201538931,4.809023747312089,0.6545905843281971,7.023362584480366,0.24346425284904505,-0.35233899928144263,-0.19933089138098942
-0.9200739712607054,38.00010501108552,0.03829814185659792,-94.82851596025387,-0.09678424126628893,133.307565410432,44.25697321059086,-0.20512386980255318,4.1401244614778205,-0.15884483808180308,-1.3506656510616784,0.011787563820342375,0.037777729994051185,-0.2164356233805875,4.815827516203084,0.6980542559527806,7.051614362794509,0.24665390280814276,-0.3536015322177437,-0.1983462759751448
-0.9204039031546574,37.99992018763433,0.0385313457058311,-94.82828648591152,-0.0967929487308496,133.30765225971854,44.25699654926881,-0.17602649501023743,4.172040414388885,-0.13139090368931491,-1.3613785127890483,0.012449065135524573,0.03868060738842569,-0.21662829710099074,4.850819520060049,0.6560875627784886,7.106908855832658,0.24336747418734556,-0.35512191651625796,-0.19884730126560946
-0.9201781789981138,37.999893429862134,0.03816250485745586,-94.82862093744413,-0.09679304183430731,133.3076522319197,44.257199490574024,-0.17898717827615093,4.109322008891081,-0.13647253163042614,-1.3381950088930714,0.011894248307354928,0.04173015314423337,-0.2146005910484021,4.78340794794992,0.6567398267560381,7.006229977307201,0.24013720360464552,-0.34679341276312103,-0.1966232701545497
-0.920131053612343,37.99987978732159,0.03842902524331246,-94.82829465712346,-0.0967821796783917,133.30769564371073,44.257333658480455,-0.21423187797882898,4.100343415226841,-0.16093627894757973,-1.3349747821089775,0.013488837155702182,0.04150947942191835,-0.2193668113845755,4.805002074743615,0.6627355996892703,7.081541974360886,0.2448822337721626,-0.3515282770878431,-0.20051771951718506
-0.9201706221685519,38.0001429584573,0.03848445872325045,-94.82840857357334,-0.0969694388779334,133.30769565086987,44.25706007982276,-0.14303919127941864,4.132381828421292,-0.11274743369182108,-1.3557030521098403,0.012265501654078203,0.036687657987497575,-0.21679152837059207,4.809992240672933,0.633715837044021,6.989187007021256,0.23942886919281892,-0.35391714039304545,-0.19667933627503623
-0.9205048148030321,37.99990421774489,0.038280336698924916,-94.8283571356792,-0.09683619246126147,133.30769789126637,44.25729021856893,-0.20078238863252243,4.10665317657977,-0.15311253017999452,-1.3290218312521156,0.011333434902436561,0.04057239490216285,-0.21734634405333936,4.804295004079686,0.6463325642346531,7.063763001425593,0.23772906299940033,-0.35005204356842273,-0.19919879553059322
-0.9202808396570108,38.00000215892449,0.03851849372055165,-94.82841382238917,-0.09687985333046002,133.30762980833305,44.257149219416654,-0.13347823851705015,4.088978978433399,-0.10731488867875327,-1.3286553049492102,0.013793517979637602,0.040835463503812765,-0.21360755419285674,4.745926324489967,0.6773386191823935,7.027343949049582,0.24661997973413463,-0.33771579509452415,-0.19942672501616396
-0.9200691152153503,37.99978114456066,0.038383807221727864,-94.82857861984259,-0.0967930325699782,133.3076088215376,44.257066730246535,-0.20057853410191334,4.1613037263790345,-0.15371387236434012,-1.3676737249524353,0.013398607323543693,0.0363122839154138,-0.21543441324838852,4.8056644478786845,0.6069058910627315,7.064276519412276,0.2301485610716455,-0.3503790727683945,-0.19716344750672685
-0.920166230265699,37.999981882223096,0.03816719969973518,-94.8284132957061,-0.09681990367224885,133.3076088215376,44.25713581032845,-0.21862853604260699,4.139467994619546,-0.16256391310080837,-1.357411037641177,0.013194004236699051,0.039022022091276976,-0.21431197025244766,4.78667950876061,0.6637490754198878,6.98169924850851,0.2407562979806438,-0.3513923424200554,-0.19493317946651265
-0.9201957815400746,38.000035050606655,0.03839586668439328,-94.82859259857008,-0.09663027065023,133.3076979745534,44.25716475284512,-0.19791518444476006,4.157458912426633,-0.16234725913088421,-1.3621487229725473,0.013901891665551154,0.035964723450900196,-0.21224554544788501,4.793949526713068,0.6256425354790449,7.021373864270339,0.23474892675392,-0.3509034556301869,-0.19804210438801234
-0.9202942376874276,37.99989893805091,0.03838247384882047,-94.82847274179827,-0.09679300431675618,133.30769564268255,44.25714916213438,-0.17103689194070232,4.143165385398013,-0.1328809783643411,-1.3577435799377728,0.011607933552405516,0.03750664856715444,-0.21657183223336007,4.807238609696657,0.648948360390168,6.99689509843003,0.23740783593700462,-0.3547719219552933,-0.19547582774882152
-0.9200979765156803,38.00009203137913,0.038518499914847154,-94.82853221033015,-0.09679320005326542,133.3076522319197,44.2570128124372,-0.1774699365812085,4.157352881319235,-0.1448831642082241,-1.3597750838225247,0.012270843993694545,0.037999630208090565,-0.2125672849749437,4.813739837662793,0.5663235813873828,7.066840358616912,0.22174383704895725,-0.35187834502289045,-0.197058110139131
-0.9201508983898283,38.000318960099776,0.03838235666510228,-94.8283868311041,-0.09687985252226572,133.30761106981683,44.257066236783075,-0.20047407545365228,4.189367256550675,-0.15514283251818337,-1.3843367350007691,0.012002169729606172,0.03402970724101013,-0.21957092775713413,4.78154442685104,0.6010567994842606,7.011988775828873,0.22660999300269244,-0.34600987310343023,-0.19355317097507385
-0.9202763177857494,38.00021628045535,0.03838683996960813,-94.8286144852737,-0.0968798541343621,133.3076290588305,44.25688714812539,-0.17679321301834233,4.143578376691489,-0.13937823180252268,-1.3584060232925248,0.013159147268313276,0.037441984089917155,-0.21438051269880626,4.7781446203378755,0.6578817854752905,7.020039661265389,0.24082667480309985,-0.3464198328668772,-0.19769332453570765
-0.9201826987718824,38.00013752223987,0.03829525569519705,-94.82851578534931,-0.09665110248889261,133.30760882119486,44.257085250275615,-0.18690795048106995,4.16226222053465,-0.1516169101110396,-1.360236996705431,0.012215235010352482,0.03858314485814581,-0.21691902067828156,4.804667597793109,0.6965251347476115,7.0576318406167955,0.24683302779443148,-0.3503975573874887,-0.19663295494693736
-0.9202793323700474,38.00000689067157,0.03816101640364455,-94.82841382639906,-0.09679294574348718,133.30771744195636,44.25710558278865,-0.17191632850478641,4.171917821955779,-0.13682976299727762,-1.369334425864431,0.01331990300774987,0.035391705883122314,-0.21571578865564436,4.817132765306254,0.6139230073522697,7.101898940203507,0.23046514141121832,-0.3514794649057216,-0.19517120947094252
-0.9201413322397769,38.00000271897211,0.038285183898908476,-94.82863459659734,-0.09668858592452764,133.30765223191966,44.25719262494441,-0.19382002441443316,4.1830871367338585,-0.14964062685105287,-1.370799862527975,0.012141931702934502,0.035523250044014534,-0.2155681427120623,4.841278700421535,0.6806948197119846,7.1200360278189105,0.2438402971566614,-0.3551787071054812,-0.19740273655573373
-0.920196263673803,37.99992492839959,0.03828018188268505,-94.82851595089659,-0.09658957846364255,133.30760882123295,44.25691907682736,-0.14001989000229115,4.133727927736289,-0.11385487505456567,-1.3468705122397904,0.012456071695448821,0.038991517451919484,-0.21583841202272605,4.815579246004122,0.6044903680354196,7.042831403054418,0.22814351559916607,-0.3530965432568055,-0.19562918453188663
-0.9200573937711088,38.00009405181466,0.03838230087454485,-94.82828993509744,-0.09679303256997812,133.30765223203392,44.25701729947277,-0.17290246904190448,4.159077635479559,-0.1366785712572963,-1.3616958688079697,0.011867613153599783,0.03673463356347541,-0.21746369766906673,4.816949728632337,0.653815090273128,7.081548411888457,0.23831999828099604,-0.3522350800500645,-0.1982268680575532
-0.9202937097702528,38.000003667626856,0.03806388146091614,-94.8282863234134,-0.09679303568219771,133.30761556706074,44.257010290899274,-0.17756619185521336,4.1712589617191504,-0.1389103685956074,-1.3655218935123747,0.012187675214088159,0.03651274184541639,-0.21365465287535146,4.832595146868543,0.6545439502619208,7.1017665686866245,0.23732124719010086,-0.35398389437927336,-0.19504790418801665
-0.9199338457884163,38.00010546773199,0.03828217049381181,-94.82829466249865,-0.09681332167950105,133.30765223192108,44.256953453958886,-0.21886318341679745,4.134498542677853,-0.1702878080632911,-1.3533509552970213,0.013328480950727924,0.03838872823880011,-0.21680020971111727,4.784832361141414,0.7184159980908658,7.042861634129123,0.25104296736427967,-0.34723844566469747,-0.19851643585977286
-0.9202807810418866,38.00010613517594,0.03829394709692003,-94.82837054811434,-0.09688906119638821,133.30765248176655,44.25724683703127,-0.16940703357277578,4.134343103481842,-0.12802302352542844,-1.3507383347754418,0.012148225044862645,0.04011565897409635,-0.21235697484185861,4.794892381824529,0.6394118540374312,7.045526573843228,0.2368053096421384,-0.34736155486971076,-0.1945796258461357
-0.9201300365609791,38.00000267451111,0.03828017897210464,-94.82850179393566,-0.09693272516086904,133.30765223089293,44.25727218978565,-0.13762661837300597,4.167855473591797,-0.10758888961705043,-1.3672410044674586,0.010615117642884744,0.03870280282586858,-0.21607578223012522,4.810400884546705,0.6001410633991477,7.0993905362404455,0.22861660969549197,-0.3472983625737463,-0.196905838970103
-0.9202808561880063,38.00014597356991,0.038059043298724005,-94.8282929082752,-0.09674962390058912,133.3075676591047,44.256882605252734,-0.19175769649197502,4.184907355778264,-0.14489138028044918,-1.3774498367719894,0.012700537477973659,0.034601633943006124,-0.21489886259688368,4.815149748521234,0.6758252233567188,7.121206773837008,0.24504749782737464,-0.3504700009071886,-0.19725571467107886
-0.9202820253895223,38.000092044094465,0.03832141528517275,-94.82841364333255,-0.09679304210228001,133.30769639218497,44.25709868667998,-0.19454503617287688,4.148716110802236,-0.15428506273977216,-1.3585616128057658,0.012711750943171146,0.03946357784274748,-0.2205544612019059,4.79691447731198,0.6898372124120997,7.068563009609383,0.2462336952287587,-0.34642972852185877,-0.2011005784184649
-0.9204087112753971,37.999951151754196,0.03851811149452467,-94.82847340300152,-0.09656676532564223,133.3076695339748,44.25696855872702,-0.15919475999296506,4.123647690630834,-0.12703455061471014,-1.3508057242223064,0.012336878162610114,0.03974451092600198,-0.21738504576738643,4.789187595423261,0.6330928094581071,7.080289585488181,0.23307123909638572,-0.34734917778215096,-0.19493932105311915
-0.9202537086288762,37.99978284968697,0.03850428080135058,-94.82839808002102,-0.09674737055671827,133.30767922463667,44.25731534661528,-0.19285444034505725,4.132387959142423,-0.14994862122221728,-1.3489721491117843,0.013349166929633175,0.038569940377778646,-0.2152162662709368,4.793549782317505,0.6425326395987014,7.020892898642942,0.2391352984499136,-0.35197462109486294,-0.19835414993720474
-0.9201942683560966,38.00010051384922,0.03816166693874886,-94.8284749229034,-0.09667368964258445,133.3076956427587,44.2571744324906,-0.18928123311890854,4.173408987603676,-0.14559870693493043,-1.3656341337315068,0.013528361023276111,0.03611620351948159,-0.21646717406549434,4.82755176594281,0.6652424975292717,7.041657341397937,0.23927659576385377,-0.35635053680267226,-0.19620164858862157
-0.9201945909098903,37.999883818390266,0.03850453948004942,-94.82847188728853,-0.09674962184659944,133.30759160237133,44.25694665186765,-0.16315495584982373,4.117913147959382,-0.12478872408022419,-1.3393440769424403,0.012495572670127214,0.03935720524732916,-0.2131314004716984,4.797124419722357,0.7034722801709303,7.016521846153397,0.24563789004103595,-0.3511467424069526,-0.19673939152226314
-0.9201555256985672,37.99993587167598,0.038406983779761726,-94.8285096446533,-0.09675188238094304,133.30760883044846,44.257004764647945,-0.17748888844135666,4.145164178833572,-0.13820941844604714,-1.3561805365897475,0.014340508757660402,0.03938020521012442,-0.21515006278954318,4.850582914616878,0.6426460249528235,7.100421279880293,0.23150656778644235,-0.35701291379045363,-0.19239625275064298
-0.9201912544939544,38.00011871105193,0.03852413149901794,-94.82863494645723,-0.09652310322608336,133.30756549375238,44.25705533864893,-0.21022766032138848,4.133337769585616,-0.1664729425334004,-1.3489915446462692,0.012229806693231546,0.03849477906209172,-0.21449347356958132,4.813757702635067,0.6546462407946156,7.0811939897739995,0.23628294810833014,-0.35242823295389436,-0.19413248584239817
-0.920125048764861,38.00002286212367,0.03838235628331959,-94.82863489024452,-0.09679227904007409,133.30765225968045,44.25722876980728,-0.1610265210873669,4.151092051698816,-0.12898886826247463,-1.3522624670646952,0.012549636393281959,0.036903525751358975,-0.21737253310658983,4.83843578201191,0.7056953440156235,7.029193780596002,0.24576613806670164,-0.35829777392193046,-0.19710588644016558
-0.9200329901570335,38.000145881973374,0.03829575392252042,-94.82841381965594,-0.09673170824699762,133.30769564573043,44.25695345094257,-0.195666461896548,4.118494322085333,-0.15917745859025562,-1.3399929279386225,0.013728657684673205,0.04005891027676616,-0.2144973502312036,4.7858466663268056,0.6111243219861908,6.95871762582995,0.2324805572828669,-0.35060449176812064,-0.1961378859381863
-0.9204088166949618,38.00010027070361,0.038415814277971354,-94.82863561063571,-0.09697638384040272,133.30784111616765,44.25695287508304,-0.1573897182894493,4.147818006332226,-0.1191736818766732,-1.3580031467104334,0.012639918637508563,0.03732267982814464,-0.21722881712089234,4.811388720320447,0.648922885595671,7.002821526282657,0.2379346923490318,-0.35370129519068505,-0.19550170907852304
-0.9201520137782447,38.000107709902174,0.03829525156387378,-94.8284142492854,-0.09679973056388047,133.3076522319197,44.25691148807922,-0.1531526872972709,4.088092053207957,-0.1190448467758236,-1.332181938207224,0.014089086151525397,0.0419014475103887,-0.2143576164366052,4.816977163247331,0.672885267221633,7.051213300499825,0.23862326184707483,-0.3525642189340009,-0.1948175475477621
-0.9203963171063194,37.99999121261626,0.03817456141378371,-94.82838846539441,-0.09679303251893383,133.3076522319197,44.25712694960442,-0.14345313258179038,4.144777849757246,-0.11608745379368693,-1.3493134719816657,0.012985361682773007,0.03918810400391006,-0.21579032083949773,4.833997901329672,0.6096179261651855,7.061884229996407,0.22966358968428555,-0.35509259081444255,-0.19563888906895652
-0.9202922093791722,38.000016493897355,0.03841730344702762,-94.82846873919306,-0.09689747773426835,133.3076522408306,44.25688246505271,-0.18167448810933587,4.006261597900873,-0.13361000577389345,-1.4558509829218251,0.012719911903603992,-0.02151889216478594,-0.16060808961144876,4.042202611867403,0.5651400247999017,6.718747991520615,0.1980025870270226,-0.2796896704934121,-0.1484219126856776
-0.918014818277187,37.84212566745264,0.03935249410132247,-94.78543037223085,-0.0970596984516468,133.30779451835033,44.257962912209486,-0.20716902911933496,3.0161602882697056,-0.16367390884663055,-1.1292730023012352,0.04509551563487076,-0.025847598887374236,-0.013422537814547497,2.897601775814656,0.3647954267465814,5.040107909660974,0.10169225638573208,-0.19162008000137823,-0.00818804955837122
-0.9179006725166436,37.752449470488216,0.03907652260170284,-94.7655735428323,-0.09700429980408086,133.30765816850806,44.258197244461364,-0.12277497538258596,2.9497529990189704,-0.11358054508772966,-1.3192768558771513,0.03996860700069583,-0.3541642669963897,-0.004923236373485527,2.480533045251301,0.2261541667082996,4.373761115546452,0.06513722912831914,-0.49096004323711684,0.002874681626915139
-0.9145769601924465,37.61530892733964,0.03907652260180788,-94.76537048594638,-0.09701008515887721,133.25195275463136,44.258423897884384,-0.09621001111130788,2.842307056146099,-0.12450696909026825,-1.3296706624293562,0.03667200317051871,-0.5183523261631183,0.017326525424251466,2.495640105400519,0.15866687612144315,3.913660300620886,0.021922275209894475,-0.699215917754266,0.028761177143372542
-0.8787379585909681,37.394957519851516,0.03913765453813286,-94.76524825554652,-0.09682697842723696,133.02880404046658,44.25988636061306,0.009372562806386993,2.814344758833604,-0.11798782945564884,-1.4209120144581338,0.033328838509131896,-0.6411500385161707,0.08756383122751546,2.2504015896808807,-0.09298711375597125,3.6470434022717835,-0.10628363620941576,-0.7948741764380893,0.10761973996281252
-0.7868152089087252,37.03304078290433,0.039137890221682584,-94.76358254565946,-0.09703935205896619,132.69056135827378,44.28303141153189,0.1071193468443208,2.716967599008207,-0.14675482594531314,-1.3066563587481854,0.032282495974611004,-0.6579254306993703,0.12778375648593157,2.6078920333651507,-0.2745885542535755,3.441864772990606,-0.22128146923268682,-0.905690421990647,0.16469853676478352
-0.5704279179533861,36.69274971293592,0.038917432157041805,-94.76282590062971,-0.09696738763483236,132.3167376190883,44.44518461848003,0.25871769794625765,2.8098035945871502,-0.07801193524851871,-1.3853317417093014,0.018579934796593565,-0.6359953297265262,0.15548533434261944,2.4566481084797624,-0.539169063260598,3.6165346085415373,-0.32135214659593125,-0.8362607847919001,0.19912521720792065
-0.19234522779738783,36.19469071884719,0.038557518574317384,-94.74202809062568,-0.09705839388274838,131.84295489687926,44.73335885055259,0.14180293945815733,2.842242375433291,-0.18816037316654982,-1.1484833589947072,0.005939799514011126,-0.5924322904333017,0.2428961546395399,3.675985489126223,-0.5180439477323996,3.6997159265057964,-0.3895640254496928,-1.0406638502069276,0.2791154308943452
0.4151278426027462,35.67869820677365,0.03930835847678896,-94.69349160481875,-0.09801879216699232,131.29599191365992,45.20646532933692,0.12439085244794477,2.862757559795176,-0.17464754959531786,-1.14900509671689,-0.026485589559374256,-0.6220830607106768,0.27736668876400317,3.8253783154731087,-0.5988170983479593,3.6468718713041235,-0.43705872741427,-1.103093656598462,0.3013725223478714
1.3143224309890693,35.20492118187289,0.03929451431975288,-94.55202331614262,-0.11450285747902424,130.67185896680041,45.96591725174522,0.36555585158668796,3.0390149865863925,-0.04198080559846933,-1.2387144477465553,-0.06801902960913132,-0.628318961734151,0.2855364816003532,3.732304131891304,-0.8185761140237708,3.771213081921687,-0.5117698407644025,-1.0571258098689706,0.28137218386491414
2.5754360375533025,34.74961545886766,0.047889717254011525,-94.2986065127643,-0.12155313272678978,129.98873268659494,47.14024538131094,0.31124103390411856,3.0732969677240947,-0.017958232686047668,-1.2555860098396314,-0.08726708959025474,-0.6157903273213395,0.2286197215323174,3.884442968188674,-0.7928089176084065,3.6383629154501103,-0.5212806170053647,-1.0814722807602268,0.23292465781654778
4.189142892055417,34.477375330592835,0.058455900232442966,-93.87216140607855,-0.1376197458685832,129.27185828750973,48.62237379111617,0.5177532727268537,3.0498526938663844,0.1366813265845286,-1.2521088578423836,-0.12123809845953311,-0.5996196454766426,0.2419048800797306,3.6427635660426265,-0.9319924784833721,3.8052083917045256,-0.5849192132517895,-1.0144151620662616,0.24370497884709022
6.00248636813367,34.436863965936865,0.06605557827322968,-93.18419170735464,-0.15171560371469353,128.59733660250203,50.33548208207921,0.5196752236469057,3.006568252430868,0.08565380393392878,-1.2237155560322774,-0.15257251182291665,-0.6043342057981884,0.23903496213008785,4.562579321249247,-1.0013117617724117,4.306446867344105,-0.6183149547375666,-1.1532209752599913,0.23962614678498254
7.9856606998499755,34.57213132262078,0.07138620262382077,-92.22004350496763,-0.16215611571496905,127.87625228364121,52.28344391881384,0.41149094295785615,3.539337399347175,0.023375196685516665,-1.3581997498213008,-0.17308030677068892,-0.6095901010544731,0.21748342164880355,5.446686710295041,-1.8856305573162646,4.7625504114229775,-0.7725202077078396,-1.2722718594927616,0.23901089919571683
10.064249849348466,35.132638286853755,0.07789260035538668,-90.97715090979277,-0.16438733148470666,127.21052860241383,54.31333280058244,0.32483689181262254,3.779496334542043,-0.003372609641699132,-1.3870877641380954,-0.16778420407689504,-0.6023826474323112,0.2124596721499165,5.6025879385908475,-1.8202916212564044,4.499706318103532,-0.7973612480225862,-1.301767009262023,0.24687531073799415
12.131069011466712,35.9924869386152,0.07961134735859227,-89.44289248723612,-0.19303027874304543,126.56998984298068,56.39179042472863,0.4386496961131645,4.106237563397453,0.03721293257249505,-1.4105127309800352,-0.2094679366788218,-0.6234225205637057,0.22266432877477013,6.366585328517484,-2.2371082653378105,5.2386436625559805,-0.8972773597939987,-1.4192642495947212,0.23540348941301115
14.151695562442828,37.166446159202394,0.0808749021031566,-87.63707275814191,-0.19695155044031643,125.8939010653768,58.421330236276205,0.17467103156680638,4.019281302226488,-0.11204391305602028,-1.4563086930556413,-0.21766530870777803,-0.6353831885736484,0.21726958206163624,6.005558866539211,-2.01378746122999,5.0632627456132155,-0.8455515702051939,-1.3580107110288324,0.21672560126194157
16.07234652271486,38.55580430987418,0.08312148567990815,-85.63576183136064,-0.21512254586669244,125.3314259121023,60.371189323734484,0.3377868977812853,3.9512619075734716,0.010746920748951722,-1.2057171671105658,-0.20775826446711576,-0.5814882730950052,0.22751718613127853,7.000394121990067,-3.055849006722327,6.419346961371892,-1.0446189217659332,-1.4451599277866891,0.2251336807631496
16.96038779289501,39.343857772218946,0.08242505064959717,-84.57541641678768,-0.21579767189594098,125.04183052536109,61.302930513273374,0.7858069676207695,3.7040513385667087,0.2859872499251723,-1.113920894195381,-0.20066346349690123,-0.5556643305236241,0.24233507410240074,6.595298601165522,-3.5269911101223856,4.601908893322758,-1.1288280138550741,-1.4257944258249409,0.2532790102635108
18.601392469689888,40.99364032427829,0.08144239911928383,-82.43992342553675,-0.21607989540326675,124.56159792310983,63.00652734642577,0.7138994363100593,4.590557879808528,0.20156630976355008,-1.581025580728601,-0.21617861945591224,-0.6364305318462661,0.25915689554535515,7.112432164020351,-3.8275290246122564,5.8551806221289615,-1.2109384327659265,-1.4866910005551808,0.2686860301413126
20.00646586010743,42.70055746870883,0.08182032153653729,-80.3722232018493,-0.2161754661958811,124.21760257057585,64.48084522562374,0.5788905969193194,3.8699839685412054,0.09612317035847562,-1.1671948178882792,-0.20868739316181018,-0.6134952041295989,0.2658356765735517,7.2340601367464945,-3.879510554013983,4.793443095991633,-1.2462872081945728,-1.5684585809118403,0.27394844183779066
21.138631955198832,44.357025976327186,0.08123106526279873,-78.49728662459692,-0.21649373402462063,123.96339418253136,65.71883579387114,0.40709477776178693,4.61841877346708,-0.025557247153691277,-1.4805475652956857,-0.2078680326734802,-0.6501545373712917,0.32964342584306544,8.123622223097255,-4.2318676101782975,5.916963207429513,-1.322404814704903,-1.680344147247163,0.3298045722710084
22.000605133549975,45.89095162022969,0.08109038602284196,-76.98268499422156,-0.21677006515752464,123.91149793207668,66.66450885535593,0.5637114583442017,4.772054739879892,0.046207495015547655,-1.4677830599912276,-0.21623814867477217,-0.43423609927422535,0.3194759780523512,8.141832384626635,-4.583456067687699,6.5394044581059125,-1.3021604902542676,-1.4238626860435954,0.32489613963814035
22.547506801346774,47.19121796932059,0.08103074342407239,-75.96130696226464,-0.21690542994690196,124.02544057580955,67.34024213454694,0.4927551326370216,4.745370049850489,-0.008997503949026492,-1.4579266869345084,-0.21820311930990974,-0.2076415728492516,0.3529012356747774,7.503364283204603,-4.351275400724404,6.930060757318733,-1.1685737869485409,-1.038165786633752,0.35456785183148143
22.78415063442113,48.18141541227206,0.0802370635234483,-75.48333243538775,-0.21686878290876874,124.51674709833952,67.6795318211842,0.4012008074935494,4.625383744957349,-0.027700258810540765,-1.509873225983044,-0.2097407924465155,-0.14050611403839425,0.38028472629057736,6.533996984028117,-3.8926450900050593,6.93727522693042,-1.0319176866120583,-0.7758866327736106,0.37158720606468587
22.76640688060127,48.883563020332176,0.079619254022068,-75.5581726337163,-0.216925786093262,125.29962985771341,67.74484561398256,-0.025117035379859168,4.851838851193553,-0.0011018695667234836,-2.3542906608858463,-0.20502648809756363,-0.16552331084549782,0.1909593689456059,2.292645063221144,-1.2612254239914562,7.2249109054556495,-0.27069739406832827,0.030025537494355166,0.13794346327724483
22.421851945016776,49.124610404302324,0.07945475816181477,-76.26771625403333,-0.2168185920228437,126.32587127500668,67.72200331660723,-0.19737258317969109,4.831831393801171,0.02422192610476893,-2.591935020918331,-0.1959541071246579,-0.1071847222092873,-0.0985201689728706,0.7354600579211799,0.0694042921882953,7.271280947498582,0.2061196557220265,0.34277170455795886,-0.15398276899869082
21.726362856186856,49.17535229854149,0.07926214183969561,-77.53786085939488,-0.21669904759266181,127.6196814020105,67.31685176687165,-0.1904682621325034,4.835583965471455,0.0281571766693397,-2.760080254389869,-0.19730637308791132,-0.1430161117471895,-0.1583416619075322,-1.2410305376683666,1.2270964695276243,6.057758151098594,0.4727856705651883,0.6385036394554918,-0.2676860286388623
20.728229886189755,49.050704015505175,0.07870827451720308,-79.27658801276766,-0.21702801570626837,129.0106225088082,66.5578996738687,-0.3425451737067616,3.915894090390242,-0.06121185072288347,-2.672330362873252,-0.19198462883100606,-0.09599403742611393,-0.23245950292700343,-3.19625770405085,1.721790175597955,4.812834219501331,0.4992597124673015,0.9918281273466816,-0.2529374864970892
19.457021282775308,48.640803495300965,0.061713041144758826,-81.25125375433927,-0.21645043167419953,130.46618195432777,65.39141169753175,-0.29350313287858376,3.088765346104493,-0.10595923741357838,-2.44241565818283,-0.1770954775028139,-0.09332671136689367,-0.18712079572471282,-4.360642824318427,1.604955081529748,5.070058007568275,0.42798364577222914,1.2457723016112336,-0.19137345099784306
17.92991641505462,47.971321220370186,0.05512198560224068,-83.35034817488288,-0.21590556604952918,131.9227345694387,63.98552444478411,-0.3829864428096091,2.802056538781929,-0.2082419278275247,-2.345622595055679,-0.16652215272513826,-0.03873794989082893,-0.17045658318718354,-3.741531189377421,1.7955717146876158,4.2985697980387725,0.45712887856462986,1.1214854725759318,-0.18714790353839228
16.198073215026383,47.18572771870531,0.051985074239400526,-85.45634904310639,-0.21560267699131244,133.27307641220685,62.31580885976031,-0.52202069909593,3.016322164833532,-0.2898560648917042,-2.3737244888369875,-0.15277555809273582,0.0015031051167778186,-0.15428914605882912,-3.8407158367891143,2.1437938954333173,4.464353354799907,0.5586311208643109,1.187782930851117,-0.19174894225051223
14.279643344175767,46.351880956017446,0.04582605731690983,-87.46299602033801,-0.2150334635748688,134.47799009121653,60.476111430119204,0.19508621914953364,3.2336005485383,0.17631462189252117,-2.4156141963882627,-0.14758032907473828,-0.014643219050951667,-0.15414951191782972,-3.787686553131242,2.06754203633114,5.058139402964397,0.5321647434781772,1.2109673274548571,-0.2020404928138882
12.272130050716767,45.53824869373709,0.04066053097815742,-89.22993522113718,-0.21414247157646707,135.4161174568841,58.50736347035552,-0.7181191682268308,2.8417281227432585,-0.4639543166113568,-2.37515653399434,-0.124456744738162,0.038182210670792825,-0.17383698290452806,-4.378795289765617,1.0814602356707488,4.871975302177615,0.3511966450750563,1.3681837858035777,-0.1816405628026578
10.206002058969451,44.668550224129945,0.03900801161466911,-90.7590678300579,-0.21235141170358499,136.130829835237,56.45624003383177,-0.8899807257650535,3.2074554271781524,-0.5338202835021948,-2.534037391546446,-0.10873181410364796,0.051137224279793336,-0.16812410304910624,-4.335588937312355,1.9567776753759025,4.437119136430025,0.5346048619960146,1.3660597544495285,-0.18991775189008245
9.167442217365643,44.243848523875585,0.03808620881504344,-91.41411535968284,-0.2117775944498591,136.4031830047401,55.43121550324199,-0.09168959467038638,3.183220972026067,-0.0005024449540807237,-2.528080285867019,-0.11137790340838447,0.05240070802468376,-0.16243259412103622,-4.280073170228618,1.0472653079710126,4.948929564510369,0.342053002893775,1.3750094612126105,-0.1804448285251113
7.145619104669216,43.43706482930467,0.035771283228002826,-92.51236364917911,-0.21108664254783568,136.7370138380076,53.362931543311845,-0.6409473286756697,2.9970702449862587,-0.35238003234881893,-2.4821119162230407,-0.09555050915595001,0.07481805768586847,-0.17155245930861618,-4.463594509118156,1.7182033254303635,4.70173060700775,0.4934986714920039,1.4148569697320739,-0.20884089783046855
5.214082031064201,42.6483001425568,0.031334876336800585,-93.33040853547416,-0.21047353791912135,136.78948579982887,51.38590405928708,-0.7323332782302081,3.2563275871132973,-0.4008916647581126,-2.713372812938368,-0.08922370095555728,-0.23353669318391865,-0.1641780590022547,-4.183913496660827,1.6587492456570383,4.687890965093329,0.4462677481439913,1.0509502568960742,-0.20734374510647355
3.4863133471233496,41.85313161933474,0.03165016179590459,-93.86374496269707,-0.20962709611991412,136.72681384011912,49.57558664583314,-0.6768937034785831,3.1180614569356746,-0.34925551381383857,-2.67523251384221,-0.08238007829496097,-0.5190905961999586,-0.16222049892726317,-3.7016004640349656,1.417194788182484,4.060176107401044,0.381586588904247,0.6113491988338385,-0.20515064936658117
1.9769476396624068,41.10301192736163,0.031390598858455264,-94.25012247148628,-0.20896476155830926,136.3726569250764,47.96595536692089,-0.6989804809889296,3.052494657053881,-0.3369082695535942,-2.7108431540887286,-0.08036111837872817,-0.6516156823406598,-0.16536293754380718,-3.7333556809273,1.351998958357791,3.773490424583326,0.3852161246195601,0.4618909402321276,-0.21341761303226622
0.7710617182763614,40.28339942462979,0.030581845558063262,-94.43544511337028,-0.2084359993784698,135.81643965729003,46.65025669970069,-0.6614391080731199,2.6461593515808923,-0.3269606547906211,-2.5494130801389603,-0.0734566418368462,-0.6509075070681549,-0.19361073113469823,-4.021802402270587,1.2740086101184658,3.123753045485836,0.3814534390183082,0.46805827053133336,-0.23302695111118799
-0.13022326772751608,39.51377478250382,0.03170209852929998,-94.53720816025924,-0.20794779156838572,135.11534303707538,45.61528830795006,-0.5069516090789409,2.9249166967887,-0.2611521323169447,-2.7673701741173864,-0.07889983136171812,-0.6213315136770646,-0.20337376957489334,-4.376865257947606,1.0103804286610327,3.6836208487086606,0.3045843302878273,0.6234425549275068,-0.22982246961228026
-0.675845595617968,38.657164306371094,0.03219948204960234,-94.59526726313298,-0.20718831822367012,134.3491297830321,44.922138767762796,-0.5558538565923714,2.5393346993374455,-0.24962387331256086,-2.5720153074883663,-0.07568380509292291,-0.5727704749416219,-0.2302881094549381,-4.540917224204697,1.074735598321148,3.1758714247265556,0.3614031651458751,0.662883925853088,-0.26342889210586573
-0.8643200699380019,37.86811070227974,0.032855509158607916,-94.6204482487789,-0.20704276147871273,133.5389150111909,44.613507499877436,-0.5203091834497139,2.7674732381630953,-0.24731245402383853,-2.753788638531994,-0.08196300930302938,-0.598765360062273,-0.24297333619812925,-3.8271298065434474,0.6236745632649565,3.554078935870632,0.19616212956242474,0.5169838380990378,-0.241659060219243
-0.7640205357086111,36.992111502399354,0.036888397316193026,-94.62592004253831,-0.20706012929813633,132.69908380522597,44.58820002830863,-0.18900281794201038,2.6936342268638755,-0.2668155985553936,-2.564258547693688,-0.08420004897741722,-0.5915259755697598,-0.11367193065047537,-3.7975673038357542,-0.3118245788603876,3.327728740591582,-0.34291716037255493,0.5038754004061695,0.13120295227115106
-0.2386051126832464,36.25959741449734,0.03965615033796775,-94.62616892293326,-0.20726346407091914,131.90630134209133,44.78092248750225,0.36140176142969405,2.6753267238636274,-0.07226692860866699,-2.5302620687456954,-0.10300405396359387,-0.5809727533460394,0.12099528760052955,-2.2387817831020067,-0.6418925151916122,3.695296485985225,-0.5195701150746013,0.22652756222333947,0.208704778422585
0.6500898109059082,35.52571290358107,0.04524735495779453,-94.57149315052165,-0.20727083282427847,131.1334978817743,45.41169296320474,0.22994569404827273,2.7023853305611,-0.20572668136339434,-2.1783770382525955,-0.12396240310569959,-0.592372013977887,0.21980571518506908,-1.438771886646213,-1.1850183153132154,3.336791868952185,-0.6607927973389376,0.0038607924381005715,0.28568750715024155
1.871614933320468,35.01072717865752,0.053205205942362895,-94.39369234794657,-0.20775412646853342,130.3364404912957,46.44971061309439,0.24938177013189275,2.7051207902581265,-0.11760395876204961,-1.963064907826833,-0.1421341165279708,-0.6125223685932872,0.24764473129930858,0.14792231163490333,-0.84544191479766,3.6061704790126394,-0.5583517372412398,-0.32514292191257455,0.23184963652069362
3.376781735102686,34.58962157121,0.05882436529450473,-94.0791561344483,-0.20871371698315996,129.62810451386338,47.86762494985277,0.2593952713239646,2.45357798974529,-0.07512479378295644,-1.5697357066236284,-0.15383233659034867,-0.6053566057957609,0.1987531265129101,0.859591949762518,-1.2887434006364682,3.361234693300687,-0.6409606792382929,-0.47358677308042163,0.23488145954990458
5.127878725503378,34.4633651933769,0.06396199475483899,-93.49613692803389,-0.20976705819748215,128.92558033484585,49.512956800773075,0.07436765692830603,2.634272746721254,-0.1529697657318296,-1.5857843899116923,-0.1676482519850248,-0.6183669865979418,0.21206278563142544,1.883153486442904,-0.9103846237667103,3.4647053330966546,-0.5702390047842998,-0.6746632551069502,0.225909330209076
7.054112640914778,34.47488759086941,0.07034461160219199,-92.69258102601361,-0.21032583749395933,128.1942811501712,51.36069242570648,0.22777595033319795,3.0718872077744868,-0.015554254990747593,-1.562162565398967,-0.169133036184937,-0.6181761680408718,0.22276267115889822,2.4361825042192637,-0.9438324418416741,3.911234161521424,-0.5657966177997498,-0.7472834944093659,0.22098338612834093
9.075334313233212,34.82078152996998,0.07055455883243314,-91.57717687217604,-0.21158197111579222,127.54320761144463,53.35177826636481,0.34187982961718716,3.602229227144406,-0.003997602187308729,-1.6209181363672982,-0.17403482479230561,-0.6057499168847593,0.21815940021817587,3.6885975731459992,-1.3532516866846445,4.688786402299875,-0.6779800795582082,-0.913559270353439,0.23041405663801023
10.11895887837691,35.1442637555342,0.07100764939290714,-90.91944948937055,-0.2118721766658185,127.18995833518463,54.370775355916095,0.15323961653302406,3.728023035611521,-0.13985650296653093,-1.5823707646735246,-0.18549614049356522,-0.5973283181270449,0.22325261170256247,4.718179836401184,-1.835014493410375,5.890146740398533,-0.785848733566733,-1.0440710332894962,0.2226207077800075
12.184202662019525,36.01535586304658,0.07108652438822856,-89.37525055442175,-0.21298127798932773,126.55297916730918,56.45728478281409,0.5860179727317848,4.197687414440615,0.16277554722053994,-1.8611452312207843,-0.18810909185397495,-0.6448678955185947,0.2146265449065606,4.276081954437343,-2.103177241245842,5.461424563553875,-0.8292350170716292,-0.9825364997007435,0.2289948288379946
14.193980963944643,37.208965953315136,0.07260018500599472,-87.57411643861707,-0.21384604132115206,125.88339916580658,58.47094189647719,0.35416725520317865,3.921341889867456,-0.05253641809436012,-1.7936119519402354,-0.19163429979703303,-0.6373957783616174,0.20320246209429402,3.8422572178683243,-1.7920379551877939,5.0182787412064185,-0.7991869000367205,-0.9017843785701388,0.22127887601315935
16.11208406515043,38.62090151179634,0.07226155561137221,-85.57524106899726,-0.21445882355756923,125.32513173955749,60.42388864662686,0.4606101416112414,4.458846124241575,0.037082595118503536,-2.088958549073819,-0.20610644363535707,-0.66476623892954,0.19902013695604162,3.946712238456331,-2.1156818733280898,5.786759097884209,-0.8486946053711342,-0.8740839210510167,0.21267777738910842
17.84286430703819,40.22448543641042,0.07078123404659144,-83.47260726800087,-0.21511228596911405,124.76997519520039,62.225552493515806,0.24702249121204717,4.392679634364828,-0.11140839455706762,-1.8764157043159782,-0.1997659280583779,-0.6510144328403389,0.20957587926218388,4.995655143989349,-2.295816553668444,5.629620520029107,-0.8875911799606402,-1.082865080245153,0.2184110947733249
19.363819592025123,41.91528072389972,0.07039745201974462,-81.34743844519151,-0.21538356552477994,124.36774114334261,63.797468225436305,0.4467691906332463,4.465812767078451,0.03298539004053035,-1.9031730057351803,-0.2039122096928749,-0.6848188990531409,0.25292751302561456,5.0918635836219845,-2.8304843198246803,5.678440664784865,-1.0101652060320643,-1.1207549205946084,0.2574280146693089
20.642574963785112,43.606265189392225,0.07108201047505021,-79.37153644935877,-0.21534589477531946,124.06272063315646,65.18092188315762,0.3662832375444187,4.23781017762129,-0.06237616972074771,-1.6080104600739504,-0.1962300785858606,-0.6699287465921936,0.27440809993033954,6.123926888967611,-3.254532559952806,5.330518504485932,-1.12509313755538,-1.3364012741020774,0.2826639091149076
21.625722544998933,45.20702505543218,0.07142984900444094,-77.68019101395139,-0.2155754905226883,123.92043385275807,66.23902440578405,0.5385549679740823,4.330370494846363,0.052869104961320454,-1.5416862685363035,-0.18954216228692544,-0.6104039922338241,0.3074437579016767,6.639206938968825,-3.8742617200257508,5.591748762731517,-1.2200781366519848,-1.3631463826746804,0.3143911211117554
22.32403034074351,46.62283036291116,0.07002591896764489,-76.38544183593251,-0.21582263432624513,123.92721842870189,67.07702559261075,0.34400066601340384,4.572347949728773,-0.06650273875337923,-1.592255273336331,-0.20192807285623848,-0.28457895068487843,0.3149368282359496,6.381623941538608,-3.594777159008504,6.512319102108376,-1.0168925139682936,-0.9235080699597669,0.3140792355607681
22.716360988380117,47.777169283077704,0.07038756384039925,-75.6393093234398,-0.2157693853445143,124.24659569403617,67.56570011215392,0.445658766642508,4.691909105707031,-0.022064854998014728,-1.5909664734602806,-0.20540575138059297,-0.1897432721308416,0.33072195942199695,6.800191443967154,-4.050318936300987,6.94463332640502,-1.0614265549334887,-0.840712779124519,0.3529856894298685
22.798689348163485,48.592294519608636,0.06874742683934314,-75.46110358569716,-0.21578614309645214,124.87628114068862,67.75393734343284,0.3441146464969825,4.657855685988961,-0.055767350163085004,-1.6810392148280857,-0.19767966739868065,-0.16076673317117998,0.3619380443914617,3.7238157598683084,-2.2537787761771053,6.676193772373499,-0.6077265034516488,-0.2676353757876165,0.2914336925270794
22.63509877092901,49.068000410501,0.06928892390750305,-75.84356083667079,-0.21578729827536614,125.81185706379416,67.75861958272456,0.03144108683711292,4.636605342458777,-0.011554551751292106,-2.301509271049766,-0.18906005805516296,-0.1773307574650202,0.14535383609339747,0.845017990400265,0.08063702445823602,7.190545192473855,0.14464099329206084,0.2773793560936371,-0.13516744299239142
22.09860282366343,49.18459866970568,0.06846514877481377,-76.87710141540292,-0.21562131331350812,126.97969821035272,67.56464676735342,-0.16452270154522713,4.559106171173739,0.011772404253247722,-2.489493448646241,-0.1794992597829136,-0.13348624176701304,-0.0928964445407415,-0.449030006140335,0.6609721871298835,6.9827432927416435,0.30610777352846064,0.48963239245214324,-0.19208335920498928
21.25193672570225,49.166391276384665,0.06882518769819561,-78.40985758971793,-0.21541420734906644,128.3160543348172,66.95297274604233,-0.37247759051508594,4.12880406742059,-0.05407208531404977,-2.5212145807058484,-0.1781685183877127,-0.14825644351099815,-0.19082822219427972,-2.375543342169388,1.6952673469642636,5.55362866585288,0.5303564860859523,0.8137154739547376,-0.2528635140602584
20.089945574294912,48.85412982537688,0.05655485610897123,-80.26815243065167,-0.21544477986761462,129.78709880476333,65.97031463361483,-0.4207170140834873,3.034096560698844,-0.16704262143146864,-2.2789618728375594,-0.1722847522578616,-0.11421945327323148,-0.1943705248363442,-3.0972318871457225,2.0412284813058372,4.323116293812028,0.5395536095857902,0.8947389600257446,-0.2353688408356441
18.693637741064975,48.31621681046785,0.053176401907145995,-82.34442431235239,-0.2153180849100499,131.24355771261807,64.68337474456881,0.05034866994059208,3.402201827750231,0.10270620626511572,-2.6418414496120057,-0.17503642277058354,-0.1399346630417062,-0.162199266121368,-3.888913241158243,2.1778653744009127,4.2411291607587005,0.5646540545472367,1.0775420705924696,-0.20477007025103328
17.901698806262058,47.94797772525285,0.05392796515757958,-83.3941788556562,-0.21526004799682982,131.96528359195457,63.945085639802656,-0.3986573028953629,2.9085747279881367,-0.18955382606572355,-2.2600888240444026,-0.14972875455630846,-0.0700721843382987,-0.1495660052430361,-3.3584511338872134,1.9838165451647558,4.706430916100103,0.5444637625357086,1.0488181889892567,-0.19128939976902787
16.17370369977533,47.17182419388963,0.05121093721236467,-85.48980814449071,-0.21475882987160713,133.30141318738498,62.28210457461478,-0.66637072702715,3.4486159628825064,-0.3397947828615575,-2.6267433769441557,-0.14796234230949318,-0.07045153652727279,-0.15242004133982376,-3.451670258964675,1.041815866797523,4.72330067701917,0.35384768814934936,1.0718085453745383,-0.1760801405886811
13.275476248313577,45.890454196788944,0.04379449855156545,-88.38763597113694,-0.21389065361767512,134.97508098691245,59.492096085515975,-0.6604222388510718,3.4510516115834835,-0.3648684044597805,-2.5952149811438328,-0.13891156601217616,-0.05014750839974263,-0.16441573189274256,-4.1407846634370085,2.224713229202907,4.275069486564707,0.5827591280689938,1.2254972311033194,-0.21210142567027696
12.242984103580016,45.52397408044304,0.040315371156182625,-89.25541315990802,-0.21357079563164533,135.43682686403048,58.470137264951624,-0.697667898372639,2.8837042073319,-0.40926508993693134,-2.3884114259413893,-0.12181768165138246,-0.0051015215463400135,-0.1745486473842031,-3.9237404006005616,1.1629380722501206,5.205895480427171,0.3802060262382841,1.2461830121745163,-0.19427281317514647
10.17864377755851,44.65172603140273,0.039658716983219724,-90.77909283757111,-0.21207932659134157,136.14997812946706,56.42842236605048,-0.6414186060650021,2.9937485373490715,-0.3465604580435462,-2.4041305763751133,-0.09957979314274892,0.009579737036524967,-0.1551361816734958,-3.9481577547251296,1.844355374707806,4.56345812873625,0.5208635438555098,1.2244979246960064,-0.19520584117088513
8.109290351108626,43.859850152239545,0.033185743501033885,-92.0256502745618,-0.21114034891072309,136.62682441229035,54.35455325021533,-0.7095900812879391,3.5871146693549134,-0.3727739948778458,-2.7395501034140657,-0.09783029584532518,-0.018869431378166036,-0.1543131259918897,-3.9427111478987453,1.7878720437699236,5.545767172564425,0.519574334602929,1.2828764816925233,-0.20107649268024935
6.1369960048730405,42.99813112415835,0.033049566469676786,-92.97160713058544,-0.21001517706960376,136.79319436757956,52.33491449339041,-0.14459697649298164,2.9957211830028294,0.0024413388901437577,-2.468045592945486,-0.09368215038837045,0.002445077076846127,-0.162855250459355,-4.295873196398386,0.8923332069838175,4.622970184652836,0.31521996793154305,1.3015441692190521,-0.1866441289432878
4.310100327537422,42.26191514662414,0.0318714065622699,-93.638629931267,-0.2096293291031714,136.79267373162023,50.4479675378182,-0.6230604648460198,3.154605218488122,-0.33245220863621877,-2.663304709299115,-0.08160873895705759,-0.42011316529580695,-0.16774714964113388,-3.783502138471791,1.4096439504388147,4.2600146697606105,0.3778329921425065,0.7443506203628927,-0.2042270787387957
2.6826146190275693,41.42115002355325,0.0318714651614129,-94.10030487846458,-0.2086286443374743,136.5872733311084,48.72684323348004,-0.6471705956962308,3.130987396398949,-0.32545435522202876,-2.649029930693178,-0.07989699028309336,-0.5200395426285693,-0.15957035633960068,-3.5157256196017195,1.2679784319393703,3.6176318238313754,0.3231212033425095,0.4680915692775387,-0.2000624757256019
1.3236461675087101,40.68740268298139,0.031198972359261563,-94.3718467874535,-0.20818942744734575,136.08285860927936,47.23906346684893,-0.3180694471532592,2.845833434087503,-0.12941206759147791,-2.586554085107472,-0.07752795975313913,-0.6328190727919331,-0.1775664141307904,-3.721013006556061,0.7935368701917306,3.4824176629512436,0.24646243241315183,0.4542161246398336,-0.20055974137930072
0.2678407796537496,39.85575061843798,0.03146711418449821,-94.49032303091569,-0.20775413545337057,135.49517973401584,46.08868978116088,-0.6114731929662977,2.58243887852783,-0.284337191280391,-2.569891340163447,-0.07373390569465463,-0.611301824403738,-0.20407969340996454,-4.3752390263752625,1.1840746262797506,3.0982047883052166,0.3753698056816493,0.5806883408040808,-0.242231501341736
-0.4620145038252645,39.07311736729393,0.030479755222620343,-94.57436622686501,-0.2078104672085698,134.7053375283591,45.218518173178964,-0.4771571312544798,3.0011540708810553,-0.2285365215011607,-2.7735384811712125,-0.0796182115557116,-0.6119095698832155,-0.20779997780816292,-4.279525595943505,1.071979773266357,3.61345144148749,0.3516169283188325,0.6261151809553085,-0.2518048504542439
-0.8137856579938894,38.23541326641676,0.03212308748435217,-94.60325499809674,-0.20767170893681577,133.928552186676,44.71910126610175,-0.5467223194406841,2.475688660722453,-0.23276130808327253,-2.4907513773210552,-0.073586174645602,-0.5704828881817503,-0.22799972668845137,-4.453167398945309,1.0585521240814417,3.6173007012881637,0.35798179120177764,0.6487503324051797,-0.28034998658122173
-0.8508629105208382,37.40606841172449,0.03475577023280852,-94.624687539081,-0.20771961828091,133.13694455265946,44.59159751402912,-0.34072359752469966,2.912619509666456,-0.24447516122794435,-2.6117355246222296,-0.08259907280088205,-0.6156077163854892,-0.24083784357297774,-3.641532868391586,0.36785680645515084,3.4171641457454878,-0.03571337320172113,0.45875263273232775,-0.09012307301733234
-0.5403460057848269,36.61743814241364,0.03481134451995518,-94.6265413573849,-0.20761296198352544,132.28857929271297,44.62129925285925,0.040798196720701875,2.6597835703288903,-0.24975186340261063,-2.4761218618008902,-0.0902638889293318,-0.6014936721935001,0.11435260933636153,-3.4488348036916228,-0.6474727205434648,3.5713215366351885,-0.4777405829114676,0.44469463250700764,0.16881241180688553
0.17619639884998392,35.86457479018117,0.042655950921208996,-94.61007514820886,-0.2076330689411533,131.48482391019084,45.05543526813374,0.28577042050004714,2.6361128812506878,-0.17128536478043713,-2.223052218548929,-0.10214267542038039,-0.5803894454505036,0.16740129635488793,-1.8961365405893835,-0.6280448269025376,3.341441915397346,-0.527328183742406,0.09502120515077206,0.25330620267296816
1.2488280467956927,35.23475493615446,0.051783884402840916,-94.47775498140565,-0.20795982001099952,130.7281555102388,45.895864059683966,0.5604545872120005,2.5818981890465578,0.08678666796728178,-1.9998361813517864,-0.12003614604151057,-0.6149228619003918,0.2445493421002342,-0.7445724131467615,-0.7061370843579398,3.3227990078804654,-0.5371128630377809,-0.16635986549356768,0.2603654596708098
2.635265961559869,34.75820624198515,0.05766786009043791,-94.24457953798559,-0.20819621960686596,129.97161942040975,47.16827242360125,0.40892835108612885,2.7597789397205816,0.03938659474042353,-1.8227568881816805,-0.13313119852108138,-0.6330896289605198,0.20917762207274276,0.4768939581659559,-0.6563145104708122,3.1035953135963883,-0.510856819915495,-0.42549026195004236,0.21785164270824184
4.268689242020432,34.498709955761925,0.061146898810639644,-93.81420146260697,-0.2089392314254962,129.2396566662497,48.69418968878633,0.6099881686742091,2.620162755918038,0.22201781968549178,-1.6214946669329517,-0.14726448854223173,-0.6157724684457176,0.21647660074515854,0.7469659866457461,-1.2436959722600427,3.2965585321382043,-0.6128604749806199,-0.46087469175044493,0.23292457983570586
6.09834107221742,34.46051605594874,0.06326100166650159,-93.12895942430511,-0.21003350247075778,128.56466285522856,50.43629491666321,0.2141756365987278,2.786633600332397,-0.06816546584651063,-1.5270966315727887,-0.15743818616860686,-0.6279354607576776,0.22217424321486876,1.7831694100888063,-0.8094171028457335,3.4777015153168347,-0.5536062115130103,-0.6620442252638739,0.22905104228492698
7.083549011685239,34.475308421542536,0.07085822236968439,-92.67737029726544,-0.21033752066191022,128.18600478063746,51.395269829052104,0.22999021033182282,3.6237224310951808,-0.045507498657996436,-1.7840087418096122,-0.17062174023349547,-0.638333368480963,0.2154313929402513,3.0002594988966798,-1.0459520866302372,4.736343758535404,-0.5964779523863963,-0.8059122094558184,0.21945541366973334
9.107598073120966,34.82925684924271,0.07155470590533242,-91.55522791119634,-0.2113360982494908,127.53437299910625,53.38884524354304,0.4976135721048753,4.1033175224823255,0.13310159606634453,-1.7971686248206435,-0.181253062311759,-0.6330449173548494,0.2071914172928191,4.324699412482961,-1.7412784438305433,5.396899257016402,-0.7352392551828384,-1.009044048938117,0.21753288485695926
11.180665653033484,35.56876741849204,0.07238595096738268,-90.16116316210939,-0.2126298904237543,126.86431176712279,55.42810672312516,0.37625376260670396,4.3384245621562645,0.004301880284788323,-1.8908079108176128,-0.1849867586663917,-0.6514093045917526,0.20325307839316606,4.628386054365382,-1.778141543033938,5.685146226904852,-0.7656001298452408,-1.0484965711076515,0.2173152687836302
13.24073670494435,36.58530723199648,0.08034765672252922,-88.45829458712193,-0.21374033589307131,126.21521616364595,57.49063202547389,-0.11912126712757727,4.141442234413985,-0.28760831200699793,-1.926108822113521,-0.19280985373027287,-0.6530640878410808,0.19021223302021845,4.0008285861169846,-1.0878952978499816,5.366424591545525,-0.6113012453733232,-0.9357583581111668,0.18412549548515486
15.206340543452278,37.91120599305968,0.08183156457838539,-86.55792609399539,-0.2143185469837639,125.5837460904092,59.49479436459805,0.5478055751954295,3.169486574686738,0.16747695071458654,-1.3835263303275258,-0.18074232205016108,-0.5871877632648811,0.2096184146253251,3.523326742701554,-2.077772156943324,3.895808354187342,-0.8137536810783907,-0.8906730706427356,0.2161955504801089
17.032976877951945,39.442473733189786,0.08305995775726445,-84.46779348066863,-0.21466341093864144,125.0272516187185,61.383226498484625,0.7406327827172813,3.1470952291642122,0.2781215936354749,-1.385742660179565,-0.18274933555120673,-0.5917053735166876,0.22109455743087458,3.3801224652070996,-2.4453054134706447,3.8360934067777244,-0.8998553639362361,-0.8576243470199238,0.23123682081686295
18.66517743202791,41.09387522884171,0.0826938240129011,-82.3419434478783,-0.21504317998277153,124.54805648229657,63.08609634412444,0.6976187455937415,3.4755576334586076,0.22113293269793396,-1.4610756930955247,-0.18729537675288552,-0.6317871985850142,0.2415247248531359,4.143388288908408,-2.777427049340276,4.248453376932269,-0.991555718872299,-1.0054363294908644,0.25085179446027117
20.06299306299008,42.79836708400652,0.08184675334519638,-80.27837851950444,-0.21519559908317867,124.21405817416885,64.55390655046473,0.6352937192841945,4.284977729072103,0.17696868328435528,-1.6146140983768533,-0.19552613914975325,-0.6794625345266309,0.24596981964656417,6.123202210692734,-3.538952313839569,5.371118126169172,-1.1392402532351773,-1.3634175227106318,0.25054193284761245
21.188031305348883,44.45748255810234,0.08147842340043182,-78.41615645129963,-0.21565689091934678,123.96696870232235,65.78371718410061,0.351412032314645,3.7794664251600607,-0.02716503661499818,-1.3978023087114417,-0.1857585142640374,-0.6713301038427214,0.2770307891939246,6.722273097603472,-3.5543776994107352,5.143240847966352,-1.1784558190511574,-1.5044306694513008,0.2987712104131011
22.033413675714396,45.961082950996676,0.08129749539078977,-76.92801393541971,-0.21550600072533346,123.92285936961672,66.7125731793579,0.5205735694966312,4.073337891186798,0.09555378076127338,-1.411912745538076,-0.18662934652167937,-0.622036175138932,0.3009722271868918,6.65776587427827,-3.912130891981808,6.114583689016122,-1.1329949505578703,-1.166929174707425,0.29553309988480003
22.56749238005546,47.25035792373667,0.08115259338950208,-75.9229742635467,-0.21557476338772166,124.04171450854716,67.37351722721783,0.39459864464379696,4.6608699152473685,-0.004068887423968003,-1.6478467017670735,-0.196750848519231,-0.2769201684650602,0.3084989927167531,6.451543259870816,-3.77909074414022,6.873641719304906,-0.9822950579111531,-0.815018795785524,0.31666429172968386
22.7905749693074,48.22654735422135,0.08084082725400345,-75.47090860185766,-0.21566158573245092,124.54464053618892,67.70464474498671,0.40202423577831486,4.683712704495768,-0.011240096322240902,-1.5160375099922228,-0.19629471574293264,-0.13548505204705136,0.34168402192850106,5.450055421349541,-3.3036090591773655,6.998880907778283,-0.8655681796725857,-0.5684452328232923,0.33424337985621
22.760856959775154,48.913853807251236,0.08074028991684251,-75.57564549894539,-0.21566393050693164,125.3472351602765,67.76167999087171,0.16729939896659982,4.57975772212048,0.03305623850425263,-1.9728674362385512,-0.1951228675537338,-0.15404568413924677,0.30833504397075057,1.841647126492234,-1.0532276910711538,7.108583935852427,-0.20266943030643159,0.0944325646831751,0.09054455537958642
22.396846425769947,49.142558886044874,0.0803366326296274,-76.31441038641698,-0.21551101036948125,126.38201879195623,67.72485799507346,-0.17056997720793166,4.8153290162525035,0.0161565614243478,-2.5950304358667315,-0.18722082548711869,-0.15276396367017545,-0.08942363970676095,0.7072928640826357,0.037493710976795255,7.062305923073802,0.20222171437459138,0.2959369537383311,-0.14738637290841541
21.69154774582048,49.181720770523626,0.07968757714463753,-77.61170055295054,-0.21546733827026077,127.69589462123176,67.28614366894931,-0.2699060930547217,4.6763302331201055,0.03661794065319962,-2.7735241102663757,-0.18437535591826731,-0.18330305588725704,-0.14352613226457858,-1.3036740718294855,1.283005822567425,5.730861188456597,0.48569748983770905,0.5869863341088817,-0.24876880754284098
20.68529582572381,49.03505627032704,0.07942278573533794,-79.34924151434905,-0.2153202740841311,129.0650105288034,66.50352937119173,-0.39631870557487037,3.6938251004865466,-0.03451635349614385,-2.5064443534530505,-0.17724359533362416,-0.12457793339061496,-0.20125626754656056,-3.394105293406748,2.0862970125765012,4.156744155969148,0.566294974436778,0.9399590113094396,-0.24153212169810057
19.405374354001392,48.611117314979964,0.0612970308078554,-81.34041782134362,-0.2152336730410189,130.52859896185416,65.33248626905099,-0.4837308949496161,3.127047358009301,-0.18610605531181917,-2.3932650275775686,-0.16894865116383864,-0.12508587433661075,-0.174602608574249,-4.044817420172518,1.6053336647552297,4.683083939598446,0.4294506668870327,1.1174014196217958,-0.19332356972436776
18.65330782755664,48.29748743992815,0.05288261803623517,-82.39561981983418,-0.215169897285619,131.27789546464496,64.65282321897571,-0.4898956495289474,3.2547677536717865,-0.2265818401801366,-2.518450376462474,-0.16147048439874112,-0.10292288569752145,-0.16629006795097165,-3.3135575054428714,1.9726102288700833,4.058965543948695,0.50895183930509,0.9795260647937931,-0.19758054963374694
17.004632995335868,47.51672361648294,0.04997902199572288,-84.5170895966657,-0.21516595881758194,132.6679209158966,63.090936213808924,-0.4201580836905128,3.090084493121216,-0.1669614938983011,-2.370337815094122,-0.14754241465953655,-0.043349722776445304,-0.15881041836113488,-3.533209011622664,1.8977118003677689,4.540909101075866,0.5373135650492809,1.0737320489254505,-0.2024079418772673
15.17758365811661,46.7572382051273,0.04999433995594917,-86.5788125016645,-0.2145689687401017,133.9469804342736,61.335621794999845,0.025191104267479475,3.0623429701335523,0.10831258336755613,-2.2995346780362493,-0.14654226683943472,-0.03807793277346722,-0.16069243875556014,-3.3738519042043174,1.0922213094466875,4.567005777172756,0.35897802336949647,1.0517576003562186,-0.18784596296319317
13.216171683749396,45.865545494536825,0.04727349943778245,-88.43896048100174,-0.2139046022497692,135.0059971839898,59.44281095324639,-0.6266356463320978,2.9173997006313876,-0.35026290181645564,-2.374137062046487,-0.1230488129451096,-0.013162369641823952,-0.1856678578784584,-3.969759402568268,2.0935320399601594,4.335874826388759,0.5672645416564088,1.1838656761367068,-0.2221969494827531
11.412894504819397,45.163745287962584,0.041738226352236514,-89.91897523099159,-0.21283622635874969,135.77003062399694,57.673397930987335,-0.6734911233408306,3.3859940488619884,-0.3446715053031014,-2.5758633774766158,-0.11569340050858949,-0.013870855831054733,-0.18839310404869372,-3.6832353516160086,1.9534032222363755,5.172702249095599,0.5752033662675513,1.1922609797974657,-0.23296789283898225
9.077679040200056,44.2072427783089,0.039250519578082795,-91.46663667248589,-0.21127515962282667,136.43017606812126,55.351235578500756,-0.3588826673148192,3.444379157893645,-0.1717010664904533,-2.5928937888505796,-0.10059758756863875,-0.030648918892899564,-0.19378572924498,-3.6302466582004222,1.368516295063953,5.2995989007405,0.42936515844043566,1.1822481735470394,-0.21742180787658383
7.05775370026571,43.389630758513434,0.03318355041297559,-92.55925274720563,-0.20991975934951762,136.7522245463027,53.28613670917906,-0.601200692348612,3.1635295997661,-0.30390421970927817,-2.5195042928721616,-0.0907966902650606,0.01281893452205812,-0.20083532314702882,-4.054100003176195,1.6473230647871155,4.912943230906276,0.5066013729123966,1.2814270195317659,-0.23672990665602714
5.128888722536406,42.61495049661261,0.030169967367188508,-93.3641153093715,-0.209285099247687,136.79770772647484,51.316198600760565,-0.813068967983559,3.1817621759405212,-0.4406597663064164,-2.6454752613723445,-0.0799619518176788,-0.27740495633414053,-0.20071412692561535,-3.9256460799179314,1.8021087890191083,4.511759588002015,0.5070912543809188,0.9341723862442248,-0.24396673080900316
3.405008903116241,41.802465361651336,0.031141324958150796,-93.89333543209729,-0.20883173340822025,136.71733223380585,49.503862970213575,-0.5500783595409757,2.855752561793912,-0.25015362168455646,-2.5341442946009405,-0.07812247755135239,-0.49782559768529333,-0.19503598182928625,-3.761811865526403,1.2864845078144278,3.654840158888608,0.3836231359097313,0.6077587772758227,-0.23157408086112435
1.9104998799392867,41.066029511355524,0.030470480535390927,-94.26988415697842,-0.20819792660387026,136.3433354854033,47.913672790157854,-0.6727188958646325,2.9690225056612283,-0.36956384181195223,-2.5807291734609255,-0.0804756182946044,-0.5758525500565194,-0.20930843765185592,-3.528799524837243,1.4020167830376198,3.8765429135197658,0.4122059516789754,0.4713468223512638,-0.2423327898167893
0.7094970616267247,40.23776667026461,0.02992581728596331,-94.44566598566841,-0.20820237573020414,135.7848789990226,46.60767347613603,-0.3568219692411215,2.6323389642848727,-0.15126473726859477,-2.5074182034767523,-0.07829657625616174,-0.6080648830851221,-0.2124438623338833,-3.871497561236482,1.2205996484104136,3.3315754620091136,0.397000983256311,0.47868766693590087,-0.26862572893776016
-0.16767290562741044,39.47187685310587,0.030539079508747163,-94.54429224697144,-0.20784095684198375,135.07332547362464,45.595086515584676,-0.5738469130527543,2.7083035336207235,-0.2682712691284869,-2.626865139288688,-0.0799985354682348,-0.6269294613227859,-0.2450299884499354,-4.165063949755218,1.1012931497071063,3.822410406457611,0.36164929374509586,0.5885453766128514,-0.27596682570904496
-0.6898856920416977,38.61324035942853,0.031245565478147788,-94.59731008446673,-0.20793231743121493,134.31796581106636,44.91931974056276,-0.4944080051670178,2.824060458643809,-0.20128627755319498,-2.6876528115790617,-0.07986583055736393,-0.5983647768136091,-0.25184952369233393,-4.235890263908509,1.158896689595328,3.3605852626945416,0.4036049355774223,0.6119233600571463,-0.29844206832291353
-0.8620098916400819,37.816942801935895,0.03197293195779386,-94.62238675349417,-0.20782361267694907,133.5038867153772,44.627636629621264,-0.6061917239622328,2.8741831130676654,-0.28904010120139695,-2.7453507106332458,-0.08598177200143861,-0.5997063091055495,-0.28803434548694606,-3.7291375222263317,0.776252708636776,3.6239955984911556,0.2080613357348935,0.5074322857161058,-0.2648469784097971
-0.7476259558127253,36.945606919093116,0.03300041210144097,-94.62612491506847,-0.20791872561835636,132.65198752373004,44.607858757715626,-0.11268113280364929,2.636495012429356,-0.2569372773165408,-2.4579416342196665,-0.08531583911917724,-0.6025677617528645,-0.13258149627821478,-3.6584955510353683,-0.25131612998022584,3.3641359212952535,-0.35476177019884175,0.46670052864813294,0.1475024284211836
-0.20027391763861124,36.21027736930876,0.03351147517500618,-94.62631232652521,-0.20784087313277275,131.86148307925026,44.79886958585668,0.3354513738845159,2.84183853381333,-0.1374658919237227,-2.5123359792505355,-0.09970326526587275,-0.6047350619125453,0.14579351857092307,-2.1677083195228386,-0.6889633743997946,3.5821513100500693,-0.5647667192787513,0.18430759658584922,0.25099539445389873
0.7165478577811442,35.4848416383997,0.046194213419320895,-94.56507961460771,-0.2080851079580219,131.08740581790622,45.44828554618015,0.17596154748943166,2.6516922466902315,-0.22978503436305986,-2.132298240089618,-0.10745926804541138,-0.6134219655596044,0.24888258992014445,-1.7542547360309722,-0.5864702807101225,3.4513234735661715,-0.5421772328080701,0.06256482470994322,0.2817961947752061
1.2976634164446352,35.21510204198667,0.0506898217260055,-94.4727469675644,-0.20817219142781826,130.69813337371187,45.9219849260851,0.3360801118327329,2.697656319016128,-0.04213854378813276,-1.9356087982649635,-0.12600338125806357,-0.6308466295487298,0.270859389099526,0.19823444081383435,-1.1427967672658972,3.49867517518472,-0.6048733836792719,-0.3519585697229383,0.2504856100028374
3.4827693987247264,34.569879957623534,0.05984589555510231,-94.05095710676946,-0.20860124607237532,129.57845359271707,47.94875801712403,0.2778124934163504,2.6531815740926543,-0.05853748604727265,-1.6317760729440358,-0.13374260959815862,-0.6236905336016737,0.2133009926013628,0.9576969851069529,-0.9256887198292378,3.4968884006305148,-0.5539602544771666,-0.49201019667956347,0.2461977373398717
4.125438506212237,34.50546418511179,0.06269376375490396,-93.86625636289456,-0.20859863413117588,129.30517345097192,48.54161939607556,-0.12444205565823527,2.6117084269749786,-0.291816673015847,-1.5893443193599506,-0.14803977354009956,-0.6320438892095634,0.22374129278456575,0.9891836523752222,-0.24420821859759168,3.2392024273165,-0.4278220313932035,-0.5257887829101686,0.22060119442962425
6.1849721924353975,34.458883910592654,0.06976642063254498,-93.09475634070733,-0.20966271815538118,128.5305279412603,50.5155681950426,0.38212008636795164,3.0919130164632738,0.09815238680873536,-1.5949232862597431,-0.15565706818574815,-0.6239043630664913,0.22885814256855586,2.3163430241391714,-1.162882321567357,3.9381186107890636,-0.5965845297589507,-0.7265005763742025,0.23111403443606826
8.181860010159633,34.614829272946615,0.07089716486189628,-92.08917914806598,-0.21069397368745552,127.82462700592482,52.4597001314657,0.26024992119966517,3.6398479971087663,-0.062472306485715154,-1.6371172922055703,-0.16832866012523443,-0.628893954865664,0.21601428854273666,3.7853899541173264,-1.2553709854063024,4.705285948418627,-0.6574526608000438,-0.9549981366029155,0.2274337191993921
10.240386857338189,35.19206118647046,0.07110765812514631,-90.8310939806337,-0.21198420732279383,127.1535412202321,54.4944624549274,-0.08863767486646157,3.5991943279024254,-0.31428407342680587,-1.5206703128696344,-0.18014630785606303,-0.6326436862578423,0.23493234645658598,4.372815378132546,-1.0366863623629465,4.556134812900998,-0.6456257644578968,-1.0762331377752403,0.23671918314655926
12.307562981764343,36.08113194611535,0.07189516544897968,-89.26843488990579,-0.21329070210264367,126.52568370863982,56.566905209404645,0.7862951216662947,3.9334203391823723,0.2886842351754634,-1.7347154050038787,-0.1837793950062068,-0.6540905186293103,0.22571307210068042,4.0905431016635525,-2.3706108205824874,5.022463433828376,-0.8976355345681217,-0.9889631296187466,0.24613110508490074
14.33526778177087,37.29457675766533,0.07427967566002543,-87.44449208773916,-0.21422411139635206,125.84516793474366,58.61342704006552,0.37853336745892635,3.897697555419999,-0.019891063815771996,-1.7865707427841726,-0.18906485097933906,-0.6525518571443775,0.22414559989788554,3.8237553408410543,-1.866029387978719,4.954436862672669,-0.8170480830930236,-0.917952108218314,0.2386189853387619
16.233355011014414,38.73503174748061,0.07141454656178264,-85.43265011785435,-0.21479939109792492,125.28660396279408,60.55388799965023,0.8317236600134834,3.0656417949872212,0.2979592875520859,-1.3806051317571764,-0.17573524313963584,-0.6069739948440441,0.22136403340877825,4.039118105490434,-1.7496706586714843,5.256496556934159,-0.7834244942837157,-0.935127594512757,0.22631051003377833
17.951141427571752,40.335584687640406,0.07119321112510998,-83.32620783516883,-0.21515383032403512,124.73652872998625,62.327561309987445,0.20635646187970094,4.238247586702353,-0.14101465062983062,-1.8273549288020567,-0.19139646914625302,-0.6516492648887316,0.23402247135709567,4.782703806214767,-2.2127557113375724,5.396325034705195,-0.8812734674866358,-1.0560279354492648,0.24182601018456718
19.450434198368455,42.0282372347487,0.07166952180676292,-81.21654736944993,-0.21522463850596782,124.35068232754587,63.88572099434056,0.6039403556783803,3.4997915140405818,0.10889916952970234,-1.4215415127527495,-0.1863826499515515,-0.6240727800044931,0.2693218020173064,5.243306670145273,-2.7304746481842566,5.975668233983474,-1.0065490556649972,-1.1367746841975455,0.27885950557570965
20.712037442354024,43.716316793967785,0.07138562263556004,-79.24754275365311,-0.21533674945245496,124.04816752433896,65.25228489050677,0.6315376008922137,4.054514221242644,0.13610511632057848,-1.555327332969816,-0.1915908295806739,-0.6604162796082774,0.26827491484790195,6.351900665043518,-3.3553099816247056,4.967742126908005,-1.149470952297258,-1.4127087006960781,0.304957352151061
21.684328120381867,45.306153848599344,0.07158703983122641,-77.58368852942559,-0.21540469258813497,123.92219272886727,66.29558936134353,0.32376854160313223,4.39364366968416,-0.06847053248039604,-1.5854663942084666,-0.1926185155095827,-0.6929354577873792,0.32805173476691374,6.72114530562708,-3.970614548395892,5.30018504057644,-1.2438618942139237,-1.3920777683477605,0.328823344673397
22.357683158020038,46.70482101079421,0.0706134437525222,-76.31672727622437,-0.21539683290238432,123.94010272683256,67.10728548489173,0.49807726784058176,4.335679953642154,0.010100095120510744,-1.4977795178318603,-0.19458689076582927,-0.4134112663124238,0.3212929659994334,6.357103748369901,-3.8053640677813316,6.841291690127364,-1.058365634144609,-0.8843103704599452,0.3396020279995237
22.730247293160673,47.84110204993717,0.07083021931909632,-75.60561620749621,-0.21557447648288158,124.27623438828303,67.57939981779201,0.47587691721882225,4.519899826681141,0.005715301783391471,-1.5168807149975905,-0.20053293504535394,-0.16630242350799224,0.3526849315183878,6.578855687518648,-4.006197652243166,6.881250929092359,-1.0532042806525477,-0.7883616164880166,0.3690672885251341
22.79551488240654,48.64387487769187,0.06937169742077662,-75.4619492389577,-0.21541508165640166,124.9299428701324,67.74486517849311,0.3488763179916966,4.589020568108218,-0.036782372336955,-1.7461553519041428,-0.19692953729171056,-0.14244998252702765,0.37555894008790874,3.1395793286152105,-2.0836967049079056,6.52135481959883,-0.5477618214036172,-0.15127784488786505,0.28211959527582386
22.609353653393658,49.080388992401964,0.06993953444737018,-75.89891434323324,-0.21557467605856206,125.87487245015328,67.74518375439344,-0.013173473508742118,4.717964057389198,0.007199117933259064,-2.4104332674077784,-0.19179732249555376,-0.16419184821862484,0.1413542631977014,0.49080748939626817,0.13411846692757456,6.833120000017338,0.1799602840196063,0.333997673369675,-0.14497350753021165
22.051347529671677,49.189464293352174,0.06946055014041079,-76.97029370176391,-0.2153614385516704,127.05418914759528,67.52718833454075,-0.1867297606811899,4.558306723916667,0.028551177242693182,-2.474304354598385,-0.18017867611122226,-0.12064826614043989,-0.10107018773386549,-0.9277884847825226,1.0169024956426083,6.419244443185205,0.4012429781281993,0.5551673584539991,-0.2207508434261129
21.648528193567632,49.1837894962043,0.06950771335702022,-77.69013174999208,-0.21522311271897288,127.7535495517479,67.25992976957114,-0.3553583301685652,3.628967756180605,-0.019892391325897874,-2.3405980242849247,-0.17361924561690995,-0.10868317315921328,-0.20967303698035683,-1.6152970874951411,1.4205427254730334,5.334556158028515,0.5077589235068556,0.6449432837044056,-0.2659879882052828
20.622123140082167,49.010683985271356,0.0685231260690971,-79.4505382965899,-0.2152635001863241,129.14599784111584,66.45802860936811,-0.49441681219269135,3.4182371283961506,-0.16139295364821454,-2.4747719140528464,-0.17673627790259144,-0.1350086802987671,-0.21492063077004564,-2.9239819924978656,2.101843134830922,4.898685262584474,0.5974532375246292,0.8730794225678746,-0.2663285003788844
19.332046463807206,48.58437475182883,0.06819202765124349,-81.45478835517535,-0.2151954233612234,130.6065143666954,65.26311603380906,-0.2248290225162697,3.376677468490768,-0.010835592199401053,-2.58239996797695,-0.16723275309606303,-0.12840391118723138,-0.17636180868794038,-3.7820197216181612,1.8840976037809225,4.809883946696724,0.5346042373101298,1.0597211386502052,-0.2202903608767663
17.7798040103507,47.88314543012118,0.055975796189630896,-83.55969319608522,-0.21500052092903832,132.08224028692317,63.831364362770834,-0.39702493522980326,2.7474713424009067,-0.1963923778169912,-2.1288168480895107,-0.14983095334556107,-0.04720177861428214,-0.16559386140432786,-3.230055216378315,1.834457568118304,4.004565210366502,0.4842902708252884,0.9686980682064049,-0.1993861525973875
16.029562622374645,47.11422453648057,0.0493214389597164,-85.6557251393018,-0.21455103577301488,133.40738817617842,62.15495013166701,-0.48503692703561585,3.6396520655191935,-0.2060196893320037,-2.6762618966509675,-0.1511530344607054,-0.07074879070728327,-0.17317589819272744,-3.4715073084071513,1.925811896097488,5.403295470398146,0.5598149047049499,1.1071034105463429,-0.21937673710492323
14.091007317446266,46.26843925737744,0.04436845321938131,-87.63615653386918,-0.21414845601578456,134.58065659740336,60.2909464012455,-0.5423212748047931,3.0370864021350523,-0.2672221393411034,-2.4040885248481816,-0.13564055405072484,-0.03531001111975578,-0.18153308169772633,-3.7779799118088326,1.9802030571810325,4.496934676432467,0.5520227225519001,1.1324465801936925,-0.22260581250803027
12.080535183858801,45.454899999181166,0.0428150275509588,-89.394086850284,-0.21311120444369985,135.5100750686544,58.31888393852017,-0.3134428300725242,3.3834345228094835,-0.14469431867283372,-2.5833058906662067,-0.12504683483576498,-0.021439706613084256,-0.1803357367531996,-3.823679508250919,1.5198344519079119,5.129814199960325,0.45165217333922875,1.2159326456379709,-0.20729406154173283
10.012399616520252,44.57447300285335,0.040648251309180726,-90.88907505953327,-0.211737662349163,136.19421771402506,56.255293566823845,-0.5609241101657011,3.1169981344225186,-0.25359466806528264,-2.4868205250224324,-0.09499378530388737,-0.009991557115904421,-0.1660775602781948,-4.004381870175254,1.7394651326848625,4.733513916361108,0.5329019754835752,1.2256809291586814,-0.2087028424107594
7.948855072672091,43.79457938526224,0.038855219552486116,-92.10495451847845,-0.21058667737223158,136.65493273347505,54.19690662995896,-0.5312847043372354,3.2273217603585502,-0.2564114284602998,-2.5789992634878427,-0.09427448622442638,-0.028880069054152732,-0.17040369435282135,-4.305127278631221,1.323067619059556,5.263294788815054,0.4511150245282974,1.3304247996219023,-0.20027164527266358
5.9962722247488,42.9380616852532,0.03775941841734324,-93.02737679164264,-0.20910821987072384,136.79455896284784,52.19449809261173,-0.4665746806262351,3.063354989095794,-0.2312118924015859,-2.5358568944275923,-0.08500608125686111,-0.031464420967608465,-0.16586599310038908,-4.32376953312517,1.3549268352426573,4.677058554840835,0.4045945482667105,1.2791646950446527,-0.19637285695595372
4.174114361165344,42.1947877149747,0.032297047837170904,-93.67505350273319,-0.20893250559165455,136.78620946441444,50.29989518726667,-0.7287222600832798,3.2526320332785885,-0.371400228414189,-2.7225730962618724,-0.0791148955963799,-0.31000779242157767,-0.17375821146748915,-3.9462167070266796,1.6347217853274776,4.00606359301592,0.41558643316592664,0.7368190471466546,-0.20771117271175263
2.5632554585079697,41.368450486996636,0.02950454480027106,-94.12694613984822,-0.2082608434202679,136.56206160650348,48.60395744751248,-0.4898994881808822,2.748123654193542,-0.20776542155310884,-2.509367046826093,-0.07562254446944187,-0.5094743224604229,-0.174199192557494,-3.7881101672404522,1.4844746120024188,3.495605497412194,0.39397207803927287,0.5326366667780412,-0.21742772180307657
1.2295194295626766,40.62287433035091,0.0304091717700942,-94.38136940379316,-0.20803103112724447,136.0379623673866,47.137403294746704,-0.6110489372713964,2.9830265308899877,-0.27809902768218503,-2.6553066300070647,-0.08471953443897025,-0.6032191440310304,-0.17726836961557144,-3.9226957885324496,0.9632771201571748,3.474347603426606,0.29385673782520483,0.5128720162175403,-0.21593946040114867
0.19382653257634117,39.7945762782015,0.030876821199640875,-94.49442859012038,-0.20809269008532813,135.43355288276558,46.00623853453748,-0.5734900850249646,2.701910376578905,-0.2552947152354266,-2.5970610984020035,-0.07271103396720767,-0.6220474306916323,-0.2114266204856754,-4.416685507566081,1.2723616381370875,3.4090457255909477,0.3880596289632714,0.6093030671758843,-0.25029909979103937
-0.5050291270413589,39.00431585996618,0.029901354003845016,-94.57350701144702,-0.20792802950341116,134.6490290599311,45.166437422125405,-0.5383382135269662,2.7710688933720085,-0.26128641182612466,-2.7317530987570025,-0.08118773277024526,-0.6062806896685872,-0.2151597031457086,-4.354656314833472,1.084524298106255,3.7399088040123996,0.3650611653196911,0.6443809750411489,-0.2620386730784773
-0.8279155307474968,38.17449132848367,0.031207536712924505,-94.6007593204324,-0.20784094652766494,133.8580388566496,44.698064975046854,-0.6059290838177857,2.5601498588889364,-0.27687556507304395,-2.563786442727887,-0.07982327646445696,-0.5693383926332061,-0.24766357103899825,-4.586509918522852,1.0843161624173068,3.7135730338542183,0.36738640586038784,0.6827020972617672,-0.2921460562921268
-0.8612369564501623,37.77525182084472,0.03205747014198362,-94.61830035086605,-0.20788435844348568,133.46385121147736,44.60936857038571,-0.28609205548868843,2.7511464708136346,-0.2636967733664334,-2.595243133305972,-0.08782689659651846,-0.6014761053012481,-0.24383557347324478,-3.9424445205871295,0.7394113686189241,3.5572260072132607,0.16468149646827673,0.5410643749840528,-0.23232943652859003
-0.7324479873406867,36.91089691275114,0.032409005145822435,-94.62156528750224,-0.20797118131564024,132.6144535423414,44.59501053865269,0.06543056752523574,2.641034856235865,-0.2506105261868686,-2.5519132139264684,-0.09551354446600482,-0.6127782487210615,0.12055755431023148,-3.9552808228911562,-0.28471727848081374,3.4117426322313684,-0.3756768394072704,0.5175489702080459,0.15184009441632781
-0.16913434693520785,36.17985728184236,0.032310260886105786,-94.62155717199072,-0.208054907110801,131.82889336328176,44.82045094530564,0.2560046235907252,2.696898177011243,-0.243137995428038,-2.235420202021502,-0.10727159185463808,-0.5929426453703406,0.1870887015833063,-2.2007427572176823,-0.6004400265907022,3.5599355987982424,-0.5533956650401994,0.1840093650816695,0.2396401708332923
0.7621184236759843,35.459792622952584,0.034315780664522684,-94.55991730655086,-0.20820013398900528,131.06335076474264,45.49267927911454,0.47208216744092923,2.6179971849593375,-0.07860113763192654,-1.9601747826783498,-0.11992622002438227,-0.635623144357089,0.2580768885179528,-0.9295098763710204,-1.0061600731195837,3.3410337470038285,-0.6717671016316799,-0.1384177013392262,0.3070533546945449
2.0120670736714845,34.95683623144886,0.04813535489823057,-94.37111232659876,-0.20838855527287953,130.26614984727067,46.58771828137716,0.5302244196435593,2.706612103432395,0.11637610648310098,-1.7414708796306495,-0.13125275313065668,-0.6430857439171783,0.21474296275234392,0.4583370942472158,-1.0855528278278246,3.423113691718228,-0.5910874620668609,-0.42420753611054796,0.23996434610273423
3.5428102888134525,34.56194205328888,0.05862991617273771,-94.03627272456856,-0.20864371356477038,129.5570258154936,48.005962418318674,0.46275523677070923,2.6423487173185283,0.0937093559822235,-1.6004922101722348,-0.14212768243019144,-0.6314798054464624,0.22197649286767368,0.9637009639724148,-1.052364223343826,3.2960328181670366,-0.5892791605337832,-0.5203608642823924,0.23926219870531817
5.314623323205798,34.458782252529005,0.06215285188525082,-93.43018666229032,-0.20910952160736018,128.86262959398582,49.69279012778652,0.20529752603346893,2.9160985323866835,-0.06511658090689346,-1.5652067835115104,-0.14725047742652977,-0.6370564421309732,0.23334657152190263,1.9941244925639219,-0.8399915773071217,3.662470529224071,-0.5510921859993371,-0.6991779845075587,0.23885817768640727
7.2464828676664865,34.48485982737482,0.06938408764456068,-92.6021981780229,-0.21014365106242602,128.1279089550185,51.5573234726712,-0.10937199187998806,3.491235675193359,-0.2818288181717712,-1.708863497208928,-0.1614551295314043,-0.6379733546266245,0.22736776687584306,3.0464380787314047,-0.595437694201238,4.516797493657944,-0.5096454199188691,-0.8326957213993945,0.22339619288262638
9.280670759294939,34.88291867484954,0.07145709349378897,-91.4468659015883,-0.21170931213456334,127.47719506168443,53.557621819834715,0.7375082650172093,4.167469289354592,0.2923543504011865,-1.8562166672879838,-0.1809421433217548,-0.6553707135701311,0.21613427557277318,4.204030106111915,-2.0867313660685505,5.46515859924474,-0.8118909209261429,-0.9985814395881153,0.2326176105719147
11.371076145222824,35.64740164922282,0.074422944676963,-90.02501865829598,-0.21296347223339168,126.80146832151945,55.61491033507354,0.3135686845166391,3.994057975217308,-0.059716994468050205,-1.834018546465569,-0.1828565736608271,-0.6652696964510407,0.2062603894471186,3.9166846582532995,-1.5564073404624048,5.147176701011062,-0.7428152458499683,-0.9552448704277355,0.2225470896705343
13.406787769899195,36.69015403296001,0.07214749263501236,-88.30129178747235,-0.21393009788101625,126.16126941356963,57.67050344136298,0.6598648722692354,4.155480647438656,0.19960748687569682,-1.8456103529179635,-0.1884846567223255,-0.6672215531260528,0.21747378279952523,4.252320622211905,-1.2343300753545168,5.22237458874538,-0.6632911955604704,-1.0056656412014777,0.19471406629207616
15.36388837050945,38.02971411579026,0.07247272650412984,-86.38646780993967,-0.2143732512269501,125.5464943981338,59.64641929006021,0.9220789529641552,3.4522009024563434,0.37087538939628,-1.5096107803317762,-0.18162255907581598,-0.6371778788397949,0.21715516930154707,3.706447850216512,-2.6756483122397428,4.244505054777814,-0.9638910000097441,-0.9415708350092346,0.2391264589127736
17.180472561665344,39.56512361783093,0.07345758991012359,-84.29637185146971,-0.21496478587295506,124.98615272170089,61.518938206822035,0.1058696146264553,4.453156304827261,-0.20138029909484212,-1.93742586481346,-0.19301994519377894,-0.6757756992393177,0.21295450419941755,4.417441178656068,-2.6619601932753043,5.488910663510037,-0.9768157467643687,-1.0053152353636605,0.24775481350118994
18.794077823914396,41.24026249391366,0.07365545052105915,-82.16254877706265,-0.21520883605185936,124.52431431548864,63.216554560732845,0.07060340227760692,3.74000848642873,-0.22743403200536194,-1.5866329125722003,-0.18438060872884102,-0.6458481143713792,0.2269267822902976,5.341437522821334,-2.8745858930119232,4.867452452489886,-1.046367541854128,-1.2098430410761616,0.27751758249462727
20.162574123460935,42.93434514420565,0.07262302564402594,-80.11444652327718,-0.2153187974628348,124.1868434417278,64.66105140091005,0.35696338680226947,4.231228195015132,-0.05267368586282565,-1.808161058069847,-0.1968313954243881,-0.6942980810518193,0.25971683767249437,5.353778215009513,-3.2309778647858796,4.478910834864807,-1.1177258443181677,-1.2424141375968345,0.2800891831879568
21.26469824553491,44.57839814847671,0.07215467021568843,-78.30090165493782,-0.2153259055363347,123.95804305577774,65.85302709600126,0.36804531868457047,4.021446396854152,-0.05574977500655506,-1.4113356537894755,-0.17918157018374142,-0.6662922422376025,0.2940310072950011,6.8576607435559005,-3.5834060211351595,5.3802296175855195,-1.1965344625436,-1.5078600048871464,0.32142599542599914
22.084043651920567,46.072593829173734,0.07130765379569318,-76.84184474995628,-0.21559072870587945,123.92112842680717,66.76923567029695,0.5089499975655893,3.9818927308554772,0.02546468110494168,-1.3181784499838727,-0.17975421164568725,-0.5829371569943784,0.30667182458354747,6.761260964080382,-3.884962219194451,5.10293322929348,-1.226099919272671,-1.4035272142119408,0.3160485102801705
22.374078294099306,46.74995540300058,0.07183410606720078,-76.28537455786304,-0.21561421492073882,123.94398857986933,67.12955161457988,0.5113642252202591,4.54848283661593,0.014660448098459598,-1.5689736824292406,-0.18819667434404022,-0.2549760011398438,0.33115045102089286,6.165476442072335,-3.8183457105902305,6.588899836010133,-1.0185988979939933,-0.7417412045589905,0.3513823962305676
22.73577299574631,47.87426479878105,0.07148616562640554,-75.59241136888285,-0.21536219545165045,124.29779327632644,67.59228700260257,0.4533471083160087,4.4974781800374775,-0.017899696648615418,-1.4367637196167402,-0.19035267467231434,-0.12665657383873044,0.36179306278526674,4.80597375641616,-3.0428416538024283,6.713055461844045,-0.8286445443099444,-0.4416076280342647,0.3537763524543026
22.745889072282313,48.95599427417138,0.07130101400598218,-75.61117774655457,-0.21541645183993047,125.42509866888888,67.75334269749673,0.18013259204152807,4.547965928526104,0.039458455197718824,-2.039693313262473,-0.1911463876077316,-0.15472902149669446,0.31916773352632044,3.0534831869980117,-2.057045456850826,6.780755347784296,-0.524092587658926,-0.12469287473020228,0.2776622295929503
22.598080442588916,49.08699765475694,0.07093688049599192,-75.92501789301906,-0.21541439339729243,125.90802991983709,67.75176833927212,-0.2685974575939374,4.671233639717937,-0.051540664206262805,-2.5854957532690888,-0.18295724657851556,-0.14430437822245534,-0.11029317061298054,0.4141328870035171,0.3272164680955755,6.937695245205479,0.2282514189948421,0.35175925814981246,-0.15787854342919116
22.026066950839475,49.194422941374455,0.07037434450845736,-77.01487407003218,-0.21544670067382288,127.10766485518852,67.5143954841946,-0.39072919354576163,4.333542935548182,-0.08139927770678561,-2.656297021700413,-0.17511987171624502,-0.1611661252600499,-0.15684580188234543,-1.0686761372426359,1.1808497186132896,6.356949557148022,0.4276536682611496,0.5820609040290667,-0.21114165684239294
21.148045939478266,49.16376105081717,0.07034952934614812,-78.58110342211928,-0.21530016766353394,128.44712231065412,66.87897376230035,-0.3439738870686069,3.8769156874265525,-0.07072368173772926,-2.5741851086767955,-0.17434592131565327,-0.11888247979961894,-0.21287745163785426,-2.1756007451417596,1.6192453908989035,5.681390850294849,0.5267967649411769,0.7942858844344428,-0.2590128404110009
19.961422142851113,48.805804034450134,0.07031904859493884,-80.47259617785356,-0.21531016606626863,129.94078145849838,65.85978499209423,-0.4271232350246537,2.929436063127417,-0.10777470188370047,-2.2578419965715275,-0.1582933214970636,-0.10377319297350657,-0.1761975136484633,-3.3076392741900764,2.0496323055816665,4.169414413163776,0.5799340533291686,0.9217856348156946,-0.2291170093449916
18.535472949328856,48.23933335217584,0.06853488475600028,-82.54750064190387,-0.2149234926406902,131.38489936011723,64.55528353535156,-0.4978531310321082,3.2937684156661193,-0.15673284850262695,-2.5705761634109643,-0.15768182800335515,-0.10671804693880235,-0.17558719034853332,-3.8759818924609983,2.2494208750804185,4.7061444998116135,0.6352430463217493,1.0853536705372078,-0.2314381819500354
16.884119130889623,47.46402922174006,0.054724686354726,-84.65763698327837,-0.2149394277817694,132.76135841507704,62.97051239280053,-0.13507892362250976,3.0049445040954104,-0.005217976021977696,-2.302193429978871,-0.14560661679153603,-0.02802685939122511,-0.17043699961708944,-3.554148374663918,1.5053786839830745,4.438714445793983,0.4512554070560148,1.0858645035472596,-0.19965069153101905
15.042866891816862,46.68622389664849,0.048394643010675455,-86.72216869039224,-0.21446569116258457,134.0311176624512,61.21302796741472,-0.10499491753184206,3.004285608607281,-0.028959074548447046,-2.321693922332817,-0.14440404246450161,-0.0566626339274259,-0.16895574462649263,-3.5565495059548735,1.3404044370844153,4.424565898740253,0.3734605736716395,1.068288945302487,-0.1892917503622914
13.065104685774736,45.80844293661855,0.04428502734426468,-88.56476619637142,-0.21356732864099862,135.0773130531913,59.2938395131855,-0.4293680098753838,3.5227899979938755,-0.21778881465991962,-2.6642299259963833,-0.13229741637682182,-0.05618879272473705,-0.19268752642685358,-3.7469370166237588,1.7554455823667285,5.281900933826411,0.5045097478523095,1.1764138451030353,-0.2240672706957682
10.99630806591606,44.99518254133368,0.04075547522733509,-90.21035311191528,-0.21231636000555668,135.90670349880895,57.28013308758968,-0.41329349278677124,3.2617484221671194,-0.227645874745303,-2.5539082166328644,-0.11755673043291502,-0.025938159867099266,-0.2080299971285592,-4.28476847456641,1.4568503343357437,5.12256159409288,0.48521375285520146,1.2932229042495829,-0.2257566114467728
8.933821173963093,44.160557270460686,0.04139295232823479,-91.54807161342973,-0.2108859116452714,136.47122040184635,55.20322666326167,-0.5945810479696106,3.0863978532250766,-0.3014442847824342,-2.5300506254310138,-0.09175949167750373,-0.02304292816016557,-0.19172584053462274,-4.254677553903253,1.7934467909188776,4.660744061375717,0.533963216803652,1.262157349499676,-0.2277430951691677
6.926963303262292,43.33475962199263,0.03982285021787241,-92.62223996469903,-0.20951261364141682,136.76339321446852,53.155400860884775,-0.16145229617021845,3.3382391964240266,0.03482567778161031,-2.691430502856127,-0.09164055270048996,-0.011955898397157496,-0.17747940607566065,-4.381041625543038,1.6134915059827368,4.848577218812723,0.5403822517733359,1.3443299052245945,-0.24638760699758327
5.0117365822362165,42.570747224972806,0.03851624420216851,-93.40630382393392,-0.20894033345319377,136.79960490778916,51.20347992615653,-0.5851280178749537,3.0233139482372176,-0.2741495995576571,-2.5460880026880877,-0.08330701219072914,-0.03925948703344278,-0.18590214428593949,-4.117721208081974,1.5999769645377475,4.647257346120609,0.49864142534582123,0.9463547096841097,-0.24977538209009484
3.312867449127815,41.7570082134933,0.038794119280911754,-93.92013374106891,-0.20862062638002565,136.70733349379086,49.39835141466563,-0.7662724086700035,2.9153241913851584,-0.3878025077300704,-2.622178083026713,-0.07737740464752339,-0.44374824230051757,-0.1888441451511911,-3.8170294403215426,1.043596105743831,3.7452471199641053,0.3568428538084812,0.6072320115459164,-0.23259209655628532
1.8345608387091772,41.02319328901406,0.03867668243162908,-94.28379322365426,-0.20814610044949097,136.30847353180695,47.82836091199106,-0.7267903589040676,2.769855203141796,-0.35335284613311435,-2.5609839261999814,-0.07882085586187386,-0.5680525563903466,-0.20383773483447146,-3.9255047183735337,1.2989876839487335,3.7462263507345233,0.4029328380977695,0.5440600020054304,-0.2383362906980091
0.6478586787218428,40.18705493565225,0.0382158509442547,-94.45046210921016,-0.2078459222787173,135.74600341454115,46.539610085524565,-0.44156324609677144,2.8477845354613316,-0.16665843884739107,-2.626786447261036,-0.08110161975491065,-0.6153480818844602,-0.20877597647872712,-4.303310143221905,1.1987399541792645,3.1894029823826653,0.41235172806789794,0.5684483928533328,-0.2719660214622295
-0.21200102601569581,39.42125635785747,0.039304891643024475,-94.5457023626613,-0.20815907696804195,135.01953342684652,45.54365630729318,-0.5938281220838283,2.8413870858617103,-0.2483960585859065,-2.743231952107285,-0.08305117008423103,-0.6122236721722262,-0.2364587432820474,-4.522588534244698,1.200184296840947,3.5289171477199734,0.4042405623666575,0.6485662417584007,-0.27685026393471374
-0.7087240441835764,38.557600519062845,0.03967853034494294,-94.59323737358463,-0.20786772443062043,134.2619667474117,44.88193382641667,-0.5691509851959198,2.9820842743624767,-0.2198949612824818,-2.807835094875412,-0.08557618668613819,-0.6005641673983978,-0.23558964606505942,-4.61239977815727,1.1428344528504577,3.423782868636018,0.40979321825082893,0.6950811752570482,-0.2936488681202538
-0.8616647763923948,37.76511336167352,0.04098837116942715,-94.61732952465509,-0.20817565661107654,133.4550315801593,44.61307021108414,-0.5197521606209078,2.8600352350004528,-0.1840046029469126,-2.8183346690306603,-0.09222183540666004,-0.6103568048310946,-0.2769471964106278,-4.102123053233429,0.7185402284680549,3.4846690496341868,0.18479927532766463,0.5695633140055675,-0.24237981448114715
-0.8431046623216765,37.32548716959437,0.041708513230395865,-94.6214121597693,-0.20826628656287083,133.05207204845726,44.601067613002435,-0.10032735047134282,2.6561671687886332,-0.23426591590727772,-2.508147684308628,-0.09125474151203632,-0.6073716259638435,-0.09420678124431979,-3.729483486723941,0.2621775663220696,3.4203187983912198,-0.07265286488695948,0.4773273328036976,-0.07272370633446011
-0.486677059417399,36.55351282390744,0.041282930441112045,-94.62287542654968,-0.2082621286434841,132.2219751114592,44.64318158086802,0.27439352433464476,2.821996457403036,-0.1808397311013032,-2.5382935111471143,-0.1026100990502312,-0.6184513339799099,0.14800588160034622,-3.3294736291406144,-0.5933578780470121,3.725378130491925,-0.5000529101431133,0.40860358229386906,0.19591012558976234
0.27245609819160566,35.788272355708955,0.04292629967560426,-94.60754119894537,-0.20822229918557086,131.41309602022363,45.116394024800556,0.15712681633793543,2.678156420583608,-0.27136946124605454,-2.07919906461767,-0.11105899255835901,-0.6305598484429027,0.24766143251924763,-1.3727440583534964,-0.5534616460311947,3.458301196150897,-0.5547799890889891,-0.03371027171679228,0.2847616399937916
1.3667409753990127,35.18932987761065,0.05055847894457239,-94.4630755721751,-0.20836057071130373,130.6509152899141,45.987107329673236,0.2005567281858262,2.7342182642543493,-0.14143582774393565,-1.8949351645782908,-0.1267064907222576,-0.6477800928894673,0.26639370321717326,-0.21884731579375494,-0.669600158395717,3.4936613584654967,-0.5452196124201992,-0.2831779204931159,0.2838647627977464
2.780027205106851,34.712807181920866,0.05727755297932059,-94.21525008245139,-0.2085823974073089,129.91049014491432,47.29944524432251,0.12201395309083422,2.641923155699021,-0.18215893107315845,-1.595217332884502,-0.131535330465031,-0.6431051589576853,0.2152646438459825,1.038345015502251,-0.5384037150974682,3.28427893394311,-0.495326954623238,-0.5528415053120275,0.2319264329884889
4.438418633776824,34.48761848605813,0.05874797684004125,-93.75470925576899,-0.20877868787564471,129.17748824383608,48.861546798273196,-0.18140349213414272,2.579894965176769,-0.3490766660810203,-1.5308169157796396,-0.13865164619913628,-0.6491639864377018,0.2223494444837465,1.2363444596869098,-0.17682771123704244,3.143820720430771,-0.4179576769619546,-0.6024065839959467,0.22213417293339363
6.2995176962904615,34.46093763900776,0.06265893550685907,-93.04482996462832,-0.2095322913049519,128.48626093420117,50.618442485967485,0.650308610054069,3.224046236033956,0.2525411591819716,-1.6136447976486448,-0.15547684831663752,-0.6546445361165101,0.2278553170394397,2.64045279613858,-1.5760741122918576,4.08038191437467,-0.6963117761907212,-0.8109562516148547,0.24256022173335898
